( Made using CamBam - http://www.cambam.co.uk )
( LinkFixture 4/19/2014 8:14:36 PM )
( T11 : 0.75 )
( T12 : 0.141 )
( T13 : 0.141 )
G20 G90 G61 G40
G0 Z0.05
( T11 : 0.75 )
T11 M6
( Pocket1 )
G17
M3 S4000
G0 X1.1545 Y0.5245
G1 F4.0 Z0.01
G1 X1.1443 Y0.5203 Z0.0081
G2 X1.0497 Y0.4949 Z-0.0093 I-0.1435 J0.3465
G1 X1.0214 Y0.4912 Z-0.0143
G2 X0.9235 Z-0.0316 I-0.0489 J0.3718
G1 X0.8952 Y0.4949 Z-0.0366
G2 X0.8006 Y0.5203 Z-0.054 I0.0489 J0.3718
G1 X0.7742 Y0.5312 Z-0.059
G2 X0.6894 Y0.5801 Z-0.0763 I0.1435 J0.3465
G1 X0.6668 Y0.5975 Z-0.0813
G2 X0.6299 Y0.6299 Z-0.09 I0.2283 J0.2975
G2 F8.0 X0.5975 Y0.6668 I0.2652 J0.2652
G1 X0.5801 Y0.6894
G2 X0.5312 Y0.7742 I0.2975 J0.2283
G1 X0.5203 Y0.8006
G2 X0.4949 Y0.8952 I0.3465 J0.1435
G1 X0.4912 Y0.9235
G2 Y1.0214 I0.3718 J0.0489
G1 X0.4949 Y1.0497
G2 X0.5203 Y1.1443 I0.3718 J-0.0489
G1 X0.5312 Y1.1707
G2 X0.5801 Y1.2555 I0.3465 J-0.1435
G1 X0.5975 Y1.2781
G2 X0.6668 Y1.3473 I0.2975 J-0.2283
G1 X0.6894 Y1.3647
G2 X0.7742 Y1.4137 I0.2283 J-0.2975
G1 X0.8006 Y1.4246
G2 X0.8952 Y1.45 I0.1435 J-0.3465
G1 X0.9235 Y1.4537
G2 X1.0214 I0.0489 J-0.3718
G1 X1.0497 Y1.45
G2 X1.1443 Y1.4246 I-0.0489 J-0.3718
G1 X1.1707 Y1.4137
G2 X1.2555 Y1.3647 I-0.1435 J-0.3465
G1 X1.2781 Y1.3473
G2 X1.3473 Y1.2781 I-0.2283 J-0.2975
G1 X1.3647 Y1.2555
G2 X1.4137 Y1.1707 I-0.2975 J-0.2283
G1 X1.4246 Y1.1443
G2 X1.45 Y1.0497 I-0.3465 J-0.1435
G1 X1.4537 Y1.0214
G2 Y0.9235 I-0.3718 J-0.0489
G1 X1.45 Y0.8952
G2 X1.4246 Y0.8006 I-0.3718 J0.0489
G1 X1.4137 Y0.7742
G2 X1.3647 Y0.6894 I-0.3465 J0.1435
G1 X1.3473 Y0.6668
G2 X1.2781 Y0.5975 I-0.2975 J0.2283
G1 X1.2555 Y0.5801
G2 X1.1707 Y0.5312 I-0.2283 J0.2975
G1 X1.1443 Y0.5203
G2 X1.0497 Y0.4949 I-0.1435 J0.3465
G1 X1.0214 Y0.4912
G2 X0.9235 I-0.0489 J0.3718
G1 X0.8952 Y0.4949
G2 X0.8006 Y0.5203 I0.0489 J0.3718
G1 X0.7742 Y0.5312
G2 X0.6894 Y0.5801 I0.1435 J0.3465
G1 X0.6668 Y0.5975
G2 X0.6299 Y0.6299 I0.2283 J0.2975
G0 Z0.05
G0 X2.1194 Y0.4961
G1 F4.0 Z0.01
G2 X2.0329 Y0.5203 Z-0.0059 I0.057 J0.3706
G1 X2.0065 Y0.5312 Z-0.0109
G2 X1.9217 Y0.5801 Z-0.0282 I0.1435 J0.3465
G1 X1.899 Y0.5975 Z-0.0333
G2 X1.8298 Y0.6668 Z-0.0506 I0.2283 J0.2975
G1 X1.8124 Y0.6894 Z-0.0556
G2 X1.7635 Y0.7742 Z-0.0729 I0.2975 J0.2283
G1 X1.7526 Y0.8006 Z-0.078
G2 X1.7323 Y0.8657 Z-0.09 I0.3465 J0.1435
G2 F8.0 X1.7272 Y0.8952 I0.3667 J0.0784
G1 X1.7235 Y0.9235
G2 Y1.0214 I0.3718 J0.0489
G1 X1.7272 Y1.0497
G2 X1.7526 Y1.1443 I0.3718 J-0.0489
G1 X1.7635 Y1.1707
G2 X1.8124 Y1.2555 I0.3465 J-0.1435
G1 X1.8298 Y1.2781
G2 X1.899 Y1.3473 I0.2975 J-0.2283
G1 X1.9217 Y1.3647
G2 X2.0065 Y1.4137 I0.2283 J-0.2975
G1 X2.0329 Y1.4246
G2 X2.1274 Y1.45 I0.1435 J-0.3465
G1 X2.1558 Y1.4537
G2 X2.2537 I0.0489 J-0.3718
G1 X2.282 Y1.45
G2 X2.3766 Y1.4246 I-0.0489 J-0.3718
G1 X2.403 Y1.4137
G2 X2.4877 Y1.3647 I-0.1435 J-0.3465
G1 X2.5104 Y1.3473
G2 X2.5796 Y1.2781 I-0.2283 J-0.2975
G1 X2.597 Y1.2555
G2 X2.646 Y1.1707 I-0.2975 J-0.2283
G1 X2.6569 Y1.1443
G2 X2.6822 Y1.0497 I-0.3465 J-0.1435
G1 X2.686 Y1.0214
G2 Y0.9235 I-0.3718 J-0.0489
G1 X2.6822 Y0.8952
G2 X2.6569 Y0.8006 I-0.3718 J0.0489
G1 X2.646 Y0.7742
G2 X2.597 Y0.6894 I-0.3465 J0.1435
G1 X2.5796 Y0.6668
G2 X2.5104 Y0.5975 I-0.2975 J0.2283
G1 X2.4877 Y0.5801
G2 X2.403 Y0.5312 I-0.2283 J0.2975
G1 X2.3766 Y0.5203
G2 X2.282 Y0.4949 I-0.1435 J0.3465
G1 X2.2537 Y0.4912
G2 X2.1558 I-0.0489 J0.3718
G1 X2.1274 Y0.4949
G2 X2.0329 Y0.5203 I0.0489 J0.3718
G1 X2.0065 Y0.5312
G2 X1.9217 Y0.5801 I0.1435 J0.3465
G1 X1.899 Y0.5975
G2 X1.8298 Y0.6668 I0.2283 J0.2975
G1 X1.8124 Y0.6894
G2 X1.7635 Y0.7742 I0.2975 J0.2283
G1 X1.7526 Y0.8006
G2 X1.7323 Y0.8657 I0.3465 J0.1435
G0 Z0.05
G0 X1.5919 Y1.8236
G1 F4.0 Z0.01
G1 X1.5886 Y1.8279 Z0.009
G1 X1.5849 Y1.8231 Z0.008
G2 X1.4604 Y1.6986 Z-0.0232 I-0.535 J0.4105
G1 X1.4377 Y1.6812 Z-0.0282
G2 X1.3804 Y1.6417 Z-0.0405 I-0.4105 J0.535
G2 X1.4377 Y1.6023 Z-0.0528 I-0.3532 J-0.5745
G1 X1.4604 Y1.5849 Z-0.0578
G2 X1.5849 Y1.4604 Z-0.0889 I-0.4105 J-0.535
G1 X1.5886 Y1.4555 Z-0.09
G1 F8.0 X1.5923 Y1.4604
G2 X1.7168 Y1.5849 I0.535 J-0.4105
G1 X1.7395 Y1.6023
G2 X1.7968 Y1.6417 I0.4105 J-0.535
G2 X1.7395 Y1.6812 I0.3532 J0.5745
G1 X1.7168 Y1.6986
G2 X1.5923 Y1.8231 I0.4105 J0.535
G1 X1.5886 Y1.8279
G1 X1.5849 Y1.8231
G2 X1.4604 Y1.6986 I-0.535 J0.4105
G1 X1.4377 Y1.6812
G2 X1.3804 Y1.6417 I-0.4105 J0.535
G2 X1.4377 Y1.6023 I-0.3532 J-0.5745
G1 X1.4604 Y1.5849
G2 X1.5849 Y1.4604 I-0.4105 J-0.535
G1 X1.5886 Y1.4555
G0 Z0.05
G0 X2.8884 Y1.6381
G1 F4.0 Z0.01
G2 X2.8921 Y1.6417 Z0.0091 I0.5775 J-0.5883
G2 X2.874 Y1.6598 Z0.0046 I0.5738 J0.5919
G2 X2.856 Y1.6417 Z0.0001 I-0.5919 J0.5738
G2 X2.874 Y1.6237 Z-0.0044 I-0.5738 J-0.5919
G2 X2.8921 Y1.6417 Z-0.0089 I0.5919 J-0.5738
G2 X2.874 Y1.6598 Z-0.0134 I0.5738 J0.5919
G2 X2.856 Y1.6417 Z-0.0179 I-0.5919 J0.5738
G2 X2.874 Y1.6237 Z-0.0224 I-0.5738 J-0.5919
G2 X2.8921 Y1.6417 Z-0.0269 I0.5919 J-0.5738
G2 X2.874 Y1.6598 Z-0.0314 I0.5738 J0.5919
G2 X2.856 Y1.6417 Z-0.036 I-0.5919 J0.5738
G2 X2.874 Y1.6237 Z-0.0405 I-0.5738 J-0.5919
G2 X2.8921 Y1.6417 Z-0.045 I0.5919 J-0.5738
G2 X2.874 Y1.6598 Z-0.0495 I0.5738 J0.5919
G2 X2.856 Y1.6417 Z-0.054 I-0.5919 J0.5738
G2 X2.874 Y1.6237 Z-0.0585 I-0.5738 J-0.5919
G2 X2.8921 Y1.6417 Z-0.063 I0.5919 J-0.5738
G2 X2.874 Y1.6598 Z-0.0675 I0.5738 J0.5919
G2 X2.856 Y1.6417 Z-0.072 I-0.5919 J0.5738
G2 X2.874 Y1.6237 Z-0.0765 I-0.5738 J-0.5919
G2 X2.8921 Y1.6417 Z-0.081 I0.5919 J-0.5738
G2 X2.874 Y1.6598 Z-0.0855 I0.5738 J0.5919
G2 X2.856 Y1.6417 Z-0.09 I-0.5919 J0.5738
G2 F8.0 X2.874 Y1.6237 I-0.5738 J-0.5919
G2 X2.8921 Y1.6417 I0.5919 J-0.5738
G2 X2.874 Y1.6598 I0.5738 J0.5919
G2 X2.856 Y1.6417 I-0.5919 J0.5738
G1 F4.0 X2.7515 Y1.534
G2 F8.0 X2.8172 Y1.4604 I-0.4694 J-0.4842
G1 X2.8345 Y1.4377
G2 X2.874 Y1.3804 I-0.535 J-0.4105
G2 X2.9135 Y1.4377 I0.5745 J-0.3532
G1 X2.9309 Y1.4604
G2 X3.0554 Y1.5849 I0.535 J-0.4105
G1 X3.078 Y1.6023
G2 X3.1354 Y1.6417 I0.4105 J-0.535
G2 X3.078 Y1.6812 I0.3532 J0.5745
G1 X3.0554 Y1.6986
G2 X2.9309 Y1.8231 I0.4105 J0.535
G1 X2.9135 Y1.8458
G2 X2.874 Y1.9031 I0.535 J0.4105
G2 X2.8345 Y1.8458 I-0.5745 J0.3532
G1 X2.8172 Y1.8231
G2 X2.6927 Y1.6986 I-0.535 J0.4105
G1 X2.67 Y1.6812
G2 X2.6127 Y1.6417 I-0.4105 J0.535
G2 X2.67 Y1.6023 I-0.3532 J-0.5745
G1 X2.6927 Y1.5849
G2 X2.7515 Y1.534 I-0.4105 J-0.535
G0 Z0.05
G0 X4.3631 Y1.6389
G1 F4.0 Z0.01
G2 X4.3677 Y1.6417 Z0.009 I0.3578 J-0.5717
G2 X4.3103 Y1.6812 Z-0.0032 I0.3532 J0.5745
G1 X4.2876 Y1.6986 Z-0.0083
G2 X4.1632 Y1.8231 Z-0.0394 I0.4105 J0.535
G1 X4.1594 Y1.8279 Z-0.0405
G1 X4.1557 Y1.8231 Z-0.0416
G2 X4.0312 Y1.6986 Z-0.0727 I-0.535 J0.4105
G1 X4.0086 Y1.6812 Z-0.0777
G2 X3.9512 Y1.6417 Z-0.09 I-0.4105 J0.535
G2 F8.0 X4.0086 Y1.6023 I-0.3532 J-0.5745
G1 X4.0312 Y1.5849
G2 X4.1557 Y1.4604 I-0.4105 J-0.535
G1 X4.1594 Y1.4555
G1 X4.1632 Y1.4604
G2 X4.2876 Y1.5849 I0.535 J-0.4105
G1 X4.3103 Y1.6023
G2 X4.3677 Y1.6417 I0.4105 J-0.535
G2 X4.3103 Y1.6812 I0.3532 J0.5745
G1 X4.2876 Y1.6986
G2 X4.1632 Y1.8231 I0.4105 J0.535
G1 X4.1594 Y1.8279
G1 X4.1557 Y1.8231
G2 X4.0312 Y1.6986 I-0.535 J0.4105
G1 X4.0086 Y1.6812
G2 X3.9512 Y1.6417 I-0.4105 J0.535
G0 Z0.05
G0 X4.1627 Y3.1622
G1 F4.0 Z0.01
G1 X4.1594 Y3.1665 Z0.009
G1 X4.1557 Y3.1617 Z0.008
G2 X4.0312 Y3.0372 Z-0.0232 I-0.535 J0.4105
G1 X4.0086 Y3.0198 Z-0.0282
G2 X3.9512 Y2.9803 Z-0.0405 I-0.4105 J0.535
G2 X4.0086 Y2.9408 Z-0.0528 I-0.3532 J-0.5745
G1 X4.0312 Y2.9235 Z-0.0578
G2 X4.1557 Y2.799 Z-0.0889 I-0.4105 J-0.535
G1 X4.1594 Y2.7941 Z-0.09
G1 F8.0 X4.1632 Y2.799
G2 X4.2876 Y2.9235 I0.535 J-0.4105
G1 X4.3103 Y2.9408
G2 X4.3677 Y2.9803 I0.4105 J-0.535
G2 X4.3103 Y3.0198 I0.3532 J0.5745
G1 X4.2876 Y3.0372
G2 X4.1632 Y3.1617 I0.4105 J0.535
G1 X4.1594 Y3.1665
G1 X4.1557 Y3.1617
G2 X4.0312 Y3.0372 I-0.535 J0.4105
G1 X4.0086 Y3.0198
G2 X3.9512 Y2.9803 I-0.4105 J0.535
G2 X4.0086 Y2.9408 I-0.3532 J-0.5745
G1 X4.0312 Y2.9235
G2 X4.1557 Y2.799 I-0.4105 J-0.535
G1 X4.1594 Y2.7941
G0 Z0.05
G0 X2.8597 Y2.9839
G1 F4.0 Z0.01
G2 X2.856 Y2.9803 Z0.0091 I-0.5775 J0.5883
G2 X2.874 Y2.9623 Z0.0046 I-0.5738 J-0.5919
G2 X2.8921 Y2.9803 Z0.0001 I0.5919 J-0.5738
G2 X2.874 Y2.9984 Z-0.0044 I0.5738 J0.5919
G2 X2.856 Y2.9803 Z-0.0089 I-0.5919 J0.5738
G2 X2.874 Y2.9623 Z-0.0134 I-0.5738 J-0.5919
G2 X2.8921 Y2.9803 Z-0.0179 I0.5919 J-0.5738
G2 X2.874 Y2.9984 Z-0.0224 I0.5738 J0.5919
G2 X2.856 Y2.9803 Z-0.0269 I-0.5919 J0.5738
G2 X2.874 Y2.9623 Z-0.0314 I-0.5738 J-0.5919
G2 X2.8921 Y2.9803 Z-0.036 I0.5919 J-0.5738
G2 X2.874 Y2.9984 Z-0.0405 I0.5738 J0.5919
G2 X2.856 Y2.9803 Z-0.045 I-0.5919 J0.5738
G2 X2.874 Y2.9623 Z-0.0495 I-0.5738 J-0.5919
G2 X2.8921 Y2.9803 Z-0.054 I0.5919 J-0.5738
G2 X2.874 Y2.9984 Z-0.0585 I0.5738 J0.5919
G2 X2.856 Y2.9803 Z-0.063 I-0.5919 J0.5738
G2 X2.874 Y2.9623 Z-0.0675 I-0.5738 J-0.5919
G2 X2.8921 Y2.9803 Z-0.072 I0.5919 J-0.5738
G2 X2.874 Y2.9984 Z-0.0765 I0.5738 J0.5919
G2 X2.856 Y2.9803 Z-0.081 I-0.5919 J0.5738
G2 X2.874 Y2.9623 Z-0.0855 I-0.5738 J-0.5919
G2 X2.8921 Y2.9803 Z-0.09 I0.5919 J-0.5738
G2 F8.0 X2.874 Y2.9984 I0.5738 J0.5919
G2 X2.856 Y2.9803 I-0.5919 J0.5738
G2 X2.874 Y2.9623 I-0.5738 J-0.5919
G2 X2.8921 Y2.9803 I0.5919 J-0.5738
G1 F4.0 X2.9965 Y3.088
G2 F8.0 X2.9309 Y3.1617 I0.4694 J0.4842
G1 X2.9135 Y3.1843
G2 X2.874 Y3.2417 I0.535 J0.4105
G2 X2.8345 Y3.1843 I-0.5745 J0.3532
G1 X2.8172 Y3.1617
G2 X2.6927 Y3.0372 I-0.535 J0.4105
G1 X2.67 Y3.0198
G2 X2.6127 Y2.9803 I-0.4105 J0.535
G2 X2.67 Y2.9408 I-0.3532 J-0.5745
G1 X2.6927 Y2.9235
G2 X2.8172 Y2.799 I-0.4105 J-0.535
G1 X2.8345 Y2.7763
G2 X2.874 Y2.719 I-0.535 J-0.4105
G2 X2.9135 Y2.7763 I0.5745 J-0.3532
G1 X2.9309 Y2.799
G2 X3.0554 Y2.9235 I0.535 J-0.4105
G1 X3.078 Y2.9408
G2 X3.1354 Y2.9803 I0.4105 J-0.535
G2 X3.078 Y3.0198 I0.3532 J0.5745
G1 X3.0554 Y3.0372
G2 X2.9965 Y3.088 I0.4105 J0.535
G0 Z0.05
G0 X1.385 Y2.9832
G1 F4.0 Z0.01
G2 X1.3804 Y2.9803 Z0.009 I-0.3578 J0.5717
G2 X1.4377 Y2.9408 Z-0.0032 I-0.3532 J-0.5745
G1 X1.4604 Y2.9235 Z-0.0083
G2 X1.5849 Y2.799 Z-0.0394 I-0.4105 J-0.535
G1 X1.5886 Y2.7941 Z-0.0405
G1 X1.5923 Y2.799 Z-0.0416
G2 X1.7168 Y2.9235 Z-0.0727 I0.535 J-0.4105
G1 X1.7395 Y2.9408 Z-0.0777
G2 X1.7968 Y2.9803 Z-0.09 I0.4105 J-0.535
G2 F8.0 X1.7395 Y3.0198 I0.3532 J0.5745
G1 X1.7168 Y3.0372
G2 X1.5923 Y3.1617 I0.4105 J0.535
G1 X1.5886 Y3.1665
G1 X1.5849 Y3.1617
G2 X1.4604 Y3.0372 I-0.535 J0.4105
G1 X1.4377 Y3.0198
G2 X1.3804 Y2.9803 I-0.4105 J0.535
G2 X1.4377 Y2.9408 I-0.3532 J-0.5745
G1 X1.4604 Y2.9235
G2 X1.5849 Y2.799 I-0.4105 J-0.535
G1 X1.5886 Y2.7941
G1 X1.5923 Y2.799
G2 X1.7168 Y2.9235 I0.535 J-0.4105
G1 X1.7395 Y2.9408
G2 X1.7968 Y2.9803 I0.4105 J-0.535
G0 Z0.05
G0 X1.5919 Y4.5008
G1 F4.0 Z0.01
G1 X1.5886 Y4.5051 Z0.009
G1 X1.5849 Y4.5002 Z0.008
G2 X1.4604 Y4.3758 Z-0.0232 I-0.535 J0.4105
G1 X1.4377 Y4.3584 Z-0.0282
G2 X1.3804 Y4.3189 Z-0.0405 I-0.4105 J0.535
G2 X1.4377 Y4.2794 Z-0.0528 I-0.3532 J-0.5745
G1 X1.4604 Y4.262 Z-0.0578
G2 X1.5849 Y4.1375 Z-0.0889 I-0.4105 J-0.535
G1 X1.5886 Y4.1327 Z-0.09
G1 F8.0 X1.5923 Y4.1375
G2 X1.7168 Y4.262 I0.535 J-0.4105
G1 X1.7395 Y4.2794
G2 X1.7968 Y4.3189 I0.4105 J-0.535
G2 X1.7395 Y4.3584 I0.3532 J0.5745
G1 X1.7168 Y4.3758
G2 X1.5923 Y4.5002 I0.4105 J0.535
G1 X1.5886 Y4.5051
G1 X1.5849 Y4.5002
G2 X1.4604 Y4.3758 I-0.535 J0.4105
G1 X1.4377 Y4.3584
G2 X1.3804 Y4.3189 I-0.4105 J0.535
G2 X1.4377 Y4.2794 I-0.3532 J-0.5745
G1 X1.4604 Y4.262
G2 X1.5849 Y4.1375 I-0.4105 J-0.535
G1 X1.5886 Y4.1327
G0 Z0.05
G0 X2.8884 Y4.3153
G1 F4.0 Z0.01
G2 X2.8921 Y4.3189 Z0.0091 I0.5775 J-0.5883
G2 X2.874 Y4.337 Z0.0046 I0.5738 J0.5919
G2 X2.856 Y4.3189 Z0.0001 I-0.5919 J0.5738
G2 X2.874 Y4.3008 Z-0.0044 I-0.5738 J-0.5919
G2 X2.8921 Y4.3189 Z-0.0089 I0.5919 J-0.5738
G2 X2.874 Y4.337 Z-0.0134 I0.5738 J0.5919
G2 X2.856 Y4.3189 Z-0.0179 I-0.5919 J0.5738
G2 X2.874 Y4.3008 Z-0.0224 I-0.5738 J-0.5919
G2 X2.8921 Y4.3189 Z-0.0269 I0.5919 J-0.5738
G2 X2.874 Y4.337 Z-0.0314 I0.5738 J0.5919
G2 X2.856 Y4.3189 Z-0.036 I-0.5919 J0.5738
G2 X2.874 Y4.3008 Z-0.0405 I-0.5738 J-0.5919
G2 X2.8921 Y4.3189 Z-0.045 I0.5919 J-0.5738
G2 X2.874 Y4.337 Z-0.0495 I0.5738 J0.5919
G2 X2.856 Y4.3189 Z-0.054 I-0.5919 J0.5738
G2 X2.874 Y4.3008 Z-0.0585 I-0.5738 J-0.5919
G2 X2.8921 Y4.3189 Z-0.063 I0.5919 J-0.5738
G2 X2.874 Y4.337 Z-0.0675 I0.5738 J0.5919
G2 X2.856 Y4.3189 Z-0.072 I-0.5919 J0.5738
G2 X2.874 Y4.3008 Z-0.0765 I-0.5738 J-0.5919
G2 X2.8921 Y4.3189 Z-0.081 I0.5919 J-0.5738
G2 X2.874 Y4.337 Z-0.0855 I0.5738 J0.5919
G2 X2.856 Y4.3189 Z-0.09 I-0.5919 J0.5738
G2 F8.0 X2.874 Y4.3008 I-0.5738 J-0.5919
G2 X2.8921 Y4.3189 I0.5919 J-0.5738
G2 X2.874 Y4.337 I0.5738 J0.5919
G2 X2.856 Y4.3189 I-0.5919 J0.5738
G1 F4.0 X2.7515 Y4.2112
G2 F8.0 X2.8172 Y4.1375 I-0.4694 J-0.4842
G1 X2.8345 Y4.1149
G2 X2.874 Y4.0575 I-0.535 J-0.4105
G2 X2.9135 Y4.1149 I0.5745 J-0.3532
G1 X2.9309 Y4.1375
G2 X3.0554 Y4.262 I0.535 J-0.4105
G1 X3.078 Y4.2794
G2 X3.1354 Y4.3189 I0.4105 J-0.535
G2 X3.078 Y4.3584 I0.3532 J0.5745
G1 X3.0554 Y4.3758
G2 X2.9309 Y4.5002 I0.4105 J0.535
G1 X2.9135 Y4.5229
G2 X2.874 Y4.5803 I0.535 J0.4105
G2 X2.8345 Y4.5229 I-0.5745 J0.3532
G1 X2.8172 Y4.5002
G2 X2.6927 Y4.3758 I-0.535 J0.4105
G1 X2.67 Y4.3584
G2 X2.6127 Y4.3189 I-0.4105 J0.535
G2 X2.67 Y4.2794 I-0.3532 J-0.5745
G1 X2.6927 Y4.262
G2 X2.7515 Y4.2112 I-0.4105 J-0.535
G0 Z0.05
G0 X4.3631 Y4.3161
G1 F4.0 Z0.01
G2 X4.3677 Y4.3189 Z0.009 I0.3578 J-0.5717
G2 X4.3103 Y4.3584 Z-0.0032 I0.3532 J0.5745
G1 X4.2876 Y4.3758 Z-0.0083
G2 X4.1632 Y4.5002 Z-0.0394 I0.4105 J0.535
G1 X4.1594 Y4.5051 Z-0.0405
G1 X4.1557 Y4.5002 Z-0.0416
G2 X4.0312 Y4.3758 Z-0.0727 I-0.535 J0.4105
G1 X4.0086 Y4.3584 Z-0.0777
G2 X3.9512 Y4.3189 Z-0.09 I-0.4105 J0.535
G2 F8.0 X4.0086 Y4.2794 I-0.3532 J-0.5745
G1 X4.0312 Y4.262
G2 X4.1557 Y4.1375 I-0.4105 J-0.535
G1 X4.1594 Y4.1327
G1 X4.1632 Y4.1375
G2 X4.2876 Y4.262 I0.535 J-0.4105
G1 X4.3103 Y4.2794
G2 X4.3677 Y4.3189 I0.4105 J-0.535
G2 X4.3103 Y4.3584 I0.3532 J0.5745
G1 X4.2876 Y4.3758
G2 X4.1632 Y4.5002 I0.4105 J0.535
G1 X4.1594 Y4.5051
G1 X4.1557 Y4.5002
G2 X4.0312 Y4.3758 I-0.535 J0.4105
G1 X4.0086 Y4.3584
G2 X3.9512 Y4.3189 I-0.4105 J0.535
G0 Z0.05
G0 X5.5805 Y4.1972
G1 F4.0 Z0.01
G1 Y4.5147 Z-0.046
G2 X5.5244 Y4.4316 Z-0.0637 I-0.7101 J0.4187
G1 X5.507 Y4.4089 Z-0.0687
G2 X5.4268 Y4.3189 Z-0.09 I-0.654 J0.5019
G2 F8.0 X5.507 Y4.2289 I-0.5738 J-0.5919
G1 X5.5244 Y4.2062
G2 X5.5805 Y4.1231 I-0.654 J-0.5019
G1 Y4.5147
G2 X5.5244 Y4.4316 I-0.7101 J0.4187
G1 X5.507 Y4.4089
G2 X5.4268 Y4.3189 I-0.654 J0.5019
G0 Z0.05
G0 X5.4777 Y2.9264
G1 F4.0 Z0.01
G2 X5.507 Y2.8903 Z0.0018 I-0.6247 J-0.538
G1 X5.5244 Y2.8676 Z-0.0032
G2 X5.5805 Y2.7845 Z-0.0209 I-0.654 J-0.5019
G1 Y3.1761 Z-0.09
G2 F8.0 X5.5244 Y3.093 I-0.7101 J0.4187
G1 X5.507 Y3.0704
G2 X5.4268 Y2.9803 I-0.654 J0.5019
G2 X5.507 Y2.8903 I-0.5738 J-0.5919
G1 X5.5244 Y2.8676
G2 X5.5805 Y2.7845 I-0.654 J-0.5019
G1 Y3.1761
G0 Z0.05
G0 X5.4777 Y1.5878
G1 F4.0 Z0.01
G2 X5.507 Y1.5517 Z0.0018 I-0.6247 J-0.538
G1 X5.5244 Y1.529 Z-0.0032
G2 X5.5805 Y1.4459 Z-0.0209 I-0.654 J-0.5019
G1 Y1.8376 Z-0.09
G2 F8.0 X5.5244 Y1.7544 I-0.7101 J0.4187
G1 X5.507 Y1.7318
G2 X5.4268 Y1.6417 I-0.654 J0.5019
G2 X5.507 Y1.5517 I-0.5738 J-0.5919
G1 X5.5244 Y1.529
G2 X5.5805 Y1.4459 I-0.654 J-0.5019
G1 Y1.8376
G1 F4.0 X5.4513 Y1.9137
G2 F8.0 X5.4054 Y1.8458 I-0.5809 J0.3425
G1 X5.388 Y1.8231
G2 X5.2635 Y1.6986 I-0.535 J0.4105
G1 X5.2409 Y1.6812
G2 X5.1835 Y1.6417 I-0.4105 J0.535
G2 X5.2409 Y1.6023 I-0.3532 J-0.5745
G1 X5.2635 Y1.5849
G2 X5.388 Y1.4604 I-0.4105 J-0.535
G1 X5.4054 Y1.4377
G2 X5.4934 Y1.2852 I-0.535 J-0.4105
G1 X5.5044 Y1.2589
G2 X5.5499 Y1.0888 I-0.6231 J-0.2581
G1 X5.5537 Y1.0605
G2 Y0.8844 I-0.6686 J-0.088
G1 X5.5499 Y0.8561
G2 X5.5044 Y0.686 I-0.6686 J0.088
G1 X5.4998 Y0.675
G1 X5.7305
G1 Y5.325
G1 X5.4829
G2 X5.4934 Y5.301 I-0.6126 J-0.2821
G1 X5.5044 Y5.2746
G2 X5.5499 Y5.1045 I-0.6231 J-0.2581
G1 X5.5537 Y5.0762
G2 Y4.9002 I-0.6686 J-0.088
G1 X5.5499 Y4.8718
G2 X5.5044 Y4.7018 I-0.6686 J0.088
G1 X5.4934 Y4.6754
G2 X5.4054 Y4.5229 I-0.6231 J0.2581
G1 X5.388 Y4.5002
G2 X5.2635 Y4.3758 I-0.535 J0.4105
G1 X5.2409 Y4.3584
G2 X5.1835 Y4.3189 I-0.4105 J0.535
G2 X5.2409 Y4.2794 I-0.3532 J-0.5745
G1 X5.2635 Y4.262
G2 X5.388 Y4.1375 I-0.4105 J-0.535
G1 X5.4054 Y4.1149
G2 X5.4934 Y3.9624 I-0.535 J-0.4105
G1 X5.5044 Y3.936
G2 X5.5499 Y3.766 I-0.6231 J-0.2581
G1 X5.5537 Y3.7376
G2 Y3.5616 I-0.6686 J-0.088
G1 X5.5499 Y3.5333
G2 X5.5044 Y3.3632 I-0.6686 J0.088
G1 X5.4934 Y3.3368
G2 X5.4054 Y3.1843 I-0.6231 J0.2581
G1 X5.388 Y3.1617
G2 X5.2635 Y3.0372 I-0.535 J0.4105
G1 X5.2409 Y3.0198
G2 X5.1835 Y2.9803 I-0.4105 J0.535
G2 X5.2409 Y2.9408 I-0.3532 J-0.5745
G1 X5.2635 Y2.9235
G2 X5.388 Y2.799 I-0.4105 J-0.535
G1 X5.4054 Y2.7763
G2 X5.4934 Y2.6238 I-0.535 J-0.4105
G1 X5.5044 Y2.5974
G2 X5.5499 Y2.4274 I-0.6231 J-0.2581
G1 X5.5537 Y2.3991
G2 Y2.223 I-0.6686 J-0.088
G1 X5.5499 Y2.1947
G2 X5.5044 Y2.0246 I-0.6686 J0.088
G1 X5.4934 Y1.9982
G2 X5.4513 Y1.9137 I-0.6231 J0.2581
G0 Z0.05
G0 X6.0305 Y1.3466
G1 F4.0 Z0.01
G1 Y1.9137 Z-0.09
G1 F8.0 Y5.625
G1 X0.375
G1 Y0.375
G1 X6.0305
G1 Y1.9137
G0 Z0.05
G0 X5.087 Y2.6814
G1 F4.0 Z0.01
G2 X5.1505 Y2.6167 Z-0.006 I-0.234 J-0.293
G1 X5.1679 Y2.594 Z-0.0111
G2 X5.2168 Y2.5093 Z-0.0284 I-0.2975 J-0.2283
G1 X5.2278 Y2.4829 Z-0.0334
G2 X5.2531 Y2.3883 Z-0.0507 I-0.3465 J-0.1435
G1 X5.2568 Y2.36 Z-0.0558
G2 Y2.2621 Z-0.0731 I-0.3718 J-0.0489
G1 X5.2531 Y2.2337 Z-0.0781
G2 X5.2384 Y2.1681 Z-0.09 I-0.3718 J0.0489
G2 F8.0 X5.2278 Y2.1392 I-0.3571 J0.1146
G1 X5.2168 Y2.1128
G2 X5.1679 Y2.028 I-0.3465 J0.1435
G1 X5.1505 Y2.0053
G2 X5.0813 Y1.9361 I-0.2975 J0.2283
G1 X5.0586 Y1.9187
G2 X4.9738 Y1.8698 I-0.2283 J0.2975
G1 X4.9474 Y1.8588
G2 X4.8529 Y1.8335 I-0.1435 J0.3465
G1 X4.8245 Y1.8298
G2 X4.7266 I-0.0489 J0.3718
G1 X4.6983 Y1.8335
G2 X4.6038 Y1.8588 I0.0489 J0.3718
G1 X4.5774 Y1.8698
G2 X4.4926 Y1.9187 I0.1435 J0.3465
G1 X4.4699 Y1.9361
G2 X4.4007 Y2.0053 I0.2283 J0.2975
G1 X4.3833 Y2.028
G2 X4.3344 Y2.1128 I0.2975 J0.2283
G1 X4.3234 Y2.1392
G2 X4.2981 Y2.2337 I0.3465 J0.1435
G1 X4.2943 Y2.2621
G2 Y2.36 I0.3718 J0.0489
G1 X4.2981 Y2.3883
G2 X4.3234 Y2.4829 I0.3718 J-0.0489
G1 X4.3344 Y2.5093
G2 X4.3833 Y2.594 I0.3465 J-0.1435
G1 X4.4007 Y2.6167
G2 X4.4699 Y2.6859 I0.2975 J-0.2283
G1 X4.4926 Y2.7033
G2 X4.5774 Y2.7523 I0.2283 J-0.2975
G1 X4.6038 Y2.7632
G2 X4.6983 Y2.7885 I0.1435 J-0.3465
G1 X4.7266 Y2.7923
G2 X4.8245 I0.0489 J-0.3718
G1 X4.8529 Y2.7885
G2 X4.9474 Y2.7632 I-0.0489 J-0.3718
G1 X4.9738 Y2.7523
G2 X5.0586 Y2.7033 I-0.1435 J-0.3465
G1 X5.0813 Y2.6859
G2 X5.1505 Y2.6167 I-0.2283 J-0.2975
G1 X5.1679 Y2.594
G2 X5.2168 Y2.5093 I-0.2975 J-0.2283
G1 X5.2278 Y2.4829
G2 X5.2531 Y2.3883 I-0.3465 J-0.1435
G1 X5.2568 Y2.36
G2 Y2.2621 I-0.3718 J-0.0489
G1 X5.2531 Y2.2337
G2 X5.2384 Y2.1681 I-0.3718 J0.0489
G0 Z0.05
G0 X4.4219 Y1.3034
G1 F4.0 Z0.01
G2 X4.4699 Y1.3473 Z-0.0015 I0.2763 J-0.2536
G1 X4.4926 Y1.3647 Z-0.0065
G2 X4.5774 Y1.4137 Z-0.0238 I0.2283 J-0.2975
G1 X4.6038 Y1.4246 Z-0.0289
G2 X4.6983 Y1.45 Z-0.0462 I0.1435 J-0.3465
G1 X4.7266 Y1.4537 Z-0.0512
G2 X4.8245 Z-0.0685 I0.0489 J-0.3718
G1 X4.8529 Y1.45 Z-0.0736
G2 X4.9428 Y1.4265 Z-0.09 I-0.0489 J-0.3718
G2 F8.0 X4.9474 Y1.4246 I-0.1389 J-0.3483
G1 X4.9738 Y1.4137
G2 X5.0586 Y1.3647 I-0.1435 J-0.3465
G1 X5.0813 Y1.3473
G2 X5.1505 Y1.2781 I-0.2283 J-0.2975
G1 X5.1679 Y1.2555
G2 X5.2168 Y1.1707 I-0.2975 J-0.2283
G1 X5.2278 Y1.1443
G2 X5.2531 Y1.0497 I-0.3465 J-0.1435
G1 X5.2568 Y1.0214
G2 Y0.9235 I-0.3718 J-0.0489
G1 X5.2531 Y0.8952
G2 X5.2278 Y0.8006 I-0.3718 J0.0489
G1 X5.2168 Y0.7742
G2 X5.1679 Y0.6894 I-0.3465 J0.1435
G1 X5.1505 Y0.6668
G2 X5.0813 Y0.5975 I-0.2975 J0.2283
G1 X5.0586 Y0.5801
G2 X4.9738 Y0.5312 I-0.2283 J0.2975
G1 X4.9474 Y0.5203
G2 X4.8529 Y0.4949 I-0.1435 J0.3465
G1 X4.8245 Y0.4912
G2 X4.7266 I-0.0489 J0.3718
G1 X4.6983 Y0.4949
G2 X4.6038 Y0.5203 I0.0489 J0.3718
G1 X4.5774 Y0.5312
G2 X4.4926 Y0.5801 I0.1435 J0.3465
G1 X4.4699 Y0.5975
G2 X4.4007 Y0.6668 I0.2283 J0.2975
G1 X4.3833 Y0.6894
G2 X4.3344 Y0.7742 I0.2975 J0.2283
G1 X4.3234 Y0.8006
G2 X4.2981 Y0.8952 I0.3465 J0.1435
G1 X4.2943 Y0.9235
G2 Y1.0214 I0.3718 J0.0489
G1 X4.2981 Y1.0497
G2 X4.3234 Y1.1443 I0.3718 J-0.0489
G1 X4.3344 Y1.1707
G2 X4.3833 Y1.2555 I0.3465 J-0.1435
G1 X4.4007 Y1.2781
G2 X4.4699 Y1.3473 I0.2975 J-0.2283
G1 X4.4926 Y1.3647
G2 X4.5774 Y1.4137 I0.2283 J-0.2975
G1 X4.6038 Y1.4246
G2 X4.6983 Y1.45 I0.1435 J-0.3465
G1 X4.7266 Y1.4537
G2 X4.8245 I0.0489 J-0.3718
G1 X4.8529 Y1.45
G2 X4.9428 Y1.4265 I-0.0489 J-0.3718
G0 Z0.05
G0 X3.5888 Y1.4541
G1 F4.0 Z0.01
G2 X3.5923 Y1.4537 Z0.0094 I-0.0455 J-0.3722
G1 X3.6206 Y1.45 Z0.0043
G2 X3.7151 Y1.4246 Z-0.013 I-0.0489 J-0.3718
G1 X3.7415 Y1.4137 Z-0.018
G2 X3.8263 Y1.3647 Z-0.0353 I-0.1435 J-0.3465
G1 X3.849 Y1.3473 Z-0.0404
G2 X3.9182 Y1.2781 Z-0.0577 I-0.2283 J-0.2975
G1 X3.9356 Y1.2555 Z-0.0627
G2 X3.9845 Y1.1707 Z-0.08 I-0.2975 J-0.2283
G1 X3.9955 Y1.1443 Z-0.0851
G2 X4.0052 Y1.118 Z-0.09 I-0.3465 J-0.1435
G2 F8.0 X4.0208 Y1.0497 I-0.3562 J-0.1172
G1 X4.0245 Y1.0214
G2 Y0.9235 I-0.3718 J-0.0489
G1 X4.0208 Y0.8952
G2 X3.9955 Y0.8006 I-0.3718 J0.0489
G1 X3.9845 Y0.7742
G2 X3.9356 Y0.6894 I-0.3465 J0.1435
G1 X3.9182 Y0.6668
G2 X3.849 Y0.5975 I-0.2975 J0.2283
G1 X3.8263 Y0.5801
G2 X3.7415 Y0.5312 I-0.2283 J0.2975
G1 X3.7151 Y0.5203
G2 X3.6206 Y0.4949 I-0.1435 J0.3465
G1 X3.5923 Y0.4912
G2 X3.4944 I-0.0489 J0.3718
G1 X3.466 Y0.4949
G2 X3.3715 Y0.5203 I0.0489 J0.3718
G1 X3.3451 Y0.5312
G2 X3.2603 Y0.5801 I0.1435 J0.3465
G1 X3.2376 Y0.5975
G2 X3.1684 Y0.6668 I0.2283 J0.2975
G1 X3.151 Y0.6894
G2 X3.1021 Y0.7742 I0.2975 J0.2283
G1 X3.0911 Y0.8006
G2 X3.0658 Y0.8952 I0.3465 J0.1435
G1 X3.0621 Y0.9235
G2 Y1.0214 I0.3718 J0.0489
G1 X3.0658 Y1.0497
G2 X3.0911 Y1.1443 I0.3718 J-0.0489
G1 X3.1021 Y1.1707
G2 X3.151 Y1.2555 I0.3465 J-0.1435
G1 X3.1684 Y1.2781
G2 X3.2376 Y1.3473 I0.2975 J-0.2283
G1 X3.2603 Y1.3647
G2 X3.3451 Y1.4137 I0.2283 J-0.2975
G1 X3.3715 Y1.4246
G2 X3.466 Y1.45 I0.1435 J-0.3465
G1 X3.4944 Y1.4537
G2 X3.5923 I0.0489 J-0.3718
G1 X3.6206 Y1.45
G2 X3.7151 Y1.4246 I-0.0489 J-0.3718
G1 X3.7415 Y1.4137
G2 X3.8263 Y1.3647 I-0.1435 J-0.3465
G1 X3.849 Y1.3473
G2 X3.9182 Y1.2781 I-0.2283 J-0.2975
G1 X3.9356 Y1.2555
G2 X3.9845 Y1.1707 I-0.2975 J-0.2283
G1 X3.9955 Y1.1443
G2 X4.0052 Y1.118 I-0.3465 J-0.1435
G1 F4.0 X4.293 Y1.0097
G2 X4.2943 Y1.0214 Z-0.0921 I0.3731 J-0.0373
G1 X4.2981 Y1.0497 Z-0.0971
G2 X4.3006 Y1.0659 Z-0.1 I0.3718 J-0.0489
G2 F8.0 X4.3234 Y1.1443 I0.3693 J-0.0651
G1 X4.3344 Y1.1707
G2 X4.3833 Y1.2555 I0.3465 J-0.1435
G1 X4.4007 Y1.2781
G2 X4.4699 Y1.3473 I0.2975 J-0.2283
G1 X4.4926 Y1.3647
G2 X4.5774 Y1.4137 I0.2283 J-0.2975
G1 X4.6038 Y1.4246
G2 X4.6983 Y1.45 I0.1435 J-0.3465
G1 X4.7266 Y1.4537
G2 X4.8245 I0.0489 J-0.3718
G1 X4.8529 Y1.45
G2 X4.9474 Y1.4246 I-0.0489 J-0.3718
G1 X4.9738 Y1.4137
G2 X5.0586 Y1.3647 I-0.1435 J-0.3465
G1 X5.0813 Y1.3473
G2 X5.1505 Y1.2781 I-0.2283 J-0.2975
G1 X5.1679 Y1.2555
G2 X5.2168 Y1.1707 I-0.2975 J-0.2283
G1 X5.2278 Y1.1443
G2 X5.2531 Y1.0497 I-0.3465 J-0.1435
G1 X5.2568 Y1.0214
G2 Y0.9235 I-0.3718 J-0.0489
G1 X5.2531 Y0.8952
G2 X5.2278 Y0.8006 I-0.3718 J0.0489
G1 X5.2168 Y0.7742
G2 X5.1679 Y0.6894 I-0.3465 J0.1435
G1 X5.1505 Y0.6668
G2 X5.0813 Y0.5975 I-0.2975 J0.2283
G1 X5.0586 Y0.5801
G2 X4.9738 Y0.5312 I-0.2283 J0.2975
G1 X4.9474 Y0.5203
G2 X4.8529 Y0.4949 I-0.1435 J0.3465
G1 X4.8245 Y0.4912
G2 X4.7266 I-0.0489 J0.3718
G1 X4.6983 Y0.4949
G2 X4.6038 Y0.5203 I0.0489 J0.3718
G1 X4.5774 Y0.5312
G2 X4.4926 Y0.5801 I0.1435 J0.3465
G1 X4.4699 Y0.5975
G2 X4.4007 Y0.6668 I0.2283 J0.2975
G1 X4.3833 Y0.6894
G2 X4.3344 Y0.7742 I0.2975 J0.2283
G1 X4.3234 Y0.8006
G2 X4.2981 Y0.8952 I0.3465 J0.1435
G1 X4.2943 Y0.9235
G2 Y1.0214 I0.3718 J0.0489
G1 X4.2981 Y1.0497
G2 X4.3006 Y1.0659 I0.3718 J-0.0489
G0 Z0.05
G0 X4.0219 Y2.3801
G1 F4.0 Z0.01
G1 X4.0245 Y2.36 Z0.0064
G2 Y2.2621 Z-0.0109 I-0.3718 J-0.0489
G1 X4.0208 Y2.2337 Z-0.0159
G2 X3.9955 Y2.1392 Z-0.0332 I-0.3718 J0.0489
G1 X3.9845 Y2.1128 Z-0.0383
G2 X3.9356 Y2.028 Z-0.0556 I-0.3465 J0.1435
G1 X3.9182 Y2.0053 Z-0.0606
G2 X3.849 Y1.9361 Z-0.0779 I-0.2975 J0.2283
G1 X3.8263 Y1.9187 Z-0.083
G2 X3.7935 Y1.8962 Z-0.09 I-0.2283 J0.2975
G2 F8.0 X3.7415 Y1.8698 I-0.1955 J0.32
G1 X3.7151 Y1.8588
G2 X3.6206 Y1.8335 I-0.1435 J0.3465
G1 X3.5923 Y1.8298
G2 X3.4944 I-0.0489 J0.3718
G1 X3.466 Y1.8335
G2 X3.3715 Y1.8588 I0.0489 J0.3718
G1 X3.3451 Y1.8698
G2 X3.2603 Y1.9187 I0.1435 J0.3465
G1 X3.2376 Y1.9361
G2 X3.1684 Y2.0053 I0.2283 J0.2975
G1 X3.151 Y2.028
G2 X3.1021 Y2.1128 I0.2975 J0.2283
G1 X3.0911 Y2.1392
G2 X3.0658 Y2.2337 I0.3465 J0.1435
G1 X3.0621 Y2.2621
G2 Y2.36 I0.3718 J0.0489
G1 X3.0658 Y2.3883
G2 X3.0911 Y2.4829 I0.3718 J-0.0489
G1 X3.1021 Y2.5093
G2 X3.151 Y2.594 I0.3465 J-0.1435
G1 X3.1684 Y2.6167
G2 X3.2376 Y2.6859 I0.2975 J-0.2283
G1 X3.2603 Y2.7033
G2 X3.3451 Y2.7523 I0.2283 J-0.2975
G1 X3.3715 Y2.7632
G2 X3.466 Y2.7885 I0.1435 J-0.3465
G1 X3.4944 Y2.7923
G2 X3.5923 I0.0489 J-0.3718
G1 X3.6206 Y2.7885
G2 X3.7151 Y2.7632 I-0.0489 J-0.3718
G1 X3.7415 Y2.7523
G2 X3.8263 Y2.7033 I-0.1435 J-0.3465
G1 X3.849 Y2.6859
G2 X3.9182 Y2.6167 I-0.2283 J-0.2975
G1 X3.9356 Y2.594
G2 X3.9845 Y2.5093 I-0.2975 J-0.2283
G1 X3.9955 Y2.4829
G2 X4.0208 Y2.3883 I-0.3465 J-0.1435
G1 X4.0245 Y2.36
G2 Y2.2621 I-0.3718 J-0.0489
G1 X4.0208 Y2.2337
G2 X3.9955 Y2.1392 I-0.3718 J0.0489
G1 X3.9845 Y2.1128
G2 X3.9356 Y2.028 I-0.3465 J0.1435
G1 X3.9182 Y2.0053
G2 X3.849 Y1.9361 I-0.2975 J0.2283
G1 X3.8263 Y1.9187
G2 X3.7935 Y1.8962 I-0.2283 J0.2975
G1 F4.0 X3.6141 Y1.4508
G1 X3.6206 Y1.45 Z-0.0911
G2 X3.6698 Y1.4401 Z-0.1 I-0.0489 J-0.3718
G2 F8.0 X3.7151 Y1.4246 I-0.0982 J-0.3619
G1 X3.7415 Y1.4137
G2 X3.8263 Y1.3647 I-0.1435 J-0.3465
G1 X3.849 Y1.3473
G2 X3.9182 Y1.2781 I-0.2283 J-0.2975
G1 X3.9356 Y1.2555
G2 X3.9845 Y1.1707 I-0.2975 J-0.2283
G1 X3.9955 Y1.1443
G2 X4.0208 Y1.0497 I-0.3465 J-0.1435
G1 X4.0245 Y1.0214
G2 Y0.9235 I-0.3718 J-0.0489
G1 X4.0208 Y0.8952
G2 X3.9955 Y0.8006 I-0.3718 J0.0489
G1 X3.9845 Y0.7742
G2 X3.9356 Y0.6894 I-0.3465 J0.1435
G1 X3.9182 Y0.6668
G2 X3.849 Y0.5975 I-0.2975 J0.2283
G1 X3.8263 Y0.5801
G2 X3.7415 Y0.5312 I-0.2283 J0.2975
G1 X3.7151 Y0.5203
G2 X3.6206 Y0.4949 I-0.1435 J0.3465
G1 X3.5923 Y0.4912
G2 X3.4944 I-0.0489 J0.3718
G1 X3.466 Y0.4949
G2 X3.3715 Y0.5203 I0.0489 J0.3718
G1 X3.3451 Y0.5312
G2 X3.2603 Y0.5801 I0.1435 J0.3465
G1 X3.2376 Y0.5975
G2 X3.1684 Y0.6668 I0.2283 J0.2975
G1 X3.151 Y0.6894
G2 X3.1021 Y0.7742 I0.2975 J0.2283
G1 X3.0911 Y0.8006
G2 X3.0658 Y0.8952 I0.3465 J0.1435
G1 X3.0621 Y0.9235
G2 Y1.0214 I0.3718 J0.0489
G1 X3.0658 Y1.0497
G2 X3.0911 Y1.1443 I0.3718 J-0.0489
G1 X3.1021 Y1.1707
G2 X3.151 Y1.2555 I0.3465 J-0.1435
G1 X3.1684 Y1.2781
G2 X3.2376 Y1.3473 I0.2975 J-0.2283
G1 X3.2603 Y1.3647
G2 X3.3451 Y1.4137 I0.2283 J-0.2975
G1 X3.3715 Y1.4246
G2 X3.466 Y1.45 I0.1435 J-0.3465
G1 X3.4944 Y1.4537
G2 X3.5923 I0.0489 J-0.3718
G1 X3.6206 Y1.45
G2 X3.6698 Y1.4401 I-0.0489 J-0.3718
G0 Z0.05
G0 X2.5934 Y2.5988
G1 F4.0 Z0.01
G1 X2.597 Y2.594 Z0.009
G2 X2.646 Y2.5093 Z-0.0084 I-0.2975 J-0.2283
G1 X2.6569 Y2.4829 Z-0.0134
G2 X2.6822 Y2.3883 Z-0.0307 I-0.3465 J-0.1435
G1 X2.686 Y2.36 Z-0.0357
G2 Y2.2621 Z-0.0531 I-0.3718 J-0.0489
G1 X2.6822 Y2.2337 Z-0.0581
G2 X2.6569 Y2.1392 Z-0.0754 I-0.3718 J0.0489
G1 X2.646 Y2.1128 Z-0.0804
G2 X2.6217 Y2.0644 Z-0.09 I-0.3465 J0.1435
G2 F8.0 X2.597 Y2.028 I-0.3222 J0.1919
G1 X2.5796 Y2.0053
G2 X2.5104 Y1.9361 I-0.2975 J0.2283
G1 X2.4877 Y1.9187
G2 X2.403 Y1.8698 I-0.2283 J0.2975
G1 X2.3766 Y1.8588
G2 X2.282 Y1.8335 I-0.1435 J0.3465
G1 X2.2537 Y1.8298
G2 X2.1558 I-0.0489 J0.3718
G1 X2.1274 Y1.8335
G2 X2.0329 Y1.8588 I0.0489 J0.3718
G1 X2.0065 Y1.8698
G2 X1.9217 Y1.9187 I0.1435 J0.3465
G1 X1.899 Y1.9361
G2 X1.8298 Y2.0053 I0.2283 J0.2975
G1 X1.8124 Y2.028
G2 X1.7635 Y2.1128 I0.2975 J0.2283
G1 X1.7526 Y2.1392
G2 X1.7272 Y2.2337 I0.3465 J0.1435
G1 X1.7235 Y2.2621
G2 Y2.36 I0.3718 J0.0489
G1 X1.7272 Y2.3883
G2 X1.7526 Y2.4829 I0.3718 J-0.0489
G1 X1.7635 Y2.5093
G2 X1.8124 Y2.594 I0.3465 J-0.1435
G1 X1.8298 Y2.6167
G2 X1.899 Y2.6859 I0.2975 J-0.2283
G1 X1.9217 Y2.7033
G2 X2.0065 Y2.7523 I0.2283 J-0.2975
G1 X2.0329 Y2.7632
G2 X2.1274 Y2.7885 I0.1435 J-0.3465
G1 X2.1558 Y2.7923
G2 X2.2537 I0.0489 J-0.3718
G1 X2.282 Y2.7885
G2 X2.3766 Y2.7632 I-0.0489 J-0.3718
G1 X2.403 Y2.7523
G2 X2.4877 Y2.7033 I-0.1435 J-0.3465
G1 X2.5104 Y2.6859
G2 X2.5796 Y2.6167 I-0.2283 J-0.2975
G1 X2.597 Y2.594
G2 X2.646 Y2.5093 I-0.2975 J-0.2283
G1 X2.6569 Y2.4829
G2 X2.6822 Y2.3883 I-0.3465 J-0.1435
G1 X2.686 Y2.36
G2 Y2.2621 I-0.3718 J-0.0489
G1 X2.6822 Y2.2337
G2 X2.6569 Y2.1392 I-0.3718 J0.0489
G1 X2.646 Y2.1128
G2 X2.6217 Y2.0644 I-0.3465 J0.1435
G0 Z0.05
G0 X2.3164 Y1.4438
G0 Z-0.0275
G1 F4.0 Z-0.09
G2 X2.3705 Y1.427 Z-0.1 I-0.0834 J-0.3656
G2 F8.0 X2.3766 Y1.4246 I-0.1375 J-0.3489
G1 X2.403 Y1.4137
G2 X2.4877 Y1.3647 I-0.1435 J-0.3465
G1 X2.5104 Y1.3473
G2 X2.5796 Y1.2781 I-0.2283 J-0.2975
G1 X2.597 Y1.2555
G2 X2.646 Y1.1707 I-0.2975 J-0.2283
G1 X2.6569 Y1.1443
G2 X2.6822 Y1.0497 I-0.3465 J-0.1435
G1 X2.686 Y1.0214
G2 Y0.9235 I-0.3718 J-0.0489
G1 X2.6822 Y0.8952
G2 X2.6569 Y0.8006 I-0.3718 J0.0489
G1 X2.646 Y0.7742
G2 X2.597 Y0.6894 I-0.3465 J0.1435
G1 X2.5796 Y0.6668
G2 X2.5104 Y0.5975 I-0.2975 J0.2283
G1 X2.4877 Y0.5801
G2 X2.403 Y0.5312 I-0.2283 J0.2975
G1 X2.3766 Y0.5203
G2 X2.282 Y0.4949 I-0.1435 J0.3465
G1 X2.2537 Y0.4912
G2 X2.1558 I-0.0489 J0.3718
G1 X2.1274 Y0.4949
G2 X2.0329 Y0.5203 I0.0489 J0.3718
G1 X2.0065 Y0.5312
G2 X1.9217 Y0.5801 I0.1435 J0.3465
G1 X1.899 Y0.5975
G2 X1.8298 Y0.6668 I0.2283 J0.2975
G1 X1.8124 Y0.6894
G2 X1.7635 Y0.7742 I0.2975 J0.2283
G1 X1.7526 Y0.8006
G2 X1.7272 Y0.8952 I0.3465 J0.1435
G1 X1.7235 Y0.9235
G2 Y1.0214 I0.3718 J0.0489
G1 X1.7272 Y1.0497
G2 X1.7526 Y1.1443 I0.3718 J-0.0489
G1 X1.7635 Y1.1707
G2 X1.8124 Y1.2555 I0.3465 J-0.1435
G1 X1.8298 Y1.2781
G2 X1.899 Y1.3473 I0.2975 J-0.2283
G1 X1.9217 Y1.3647
G2 X2.0065 Y1.4137 I0.2283 J-0.2975
G1 X2.0329 Y1.4246
G2 X2.1274 Y1.45 I0.1435 J-0.3465
G1 X2.1558 Y1.4537
G2 X2.2537 I0.0489 J-0.3718
G1 X2.282 Y1.45
G2 X2.3705 Y1.427 I-0.0489 J-0.3718
G0 Z0.05
G0 X1.3678 Y2.59
G1 F4.0 Z0.01
G2 X1.4137 Y2.5093 Z-0.0064 I-0.3006 J-0.2242
G1 X1.4246 Y2.4829 Z-0.0115
G2 X1.45 Y2.3883 Z-0.0288 I-0.3465 J-0.1435
G1 X1.4537 Y2.36 Z-0.0338
G2 Y2.2621 Z-0.0511 I-0.3718 J-0.0489
G1 X1.45 Y2.2337 Z-0.0561
G2 X1.4246 Y2.1392 Z-0.0735 I-0.3718 J0.0489
G1 X1.4137 Y2.1128 Z-0.0785
G2 X1.3836 Y2.055 Z-0.09 I-0.3465 J0.1435
G2 F8.0 X1.3647 Y2.028 I-0.3164 J0.2013
G1 X1.3473 Y2.0053
G2 X1.2781 Y1.9361 I-0.2975 J0.2283
G1 X1.2555 Y1.9187
G2 X1.1707 Y1.8698 I-0.2283 J0.2975
G1 X1.1443 Y1.8588
G2 X1.0497 Y1.8335 I-0.1435 J0.3465
G1 X1.0214 Y1.8298
G2 X0.9235 I-0.0489 J0.3718
G1 X0.8952 Y1.8335
G2 X0.8006 Y1.8588 I0.0489 J0.3718
G1 X0.7742 Y1.8698
G2 X0.6894 Y1.9187 I0.1435 J0.3465
G1 X0.6668 Y1.9361
G2 X0.5975 Y2.0053 I0.2283 J0.2975
G1 X0.5801 Y2.028
G2 X0.5312 Y2.1128 I0.2975 J0.2283
G1 X0.5203 Y2.1392
G2 X0.4949 Y2.2337 I0.3465 J0.1435
G1 X0.4912 Y2.2621
G2 Y2.36 I0.3718 J0.0489
G1 X0.4949 Y2.3883
G2 X0.5203 Y2.4829 I0.3718 J-0.0489
G1 X0.5312 Y2.5093
G2 X0.5801 Y2.594 I0.3465 J-0.1435
G1 X0.5975 Y2.6167
G2 X0.6668 Y2.6859 I0.2975 J-0.2283
G1 X0.6894 Y2.7033
G2 X0.7742 Y2.7523 I0.2283 J-0.2975
G1 X0.8006 Y2.7632
G2 X0.8952 Y2.7885 I0.1435 J-0.3465
G1 X0.9235 Y2.7923
G2 X1.0214 I0.0489 J-0.3718
G1 X1.0497 Y2.7885
G2 X1.1443 Y2.7632 I-0.0489 J-0.3718
G1 X1.1707 Y2.7523
G2 X1.2555 Y2.7033 I-0.1435 J-0.3465
G1 X1.2781 Y2.6859
G2 X1.3473 Y2.6167 I-0.2283 J-0.2975
G1 X1.3647 Y2.594
G2 X1.4137 Y2.5093 I-0.2975 J-0.2283
G1 X1.4246 Y2.4829
G2 X1.45 Y2.3883 I-0.3465 J-0.1435
G1 X1.4537 Y2.36
G2 Y2.2621 I-0.3718 J-0.0489
G1 X1.45 Y2.2337
G2 X1.4246 Y2.1392 I-0.3718 J0.0489
G1 X1.4137 Y2.1128
G2 X1.3836 Y2.055 I-0.3465 J0.1435
G0 Z0.05
G0 X1.0834 Y1.4439
G0 Z-0.0275
G1 F4.0 Z-0.09
G2 X1.1376 Y1.4273 Z-0.1 I-0.0827 J-0.3658
G2 F8.0 X1.1443 Y1.4246 I-0.1368 J-0.3491
G1 X1.1707 Y1.4137
G2 X1.2555 Y1.3647 I-0.1435 J-0.3465
G1 X1.2781 Y1.3473
G2 X1.3473 Y1.2781 I-0.2283 J-0.2975
G1 X1.3647 Y1.2555
G2 X1.4137 Y1.1707 I-0.2975 J-0.2283
G1 X1.4246 Y1.1443
G2 X1.45 Y1.0497 I-0.3465 J-0.1435
G1 X1.4537 Y1.0214
G2 Y0.9235 I-0.3718 J-0.0489
G1 X1.45 Y0.8952
G2 X1.4246 Y0.8006 I-0.3718 J0.0489
G1 X1.4137 Y0.7742
G2 X1.3647 Y0.6894 I-0.3465 J0.1435
G1 X1.3473 Y0.6668
G2 X1.2781 Y0.5975 I-0.2975 J0.2283
G1 X1.2555 Y0.5801
G2 X1.1707 Y0.5312 I-0.2283 J0.2975
G1 X1.1443 Y0.5203
G2 X1.0497 Y0.4949 I-0.1435 J0.3465
G1 X1.0214 Y0.4912
G2 X0.9235 I-0.0489 J0.3718
G1 X0.8952 Y0.4949
G2 X0.8006 Y0.5203 I0.0489 J0.3718
G1 X0.7742 Y0.5312
G2 X0.6894 Y0.5801 I0.1435 J0.3465
G1 X0.6668 Y0.5975
G2 X0.5975 Y0.6668 I0.2283 J0.2975
G1 X0.5801 Y0.6894
G2 X0.5312 Y0.7742 I0.2975 J0.2283
G1 X0.5203 Y0.8006
G2 X0.4949 Y0.8952 I0.3465 J0.1435
G1 X0.4912 Y0.9235
G2 Y1.0214 I0.3718 J0.0489
G1 X0.4949 Y1.0497
G2 X0.5203 Y1.1443 I0.3718 J-0.0489
G1 X0.5312 Y1.1707
G2 X0.5801 Y1.2555 I0.3465 J-0.1435
G1 X0.5975 Y1.2781
G2 X0.6668 Y1.3473 I0.2975 J-0.2283
G1 X0.6894 Y1.3647
G2 X0.7742 Y1.4137 I0.2283 J-0.2975
G1 X0.8006 Y1.4246
G2 X0.8952 Y1.45 I0.1435 J-0.3465
G1 X0.9235 Y1.4537
G2 X1.0214 I0.0489 J-0.3718
G1 X1.0497 Y1.45
G2 X1.1376 Y1.4273 I-0.0489 J-0.3718
G0 Z0.05
G0 X1.4289 Y3.4887
G1 F4.0 Z0.01
G2 X1.4246 Y3.4778 Z0.0079 I-0.3508 J0.1326
G1 X1.4137 Y3.4514 Z0.0029
G2 X1.3647 Y3.3666 Z-0.0144 I-0.3465 J0.1435
G1 X1.3473 Y3.3439 Z-0.0195
G2 X1.2781 Y3.2747 Z-0.0368 I-0.2975 J0.2283
G1 X1.2555 Y3.2573 Z-0.0418
G2 X1.1707 Y3.2084 Z-0.0591 I-0.2283 J0.2975
G1 X1.1443 Y3.1974 Z-0.0642
G2 X1.0497 Y3.1721 Z-0.0815 I-0.1435 J0.3465
G1 X1.0214 Y3.1684 Z-0.0865
G2 X1.0017 Y3.1663 Z-0.09 I-0.0489 J0.3718
G2 F8.0 X0.9235 Y3.1684 I-0.0292 J0.3739
G1 X0.8952 Y3.1721
G2 X0.8006 Y3.1974 I0.0489 J0.3718
G1 X0.7742 Y3.2084
G2 X0.6894 Y3.2573 I0.1435 J0.3465
G1 X0.6668 Y3.2747
G2 X0.5975 Y3.3439 I0.2283 J0.2975
G1 X0.5801 Y3.3666
G2 X0.5312 Y3.4514 I0.2975 J0.2283
G1 X0.5203 Y3.4778
G2 X0.4949 Y3.5723 I0.3465 J0.1435
G1 X0.4912 Y3.6007
G2 Y3.6986 I0.3718 J0.0489
G1 X0.4949 Y3.7269
G2 X0.5203 Y3.8214 I0.3718 J-0.0489
G1 X0.5312 Y3.8478
G2 X0.5801 Y3.9326 I0.3465 J-0.1435
G1 X0.5975 Y3.9553
G2 X0.6668 Y4.0245 I0.2975 J-0.2283
G1 X0.6894 Y4.0419
G2 X0.7742 Y4.0908 I0.2283 J-0.2975
G1 X0.8006 Y4.1018
G2 X0.8952 Y4.1271 I0.1435 J-0.3465
G1 X0.9235 Y4.1308
G2 X1.0214 I0.0489 J-0.3718
G1 X1.0497 Y4.1271
G2 X1.1443 Y4.1018 I-0.0489 J-0.3718
G1 X1.1707 Y4.0908
G2 X1.2555 Y4.0419 I-0.1435 J-0.3465
G1 X1.2781 Y4.0245
G2 X1.3473 Y3.9553 I-0.2283 J-0.2975
G1 X1.3647 Y3.9326
G2 X1.4137 Y3.8478 I-0.2975 J-0.2283
G1 X1.4246 Y3.8214
G2 X1.45 Y3.7269 I-0.3465 J-0.1435
G1 X1.4537 Y3.6986
G2 Y3.6007 I-0.3718 J-0.0489
G1 X1.45 Y3.5723
G2 X1.4246 Y3.4778 I-0.3718 J0.0489
G1 X1.4137 Y3.4514
G2 X1.3647 Y3.3666 I-0.3465 J0.1435
G1 X1.3473 Y3.3439
G2 X1.2781 Y3.2747 I-0.2975 J0.2283
G1 X1.2555 Y3.2573
G2 X1.1707 Y3.2084 I-0.2283 J0.2975
G1 X1.1443 Y3.1974
G2 X1.0497 Y3.1721 I-0.1435 J0.3465
G1 X1.0214 Y3.1684
G2 X1.0017 Y3.1663 I-0.0489 J0.3718
G1 F4.0 X0.9305 Y2.7931
G2 X0.9871 Y2.7952 Z-0.1 I0.0419 J-0.3726
G2 F8.0 X1.0214 Y2.7923 I-0.0147 J-0.3747
G1 X1.0497 Y2.7885
G2 X1.1443 Y2.7632 I-0.0489 J-0.3718
G1 X1.1707 Y2.7523
G2 X1.2555 Y2.7033 I-0.1435 J-0.3465
G1 X1.2781 Y2.6859
G2 X1.3473 Y2.6167 I-0.2283 J-0.2975
G1 X1.3647 Y2.594
G2 X1.4137 Y2.5093 I-0.2975 J-0.2283
G1 X1.4246 Y2.4829
G2 X1.45 Y2.3883 I-0.3465 J-0.1435
G1 X1.4537 Y2.36
G2 Y2.2621 I-0.3718 J-0.0489
G1 X1.45 Y2.2337
G2 X1.4246 Y2.1392 I-0.3718 J0.0489
G1 X1.4137 Y2.1128
G2 X1.3647 Y2.028 I-0.3465 J0.1435
G1 X1.3473 Y2.0053
G2 X1.2781 Y1.9361 I-0.2975 J0.2283
G1 X1.2555 Y1.9187
G2 X1.1707 Y1.8698 I-0.2283 J0.2975
G1 X1.1443 Y1.8588
G2 X1.0497 Y1.8335 I-0.1435 J0.3465
G1 X1.0214 Y1.8298
G2 X0.9235 I-0.0489 J0.3718
G1 X0.8952 Y1.8335
G2 X0.8006 Y1.8588 I0.0489 J0.3718
G1 X0.7742 Y1.8698
G2 X0.6894 Y1.9187 I0.1435 J0.3465
G1 X0.6668 Y1.9361
G2 X0.5975 Y2.0053 I0.2283 J0.2975
G1 X0.5801 Y2.028
G2 X0.5312 Y2.1128 I0.2975 J0.2283
G1 X0.5203 Y2.1392
G2 X0.4949 Y2.2337 I0.3465 J0.1435
G1 X0.4912 Y2.2621
G2 Y2.36 I0.3718 J0.0489
G1 X0.4949 Y2.3883
G2 X0.5203 Y2.4829 I0.3718 J-0.0489
G1 X0.5312 Y2.5093
G2 X0.5801 Y2.594 I0.3465 J-0.1435
G1 X0.5975 Y2.6167
G2 X0.6668 Y2.6859 I0.2975 J-0.2283
G1 X0.6894 Y2.7033
G2 X0.7742 Y2.7523 I0.2283 J-0.2975
G1 X0.8006 Y2.7632
G2 X0.8952 Y2.7885 I0.1435 J-0.3465
G1 X0.9235 Y2.7923
G2 X0.9871 Y2.7952 I0.0489 J-0.3718
G0 Z0.05
G0 X2.3 Y3.1749
G1 F4.0 Z0.01
G2 X2.282 Y3.1721 Z0.0068 I-0.0669 J0.369
G1 X2.2537 Y3.1684 Z0.0018
G2 X2.1558 Z-0.0156 I-0.0489 J0.3718
G1 X2.1274 Y3.1721 Z-0.0206
G2 X2.0329 Y3.1974 Z-0.0379 I0.0489 J0.3718
G1 X2.0065 Y3.2084 Z-0.0429
G2 X1.9217 Y3.2573 Z-0.0603 I0.1435 J0.3465
G1 X1.899 Y3.2747 Z-0.0653
G2 X1.8298 Y3.3439 Z-0.0826 I0.2283 J0.2975
G1 X1.8124 Y3.3666 Z-0.0876
G2 X1.8045 Y3.3773 Z-0.09 I0.2975 J0.2283
G2 F8.0 X1.7635 Y3.4514 I0.3054 J0.2175
G1 X1.7526 Y3.4778
G2 X1.7272 Y3.5723 I0.3465 J0.1435
G1 X1.7235 Y3.6007
G2 Y3.6986 I0.3718 J0.0489
G1 X1.7272 Y3.7269
G2 X1.7526 Y3.8214 I0.3718 J-0.0489
G1 X1.7635 Y3.8478
G2 X1.8124 Y3.9326 I0.3465 J-0.1435
G1 X1.8298 Y3.9553
G2 X1.899 Y4.0245 I0.2975 J-0.2283
G1 X1.9217 Y4.0419
G2 X2.0065 Y4.0908 I0.2283 J-0.2975
G1 X2.0329 Y4.1018
G2 X2.1274 Y4.1271 I0.1435 J-0.3465
G1 X2.1558 Y4.1308
G2 X2.2537 I0.0489 J-0.3718
G1 X2.282 Y4.1271
G2 X2.3766 Y4.1018 I-0.0489 J-0.3718
G1 X2.403 Y4.0908
G2 X2.4877 Y4.0419 I-0.1435 J-0.3465
G1 X2.5104 Y4.0245
G2 X2.5796 Y3.9553 I-0.2283 J-0.2975
G1 X2.597 Y3.9326
G2 X2.646 Y3.8478 I-0.2975 J-0.2283
G1 X2.6569 Y3.8214
G2 X2.6822 Y3.7269 I-0.3465 J-0.1435
G1 X2.686 Y3.6986
G2 Y3.6007 I-0.3718 J-0.0489
G1 X2.6822 Y3.5723
G2 X2.6569 Y3.4778 I-0.3718 J0.0489
G1 X2.646 Y3.4514
G2 X2.597 Y3.3666 I-0.3465 J0.1435
G1 X2.5796 Y3.3439
G2 X2.5104 Y3.2747 I-0.2975 J0.2283
G1 X2.4877 Y3.2573
G2 X2.403 Y3.2084 I-0.2283 J0.2975
G1 X2.3766 Y3.1974
G2 X2.282 Y3.1721 I-0.1435 J0.3465
G1 X2.2537 Y3.1684
G2 X2.1558 I-0.0489 J0.3718
G1 X2.1274 Y3.1721
G2 X2.0329 Y3.1974 I0.0489 J0.3718
G1 X2.0065 Y3.2084
G2 X1.9217 Y3.2573 I0.1435 J0.3465
G1 X1.899 Y3.2747
G2 X1.8298 Y3.3439 I0.2283 J0.2975
G1 X1.8124 Y3.3666
G2 X1.8045 Y3.3773 I0.2975 J0.2283
G0 Z0.05
G0 X1.9888 Y2.7444
G0 Z-0.0275
G1 F4.0 Z-0.09
G2 X2.0065 Y2.7523 Z-0.0934 I0.1612 J-0.3386
G1 X2.0329 Y2.7632 Z-0.0985
G2 X2.041 Y2.7664 Z-0.1 I0.1435 J-0.3465
G2 F8.0 X2.1274 Y2.7885 I0.1354 J-0.3497
G1 X2.1558 Y2.7923
G2 X2.2537 I0.0489 J-0.3718
G1 X2.282 Y2.7885
G2 X2.3766 Y2.7632 I-0.0489 J-0.3718
G1 X2.403 Y2.7523
G2 X2.4877 Y2.7033 I-0.1435 J-0.3465
G1 X2.5104 Y2.6859
G2 X2.5796 Y2.6167 I-0.2283 J-0.2975
G1 X2.597 Y2.594
G2 X2.646 Y2.5093 I-0.2975 J-0.2283
G1 X2.6569 Y2.4829
G2 X2.6822 Y2.3883 I-0.3465 J-0.1435
G1 X2.686 Y2.36
G2 Y2.2621 I-0.3718 J-0.0489
G1 X2.6822 Y2.2337
G2 X2.6569 Y2.1392 I-0.3718 J0.0489
G1 X2.646 Y2.1128
G2 X2.597 Y2.028 I-0.3465 J0.1435
G1 X2.5796 Y2.0053
G2 X2.5104 Y1.9361 I-0.2975 J0.2283
G1 X2.4877 Y1.9187
G2 X2.403 Y1.8698 I-0.2283 J0.2975
G1 X2.3766 Y1.8588
G2 X2.282 Y1.8335 I-0.1435 J0.3465
G1 X2.2537 Y1.8298
G2 X2.1558 I-0.0489 J0.3718
G1 X2.1274 Y1.8335
G2 X2.0329 Y1.8588 I0.0489 J0.3718
G1 X2.0065 Y1.8698
G2 X1.9217 Y1.9187 I0.1435 J0.3465
G1 X1.899 Y1.9361
G2 X1.8298 Y2.0053 I0.2283 J0.2975
G1 X1.8124 Y2.028
G2 X1.7635 Y2.1128 I0.2975 J0.2283
G1 X1.7526 Y2.1392
G2 X1.7272 Y2.2337 I0.3465 J0.1435
G1 X1.7235 Y2.2621
G2 Y2.36 I0.3718 J0.0489
G1 X1.7272 Y2.3883
G2 X1.7526 Y2.4829 I0.3718 J-0.0489
G1 X1.7635 Y2.5093
G2 X1.8124 Y2.594 I0.3465 J-0.1435
G1 X1.8298 Y2.6167
G2 X1.899 Y2.6859 I0.2975 J-0.2283
G1 X1.9217 Y2.7033
G2 X2.0065 Y2.7523 I0.2283 J-0.2975
G1 X2.0329 Y2.7632
G2 X2.041 Y2.7664 I0.1435 J-0.3465
G0 Z0.05
G0 X3.6063 Y3.1702
G1 F4.0 Z0.01
G1 X3.5923 Y3.1684 Z0.0075
G2 X3.4944 Z-0.0098 I-0.0489 J0.3718
G1 X3.466 Y3.1721 Z-0.0149
G2 X3.3715 Y3.1974 Z-0.0322 I0.0489 J0.3718
G1 X3.3451 Y3.2084 Z-0.0372
G2 X3.2603 Y3.2573 Z-0.0545 I0.1435 J0.3465
G1 X3.2376 Y3.2747 Z-0.0595
G2 X3.1684 Y3.3439 Z-0.0769 I0.2283 J0.2975
G1 X3.151 Y3.3666 Z-0.0819
G2 X3.1253 Y3.4047 Z-0.09 I0.2975 J0.2283
G2 F8.0 X3.1021 Y3.4514 I0.3232 J0.1902
G1 X3.0911 Y3.4778
G2 X3.0658 Y3.5723 I0.3465 J0.1435
G1 X3.0621 Y3.6007
G2 Y3.6986 I0.3718 J0.0489
G1 X3.0658 Y3.7269
G2 X3.0911 Y3.8214 I0.3718 J-0.0489
G1 X3.1021 Y3.8478
G2 X3.151 Y3.9326 I0.3465 J-0.1435
G1 X3.1684 Y3.9553
G2 X3.2376 Y4.0245 I0.2975 J-0.2283
G1 X3.2603 Y4.0419
G2 X3.3451 Y4.0908 I0.2283 J-0.2975
G1 X3.3715 Y4.1018
G2 X3.466 Y4.1271 I0.1435 J-0.3465
G1 X3.4944 Y4.1308
G2 X3.5923 I0.0489 J-0.3718
G1 X3.6206 Y4.1271
G2 X3.7151 Y4.1018 I-0.0489 J-0.3718
G1 X3.7415 Y4.0908
G2 X3.8263 Y4.0419 I-0.1435 J-0.3465
G1 X3.849 Y4.0245
G2 X3.9182 Y3.9553 I-0.2283 J-0.2975
G1 X3.9356 Y3.9326
G2 X3.9845 Y3.8478 I-0.2975 J-0.2283
G1 X3.9955 Y3.8214
G2 X4.0208 Y3.7269 I-0.3465 J-0.1435
G1 X4.0245 Y3.6986
G2 Y3.6007 I-0.3718 J-0.0489
G1 X4.0208 Y3.5723
G2 X3.9955 Y3.4778 I-0.3718 J0.0489
G1 X3.9845 Y3.4514
G2 X3.9356 Y3.3666 I-0.3465 J0.1435
G1 X3.9182 Y3.3439
G2 X3.849 Y3.2747 I-0.2975 J0.2283
G1 X3.8263 Y3.2573
G2 X3.7415 Y3.2084 I-0.2283 J0.2975
G1 X3.7151 Y3.1974
G2 X3.6206 Y3.1721 I-0.1435 J0.3465
G1 X3.5923 Y3.1684
G2 X3.4944 I-0.0489 J0.3718
G1 X3.466 Y3.1721
G2 X3.3715 Y3.1974 I0.0489 J0.3718
G1 X3.3451 Y3.2084
G2 X3.2603 Y3.2573 I0.1435 J0.3465
G1 X3.2376 Y3.2747
G2 X3.1684 Y3.3439 I0.2283 J0.2975
G1 X3.151 Y3.3666
G2 X3.1253 Y3.4047 I0.2975 J0.2283
G0 Z0.05
G0 X3.3252 Y2.7434
G0 Z-0.0275
G1 F4.0 Z-0.09
G2 X3.3451 Y2.7523 Z-0.0938 I0.1634 J-0.3376
G1 X3.3715 Y2.7632 Z-0.0989
G2 X3.3774 Y2.7656 Z-0.1 I0.1435 J-0.3465
G2 F8.0 X3.466 Y2.7885 I0.1376 J-0.3488
G1 X3.4944 Y2.7923
G2 X3.5923 I0.0489 J-0.3718
G1 X3.6206 Y2.7885
G2 X3.7151 Y2.7632 I-0.0489 J-0.3718
G1 X3.7415 Y2.7523
G2 X3.8263 Y2.7033 I-0.1435 J-0.3465
G1 X3.849 Y2.6859
G2 X3.9182 Y2.6167 I-0.2283 J-0.2975
G1 X3.9356 Y2.594
G2 X3.9845 Y2.5093 I-0.2975 J-0.2283
G1 X3.9955 Y2.4829
G2 X4.0208 Y2.3883 I-0.3465 J-0.1435
G1 X4.0245 Y2.36
G2 Y2.2621 I-0.3718 J-0.0489
G1 X4.0208 Y2.2337
G2 X3.9955 Y2.1392 I-0.3718 J0.0489
G1 X3.9845 Y2.1128
G2 X3.9356 Y2.028 I-0.3465 J0.1435
G1 X3.9182 Y2.0053
G2 X3.849 Y1.9361 I-0.2975 J0.2283
G1 X3.8263 Y1.9187
G2 X3.7415 Y1.8698 I-0.2283 J0.2975
G1 X3.7151 Y1.8588
G2 X3.6206 Y1.8335 I-0.1435 J0.3465
G1 X3.5923 Y1.8298
G2 X3.4944 I-0.0489 J0.3718
G1 X3.466 Y1.8335
G2 X3.3715 Y1.8588 I0.0489 J0.3718
G1 X3.3451 Y1.8698
G2 X3.2603 Y1.9187 I0.1435 J0.3465
G1 X3.2376 Y1.9361
G2 X3.1684 Y2.0053 I0.2283 J0.2975
G1 X3.151 Y2.028
G2 X3.1021 Y2.1128 I0.2975 J0.2283
G1 X3.0911 Y2.1392
G2 X3.0658 Y2.2337 I0.3465 J0.1435
G1 X3.0621 Y2.2621
G2 Y2.36 I0.3718 J0.0489
G1 X3.0658 Y2.3883
G2 X3.0911 Y2.4829 I0.3718 J-0.0489
G1 X3.1021 Y2.5093
G2 X3.151 Y2.594 I0.3465 J-0.1435
G1 X3.1684 Y2.6167
G2 X3.2376 Y2.6859 I0.2975 J-0.2283
G1 X3.2603 Y2.7033
G2 X3.3451 Y2.7523 I0.2283 J-0.2975
G1 X3.3715 Y2.7632
G2 X3.3774 Y2.7656 I0.1435 J-0.3465
G0 Z0.05
G0 X4.8515 Y3.1719
G1 F4.0 Z0.01
G1 X4.8245 Y3.1684 Z0.0052
G2 X4.7266 Z-0.0121 I-0.0489 J0.3718
G1 X4.6983 Y3.1721 Z-0.0171
G2 X4.6038 Y3.1974 Z-0.0345 I0.0489 J0.3718
G1 X4.5774 Y3.2084 Z-0.0395
G2 X4.4926 Y3.2573 Z-0.0568 I0.1435 J0.3465
G1 X4.4699 Y3.2747 Z-0.0618
G2 X4.4007 Y3.3439 Z-0.0792 I0.2283 J0.2975
G1 X4.3833 Y3.3666 Z-0.0842
G2 X4.3644 Y3.3936 Z-0.09 I0.2975 J0.2283
G2 F8.0 X4.3344 Y3.4514 I0.3164 J0.2013
G1 X4.3234 Y3.4778
G2 X4.2981 Y3.5723 I0.3465 J0.1435
G1 X4.2943 Y3.6007
G2 Y3.6986 I0.3718 J0.0489
G1 X4.2981 Y3.7269
G2 X4.3234 Y3.8214 I0.3718 J-0.0489
G1 X4.3344 Y3.8478
G2 X4.3833 Y3.9326 I0.3465 J-0.1435
G1 X4.4007 Y3.9553
G2 X4.4699 Y4.0245 I0.2975 J-0.2283
G1 X4.4926 Y4.0419
G2 X4.5774 Y4.0908 I0.2283 J-0.2975
G1 X4.6038 Y4.1018
G2 X4.6983 Y4.1271 I0.1435 J-0.3465
G1 X4.7266 Y4.1308
G2 X4.8245 I0.0489 J-0.3718
G1 X4.8529 Y4.1271
G2 X4.9474 Y4.1018 I-0.0489 J-0.3718
G1 X4.9738 Y4.0908
G2 X5.0586 Y4.0419 I-0.1435 J-0.3465
G1 X5.0813 Y4.0245
G2 X5.1505 Y3.9553 I-0.2283 J-0.2975
G1 X5.1679 Y3.9326
G2 X5.2168 Y3.8478 I-0.2975 J-0.2283
G1 X5.2278 Y3.8214
G2 X5.2531 Y3.7269 I-0.3465 J-0.1435
G1 X5.2568 Y3.6986
G2 Y3.6007 I-0.3718 J-0.0489
G1 X5.2531 Y3.5723
G2 X5.2278 Y3.4778 I-0.3718 J0.0489
G1 X5.2168 Y3.4514
G2 X5.1679 Y3.3666 I-0.3465 J0.1435
G1 X5.1505 Y3.3439
G2 X5.0813 Y3.2747 I-0.2975 J0.2283
G1 X5.0586 Y3.2573
G2 X4.9738 Y3.2084 I-0.2283 J0.2975
G1 X4.9474 Y3.1974
G2 X4.8529 Y3.1721 I-0.1435 J0.3465
G1 X4.8245 Y3.1684
G2 X4.7266 I-0.0489 J0.3718
G1 X4.6983 Y3.1721
G2 X4.6038 Y3.1974 I0.0489 J0.3718
G1 X4.5774 Y3.2084
G2 X4.4926 Y3.2573 I0.1435 J0.3465
G1 X4.4699 Y3.2747
G2 X4.4007 Y3.3439 I0.2283 J0.2975
G1 X4.3833 Y3.3666
G2 X4.3644 Y3.3936 I0.2975 J0.2283
G0 Z0.05
G0 X4.5582 Y2.7437
G0 Z-0.0275
G1 F4.0 Z-0.09
G2 X4.5774 Y2.7523 Z-0.0937 I0.1626 J-0.3379
G1 X4.6038 Y2.7632 Z-0.0987
G2 X4.6104 Y2.7659 Z-0.1 I0.1435 J-0.3465
G2 F8.0 X4.6983 Y2.7885 I0.1368 J-0.3491
G1 X4.7266 Y2.7923
G2 X4.8245 I0.0489 J-0.3718
G1 X4.8529 Y2.7885
G2 X4.9474 Y2.7632 I-0.0489 J-0.3718
G1 X4.9738 Y2.7523
G2 X5.0586 Y2.7033 I-0.1435 J-0.3465
G1 X5.0813 Y2.6859
G2 X5.1505 Y2.6167 I-0.2283 J-0.2975
G1 X5.1679 Y2.594
G2 X5.2168 Y2.5093 I-0.2975 J-0.2283
G1 X5.2278 Y2.4829
G2 X5.2531 Y2.3883 I-0.3465 J-0.1435
G1 X5.2568 Y2.36
G2 Y2.2621 I-0.3718 J-0.0489
G1 X5.2531 Y2.2337
G2 X5.2278 Y2.1392 I-0.3718 J0.0489
G1 X5.2168 Y2.1128
G2 X5.1679 Y2.028 I-0.3465 J0.1435
G1 X5.1505 Y2.0053
G2 X5.0813 Y1.9361 I-0.2975 J0.2283
G1 X5.0586 Y1.9187
G2 X4.9738 Y1.8698 I-0.2283 J0.2975
G1 X4.9474 Y1.8588
G2 X4.8529 Y1.8335 I-0.1435 J0.3465
G1 X4.8245 Y1.8298
G2 X4.7266 I-0.0489 J0.3718
G1 X4.6983 Y1.8335
G2 X4.6038 Y1.8588 I0.0489 J0.3718
G1 X4.5774 Y1.8698
G2 X4.4926 Y1.9187 I0.1435 J0.3465
G1 X4.4699 Y1.9361
G2 X4.4007 Y2.0053 I0.2283 J0.2975
G1 X4.3833 Y2.028
G2 X4.3344 Y2.1128 I0.2975 J0.2283
G1 X4.3234 Y2.1392
G2 X4.2981 Y2.2337 I0.3465 J0.1435
G1 X4.2943 Y2.2621
G2 Y2.36 I0.3718 J0.0489
G1 X4.2981 Y2.3883
G2 X4.3234 Y2.4829 I0.3718 J-0.0489
G1 X4.3344 Y2.5093
G2 X4.3833 Y2.594 I0.3465 J-0.1435
G1 X4.4007 Y2.6167
G2 X4.4699 Y2.6859 I0.2975 J-0.2283
G1 X4.4926 Y2.7033
G2 X4.5774 Y2.7523 I0.2283 J-0.2975
G1 X4.6038 Y2.7632
G2 X4.6104 Y2.7659 I0.1435 J-0.3465
G0 Z0.05
G0 X5.2095 Y4.7733
G1 F4.0 Z0.01
G2 X5.1679 Y4.7052 Z-0.0041 I-0.3391 J0.1601
G1 X5.1505 Y4.6825 Z-0.0091
G2 X5.0813 Y4.6133 Z-0.0265 I-0.2975 J0.2283
G1 X5.0586 Y4.5959 Z-0.0315
G2 X4.9738 Y4.5469 Z-0.0488 I-0.2283 J0.2975
G1 X4.9474 Y4.536 Z-0.0538
G2 X4.8529 Y4.5107 Z-0.0711 I-0.1435 J0.3465
G1 X4.8245 Y4.5069 Z-0.0762
G2 X4.7464 Y4.5049 Z-0.09 I-0.0489 J0.3718
G2 F8.0 X4.7266 Y4.5069 I0.0292 J0.3739
G1 X4.6983 Y4.5107
G2 X4.6038 Y4.536 I0.0489 J0.3718
G1 X4.5774 Y4.5469
G2 X4.4926 Y4.5959 I0.1435 J0.3465
G1 X4.4699 Y4.6133
G2 X4.4007 Y4.6825 I0.2283 J0.2975
G1 X4.3833 Y4.7052
G2 X4.3344 Y4.79 I0.2975 J0.2283
G1 X4.3234 Y4.8164
G2 X4.2981 Y4.9109 I0.3465 J0.1435
G1 X4.2943 Y4.9392
G2 Y5.0371 I0.3718 J0.0489
G1 X4.2981 Y5.0655
G2 X4.3234 Y5.16 I0.3718 J-0.0489
G1 X4.3344 Y5.1864
G2 X4.3833 Y5.2712 I0.3465 J-0.1435
G1 X4.4007 Y5.2939
G2 X4.4699 Y5.3631 I0.2975 J-0.2283
G1 X4.4926 Y5.3805
G2 X4.5774 Y5.4294 I0.2283 J-0.2975
G1 X4.6038 Y5.4404
G2 X4.6983 Y5.4657 I0.1435 J-0.3465
G1 X4.7266 Y5.4694
G2 X4.8245 I0.0489 J-0.3718
G1 X4.8529 Y5.4657
G2 X4.9474 Y5.4404 I-0.0489 J-0.3718
G1 X4.9738 Y5.4294
G2 X5.0586 Y5.3805 I-0.1435 J-0.3465
G1 X5.0813 Y5.3631
G2 X5.1505 Y5.2939 I-0.2283 J-0.2975
G1 X5.1679 Y5.2712
G2 X5.2168 Y5.1864 I-0.2975 J-0.2283
G1 X5.2278 Y5.16
G2 X5.2531 Y5.0655 I-0.3465 J-0.1435
G1 X5.2568 Y5.0371
G2 Y4.9392 I-0.3718 J-0.0489
G1 X5.2531 Y4.9109
G2 X5.2278 Y4.8164 I-0.3718 J0.0489
G1 X5.2168 Y4.79
G2 X5.1679 Y4.7052 I-0.3465 J0.1435
G1 X5.1505 Y4.6825
G2 X5.0813 Y4.6133 I-0.2975 J0.2283
G1 X5.0586 Y4.5959
G2 X4.9738 Y4.5469 I-0.2283 J0.2975
G1 X4.9474 Y4.536
G2 X4.8529 Y4.5107 I-0.1435 J0.3465
G1 X4.8245 Y4.5069
G2 X4.7464 Y4.5049 I-0.0489 J0.3718
G1 F4.0 X4.7045 Y4.1279
G1 X4.7266 Y4.1308 Z-0.0939
G2 X4.7609 Y4.1338 Z-0.1 I0.0489 J-0.3718
G2 F8.0 X4.8245 Y4.1308 I0.0147 J-0.3747
G1 X4.8529 Y4.1271
G2 X4.9474 Y4.1018 I-0.0489 J-0.3718
G1 X4.9738 Y4.0908
G2 X5.0586 Y4.0419 I-0.1435 J-0.3465
G1 X5.0813 Y4.0245
G2 X5.1505 Y3.9553 I-0.2283 J-0.2975
G1 X5.1679 Y3.9326
G2 X5.2168 Y3.8478 I-0.2975 J-0.2283
G1 X5.2278 Y3.8214
G2 X5.2531 Y3.7269 I-0.3465 J-0.1435
G1 X5.2568 Y3.6986
G2 Y3.6007 I-0.3718 J-0.0489
G1 X5.2531 Y3.5723
G2 X5.2278 Y3.4778 I-0.3718 J0.0489
G1 X5.2168 Y3.4514
G2 X5.1679 Y3.3666 I-0.3465 J0.1435
G1 X5.1505 Y3.3439
G2 X5.0813 Y3.2747 I-0.2975 J0.2283
G1 X5.0586 Y3.2573
G2 X4.9738 Y3.2084 I-0.2283 J0.2975
G1 X4.9474 Y3.1974
G2 X4.8529 Y3.1721 I-0.1435 J0.3465
G1 X4.8245 Y3.1684
G2 X4.7266 I-0.0489 J0.3718
G1 X4.6983 Y3.1721
G2 X4.6038 Y3.1974 I0.0489 J0.3718
G1 X4.5774 Y3.2084
G2 X4.4926 Y3.2573 I0.1435 J0.3465
G1 X4.4699 Y3.2747
G2 X4.4007 Y3.3439 I0.2283 J0.2975
G1 X4.3833 Y3.3666
G2 X4.3344 Y3.4514 I0.2975 J0.2283
G1 X4.3234 Y3.4778
G2 X4.2981 Y3.5723 I0.3465 J0.1435
G1 X4.2943 Y3.6007
G2 Y3.6986 I0.3718 J0.0489
G1 X4.2981 Y3.7269
G2 X4.3234 Y3.8214 I0.3718 J-0.0489
G1 X4.3344 Y3.8478
G2 X4.3833 Y3.9326 I0.3465 J-0.1435
G1 X4.4007 Y3.9553
G2 X4.4699 Y4.0245 I0.2975 J-0.2283
G1 X4.4926 Y4.0419
G2 X4.5774 Y4.0908 I0.2283 J-0.2975
G1 X4.6038 Y4.1018
G2 X4.6983 Y4.1271 I0.1435 J-0.3465
G1 X4.7266 Y4.1308
G2 X4.7609 Y4.1338 I0.0489 J-0.3718
G0 Z0.05
G0 X3.95 Y5.2511
G1 F4.0 Z0.01
G2 X3.9845 Y5.1864 Z-0.003 I-0.3119 J-0.2082
G1 X3.9955 Y5.16 Z-0.008
G2 X4.0208 Y5.0655 Z-0.0253 I-0.3465 J-0.1435
G1 X4.0245 Y5.0371 Z-0.0303
G2 Y4.9392 Z-0.0477 I-0.3718 J-0.0489
G1 X4.0208 Y4.9109 Z-0.0527
G2 X3.9955 Y4.8164 Z-0.07 I-0.3718 J0.0489
G1 X3.9845 Y4.79 Z-0.075
G2 X3.9435 Y4.7159 Z-0.09 I-0.3465 J0.1435
G2 F8.0 X3.9356 Y4.7052 I-0.3054 J0.2175
G1 X3.9182 Y4.6825
G2 X3.849 Y4.6133 I-0.2975 J0.2283
G1 X3.8263 Y4.5959
G2 X3.7415 Y4.5469 I-0.2283 J0.2975
G1 X3.7151 Y4.536
G2 X3.6206 Y4.5107 I-0.1435 J0.3465
G1 X3.5923 Y4.5069
G2 X3.4944 I-0.0489 J0.3718
G1 X3.466 Y4.5107
G2 X3.3715 Y4.536 I0.0489 J0.3718
G1 X3.3451 Y4.5469
G2 X3.2603 Y4.5959 I0.1435 J0.3465
G1 X3.2376 Y4.6133
G2 X3.1684 Y4.6825 I0.2283 J0.2975
G1 X3.151 Y4.7052
G2 X3.1021 Y4.79 I0.2975 J0.2283
G1 X3.0911 Y4.8164
G2 X3.0658 Y4.9109 I0.3465 J0.1435
G1 X3.0621 Y4.9392
G2 Y5.0371 I0.3718 J0.0489
G1 X3.0658 Y5.0655
G2 X3.0911 Y5.16 I0.3718 J-0.0489
G1 X3.1021 Y5.1864
G2 X3.151 Y5.2712 I0.3465 J-0.1435
G1 X3.1684 Y5.2939
G2 X3.2376 Y5.3631 I0.2975 J-0.2283
G1 X3.2603 Y5.3805
G2 X3.3451 Y5.4294 I0.2283 J-0.2975
G1 X3.3715 Y5.4404
G2 X3.466 Y5.4657 I0.1435 J-0.3465
G1 X3.4944 Y5.4694
G2 X3.5923 I0.0489 J-0.3718
G1 X3.6206 Y5.4657
G2 X3.7151 Y5.4404 I-0.0489 J-0.3718
G1 X3.7415 Y5.4294
G2 X3.8263 Y5.3805 I-0.1435 J-0.3465
G1 X3.849 Y5.3631
G2 X3.9182 Y5.2939 I-0.2283 J-0.2975
G1 X3.9356 Y5.2712
G2 X3.9845 Y5.1864 I-0.2975 J-0.2283
G1 X3.9955 Y5.16
G2 X4.0208 Y5.0655 I-0.3465 J-0.1435
G1 X4.0245 Y5.0371
G2 Y4.9392 I-0.3718 J-0.0489
G1 X4.0208 Y4.9109
G2 X3.9955 Y4.8164 I-0.3718 J0.0489
G1 X3.9845 Y4.79
G2 X3.9435 Y4.7159 I-0.3465 J0.1435
G1 F4.0 X4.3353 Y4.7878
G2 X4.3344 Y4.79 Z-0.0904 I0.3455 J0.1457
G1 X4.3234 Y4.8164 Z-0.0955
G2 X4.3144 Y4.8405 Z-0.1 I0.3465 J0.1435
G2 F8.0 X4.2981 Y4.9109 I0.3555 J0.1194
G1 X4.2943 Y4.9392
G2 Y5.0371 I0.3718 J0.0489
G1 X4.2981 Y5.0655
G2 X4.3234 Y5.16 I0.3718 J-0.0489
G1 X4.3344 Y5.1864
G2 X4.3833 Y5.2712 I0.3465 J-0.1435
G1 X4.4007 Y5.2939
G2 X4.4699 Y5.3631 I0.2975 J-0.2283
G1 X4.4926 Y5.3805
G2 X4.5774 Y5.4294 I0.2283 J-0.2975
G1 X4.6038 Y5.4404
G2 X4.6983 Y5.4657 I0.1435 J-0.3465
G1 X4.7266 Y5.4694
G2 X4.8245 I0.0489 J-0.3718
G1 X4.8529 Y5.4657
G2 X4.9474 Y5.4404 I-0.0489 J-0.3718
G1 X4.9738 Y5.4294
G2 X5.0586 Y5.3805 I-0.1435 J-0.3465
G1 X5.0813 Y5.3631
G2 X5.1505 Y5.2939 I-0.2283 J-0.2975
G1 X5.1679 Y5.2712
G2 X5.2168 Y5.1864 I-0.2975 J-0.2283
G1 X5.2278 Y5.16
G2 X5.2531 Y5.0655 I-0.3465 J-0.1435
G1 X5.2568 Y5.0371
G2 Y4.9392 I-0.3718 J-0.0489
G1 X5.2531 Y4.9109
G2 X5.2278 Y4.8164 I-0.3718 J0.0489
G1 X5.2168 Y4.79
G2 X5.1679 Y4.7052 I-0.3465 J0.1435
G1 X5.1505 Y4.6825
G2 X5.0813 Y4.6133 I-0.2975 J0.2283
G1 X5.0586 Y4.5959
G2 X4.9738 Y4.5469 I-0.2283 J0.2975
G1 X4.9474 Y4.536
G2 X4.8529 Y4.5107 I-0.1435 J0.3465
G1 X4.8245 Y4.5069
G2 X4.7266 I-0.0489 J0.3718
G1 X4.6983 Y4.5107
G2 X4.6038 Y4.536 I0.0489 J0.3718
G1 X4.5774 Y4.5469
G2 X4.4926 Y4.5959 I0.1435 J0.3465
G1 X4.4699 Y4.6133
G2 X4.4007 Y4.6825 I0.2283 J0.2975
G1 X4.3833 Y4.7052
G2 X4.3344 Y4.79 I0.2975 J0.2283
G1 X4.3234 Y4.8164
G2 X4.3144 Y4.8405 I0.3465 J0.1435
G0 Z0.05
G0 X3.7536 Y4.0856
G0 Z-0.0275
G1 F4.0 Z-0.09
G2 X3.8032 Y4.0583 Z-0.1 I-0.1555 J-0.3412
G2 F8.0 X3.8263 Y4.0419 I-0.2052 J-0.3139
G1 X3.849 Y4.0245
G2 X3.9182 Y3.9553 I-0.2283 J-0.2975
G1 X3.9356 Y3.9326
G2 X3.9845 Y3.8478 I-0.2975 J-0.2283
G1 X3.9955 Y3.8214
G2 X4.0208 Y3.7269 I-0.3465 J-0.1435
G1 X4.0245 Y3.6986
G2 Y3.6007 I-0.3718 J-0.0489
G1 X4.0208 Y3.5723
G2 X3.9955 Y3.4778 I-0.3718 J0.0489
G1 X3.9845 Y3.4514
G2 X3.9356 Y3.3666 I-0.3465 J0.1435
G1 X3.9182 Y3.3439
G2 X3.849 Y3.2747 I-0.2975 J0.2283
G1 X3.8263 Y3.2573
G2 X3.7415 Y3.2084 I-0.2283 J0.2975
G1 X3.7151 Y3.1974
G2 X3.6206 Y3.1721 I-0.1435 J0.3465
G1 X3.5923 Y3.1684
G2 X3.4944 I-0.0489 J0.3718
G1 X3.466 Y3.1721
G2 X3.3715 Y3.1974 I0.0489 J0.3718
G1 X3.3451 Y3.2084
G2 X3.2603 Y3.2573 I0.1435 J0.3465
G1 X3.2376 Y3.2747
G2 X3.1684 Y3.3439 I0.2283 J0.2975
G1 X3.151 Y3.3666
G2 X3.1021 Y3.4514 I0.2975 J0.2283
G1 X3.0911 Y3.4778
G2 X3.0658 Y3.5723 I0.3465 J0.1435
G1 X3.0621 Y3.6007
G2 Y3.6986 I0.3718 J0.0489
G1 X3.0658 Y3.7269
G2 X3.0911 Y3.8214 I0.3718 J-0.0489
G1 X3.1021 Y3.8478
G2 X3.151 Y3.9326 I0.3465 J-0.1435
G1 X3.1684 Y3.9553
G2 X3.2376 Y4.0245 I0.2975 J-0.2283
G1 X3.2603 Y4.0419
G2 X3.3451 Y4.0908 I0.2283 J-0.2975
G1 X3.3715 Y4.1018
G2 X3.466 Y4.1271 I0.1435 J-0.3465
G1 X3.4944 Y4.1308
G2 X3.5923 I0.0489 J-0.3718
G1 X3.6206 Y4.1271
G2 X3.7151 Y4.1018 I-0.0489 J-0.3718
G1 X3.7415 Y4.0908
G2 X3.8032 Y4.0583 I-0.1435 J-0.3465
G0 Z0.05
G0 X2.5911 Y5.2789
G1 F4.0 Z0.01
G1 X2.597 Y5.2712 Z0.0083
G2 X2.646 Y5.1864 Z-0.009 I-0.2975 J-0.2283
G1 X2.6569 Y5.16 Z-0.0141
G2 X2.6822 Y5.0655 Z-0.0314 I-0.3465 J-0.1435
G1 X2.686 Y5.0371 Z-0.0364
G2 Y4.9392 Z-0.0537 I-0.3718 J-0.0489
G1 X2.6822 Y4.9109 Z-0.0588
G2 X2.6569 Y4.8164 Z-0.0761 I-0.3718 J0.0489
G1 X2.646 Y4.79 Z-0.0811
G2 X2.6236 Y4.7448 Z-0.09 I-0.3465 J0.1435
G2 F8.0 X2.597 Y4.7052 I-0.3241 J0.1886
G1 X2.5796 Y4.6825
G2 X2.5104 Y4.6133 I-0.2975 J0.2283
G1 X2.4877 Y4.5959
G2 X2.403 Y4.5469 I-0.2283 J0.2975
G1 X2.3766 Y4.536
G2 X2.282 Y4.5107 I-0.1435 J0.3465
G1 X2.2537 Y4.5069
G2 X2.1558 I-0.0489 J0.3718
G1 X2.1274 Y4.5107
G2 X2.0329 Y4.536 I0.0489 J0.3718
G1 X2.0065 Y4.5469
G2 X1.9217 Y4.5959 I0.1435 J0.3465
G1 X1.899 Y4.6133
G2 X1.8298 Y4.6825 I0.2283 J0.2975
G1 X1.8124 Y4.7052
G2 X1.7635 Y4.79 I0.2975 J0.2283
G1 X1.7526 Y4.8164
G2 X1.7272 Y4.9109 I0.3465 J0.1435
G1 X1.7235 Y4.9392
G2 Y5.0371 I0.3718 J0.0489
G1 X1.7272 Y5.0655
G2 X1.7526 Y5.16 I0.3718 J-0.0489
G1 X1.7635 Y5.1864
G2 X1.8124 Y5.2712 I0.3465 J-0.1435
G1 X1.8298 Y5.2939
G2 X1.899 Y5.3631 I0.2975 J-0.2283
G1 X1.9217 Y5.3805
G2 X2.0065 Y5.4294 I0.2283 J-0.2975
G1 X2.0329 Y5.4404
G2 X2.1274 Y5.4657 I0.1435 J-0.3465
G1 X2.1558 Y5.4694
G2 X2.2537 I0.0489 J-0.3718
G1 X2.282 Y5.4657
G2 X2.3766 Y5.4404 I-0.0489 J-0.3718
G1 X2.403 Y5.4294
G2 X2.4877 Y5.3805 I-0.1435 J-0.3465
G1 X2.5104 Y5.3631
G2 X2.5796 Y5.2939 I-0.2283 J-0.2975
G1 X2.597 Y5.2712
G2 X2.646 Y5.1864 I-0.2975 J-0.2283
G1 X2.6569 Y5.16
G2 X2.6822 Y5.0655 I-0.3465 J-0.1435
G1 X2.686 Y5.0371
G2 Y4.9392 I-0.3718 J-0.0489
G1 X2.6822 Y4.9109
G2 X2.6569 Y4.8164 I-0.3718 J0.0489
G1 X2.646 Y4.79
G2 X2.6236 Y4.7448 I-0.3465 J0.1435
G1 F4.0 X3.0935 Y4.8105
G1 X3.0911 Y4.8164 Z-0.0911
G2 X3.075 Y4.8641 Z-0.1 I0.3465 J0.1435
G2 F8.0 X3.0658 Y4.9109 I0.3626 J0.0958
G1 X3.0621 Y4.9392
G2 Y5.0371 I0.3718 J0.0489
G1 X3.0658 Y5.0655
G2 X3.0911 Y5.16 I0.3718 J-0.0489
G1 X3.1021 Y5.1864
G2 X3.151 Y5.2712 I0.3465 J-0.1435
G1 X3.1684 Y5.2939
G2 X3.2376 Y5.3631 I0.2975 J-0.2283
G1 X3.2603 Y5.3805
G2 X3.3451 Y5.4294 I0.2283 J-0.2975
G1 X3.3715 Y5.4404
G2 X3.466 Y5.4657 I0.1435 J-0.3465
G1 X3.4944 Y5.4694
G2 X3.5923 I0.0489 J-0.3718
G1 X3.6206 Y5.4657
G2 X3.7151 Y5.4404 I-0.0489 J-0.3718
G1 X3.7415 Y5.4294
G2 X3.8263 Y5.3805 I-0.1435 J-0.3465
G1 X3.849 Y5.3631
G2 X3.9182 Y5.2939 I-0.2283 J-0.2975
G1 X3.9356 Y5.2712
G2 X3.9845 Y5.1864 I-0.2975 J-0.2283
G1 X3.9955 Y5.16
G2 X4.0208 Y5.0655 I-0.3465 J-0.1435
G1 X4.0245 Y5.0371
G2 Y4.9392 I-0.3718 J-0.0489
G1 X4.0208 Y4.9109
G2 X3.9955 Y4.8164 I-0.3718 J0.0489
G1 X3.9845 Y4.79
G2 X3.9356 Y4.7052 I-0.3465 J0.1435
G1 X3.9182 Y4.6825
G2 X3.849 Y4.6133 I-0.2975 J0.2283
G1 X3.8263 Y4.5959
G2 X3.7415 Y4.5469 I-0.2283 J0.2975
G1 X3.7151 Y4.536
G2 X3.6206 Y4.5107 I-0.1435 J0.3465
G1 X3.5923 Y4.5069
G2 X3.4944 I-0.0489 J0.3718
G1 X3.466 Y4.5107
G2 X3.3715 Y4.536 I0.0489 J0.3718
G1 X3.3451 Y4.5469
G2 X3.2603 Y4.5959 I0.1435 J0.3465
G1 X3.2376 Y4.6133
G2 X3.1684 Y4.6825 I0.2283 J0.2975
G1 X3.151 Y4.7052
G2 X3.1021 Y4.79 I0.2975 J0.2283
G1 X3.0911 Y4.8164
G2 X3.075 Y4.8641 I0.3465 J0.1435
G0 Z0.05
G0 X2.432 Y4.0773
G0 Z-0.0275
G1 F4.0 Z-0.09
G2 X2.4802 Y4.0475 Z-0.1 I-0.1726 J-0.3329
G2 F8.0 X2.4877 Y4.0419 I-0.2208 J-0.3031
G1 X2.5104 Y4.0245
G2 X2.5796 Y3.9553 I-0.2283 J-0.2975
G1 X2.597 Y3.9326
G2 X2.646 Y3.8478 I-0.2975 J-0.2283
G1 X2.6569 Y3.8214
G2 X2.6822 Y3.7269 I-0.3465 J-0.1435
G1 X2.686 Y3.6986
G2 Y3.6007 I-0.3718 J-0.0489
G1 X2.6822 Y3.5723
G2 X2.6569 Y3.4778 I-0.3718 J0.0489
G1 X2.646 Y3.4514
G2 X2.597 Y3.3666 I-0.3465 J0.1435
G1 X2.5796 Y3.3439
G2 X2.5104 Y3.2747 I-0.2975 J0.2283
G1 X2.4877 Y3.2573
G2 X2.403 Y3.2084 I-0.2283 J0.2975
G1 X2.3766 Y3.1974
G2 X2.282 Y3.1721 I-0.1435 J0.3465
G1 X2.2537 Y3.1684
G2 X2.1558 I-0.0489 J0.3718
G1 X2.1274 Y3.1721
G2 X2.0329 Y3.1974 I0.0489 J0.3718
G1 X2.0065 Y3.2084
G2 X1.9217 Y3.2573 I0.1435 J0.3465
G1 X1.899 Y3.2747
G2 X1.8298 Y3.3439 I0.2283 J0.2975
G1 X1.8124 Y3.3666
G2 X1.7635 Y3.4514 I0.2975 J0.2283
G1 X1.7526 Y3.4778
G2 X1.7272 Y3.5723 I0.3465 J0.1435
G1 X1.7235 Y3.6007
G2 Y3.6986 I0.3718 J0.0489
G1 X1.7272 Y3.7269
G2 X1.7526 Y3.8214 I0.3718 J-0.0489
G1 X1.7635 Y3.8478
G2 X1.8124 Y3.9326 I0.3465 J-0.1435
G1 X1.8298 Y3.9553
G2 X1.899 Y4.0245 I0.2975 J-0.2283
G1 X1.9217 Y4.0419
G2 X2.0065 Y4.0908 I0.2283 J-0.2975
G1 X2.0329 Y4.1018
G2 X2.1274 Y4.1271 I0.1435 J-0.3465
G1 X2.1558 Y4.1308
G2 X2.2537 I0.0489 J-0.3718
G1 X2.282 Y4.1271
G2 X2.3766 Y4.1018 I-0.0489 J-0.3718
G1 X2.403 Y4.0908
G2 X2.4802 Y4.0475 I-0.1435 J-0.3465
G0 Z0.05
G0 X1.3663 Y5.2691
G1 F4.0 Z0.01
G2 X1.4137 Y5.1864 Z-0.0069 I-0.2991 J-0.2262
G1 X1.4246 Y5.16 Z-0.0119
G2 X1.45 Y5.0655 Z-0.0292 I-0.3465 J-0.1435
G1 X1.4537 Y5.0371 Z-0.0342
G2 Y4.9392 Z-0.0515 I-0.3718 J-0.0489
G1 X1.45 Y4.9109 Z-0.0566
G2 X1.4246 Y4.8164 Z-0.0739 I-0.3718 J0.0489
G1 X1.4137 Y4.79 Z-0.0789
G2 X1.3849 Y4.7343 Z-0.09 I-0.3465 J0.1435
G2 F8.0 X1.3647 Y4.7052 I-0.3177 J0.1992
G1 X1.3473 Y4.6825
G2 X1.2781 Y4.6133 I-0.2975 J0.2283
G1 X1.2555 Y4.5959
G2 X1.1707 Y4.5469 I-0.2283 J0.2975
G1 X1.1443 Y4.536
G2 X1.0497 Y4.5107 I-0.1435 J0.3465
G1 X1.0214 Y4.5069
G2 X0.9235 I-0.0489 J0.3718
G1 X0.8952 Y4.5107
G2 X0.8006 Y4.536 I0.0489 J0.3718
G1 X0.7742 Y4.5469
G2 X0.6894 Y4.5959 I0.1435 J0.3465
G1 X0.6668 Y4.6133
G2 X0.5975 Y4.6825 I0.2283 J0.2975
G1 X0.5801 Y4.7052
G2 X0.5312 Y4.79 I0.2975 J0.2283
G1 X0.5203 Y4.8164
G2 X0.4949 Y4.9109 I0.3465 J0.1435
G1 X0.4912 Y4.9392
G2 Y5.0371 I0.3718 J0.0489
G1 X0.4949 Y5.0655
G2 X0.5203 Y5.16 I0.3718 J-0.0489
G1 X0.5312 Y5.1864
G2 X0.5801 Y5.2712 I0.3465 J-0.1435
G1 X0.5975 Y5.2939
G2 X0.6668 Y5.3631 I0.2975 J-0.2283
G1 X0.6894 Y5.3805
G2 X0.7742 Y5.4294 I0.2283 J-0.2975
G1 X0.8006 Y5.4404
G2 X0.8952 Y5.4657 I0.1435 J-0.3465
G1 X0.9235 Y5.4694
G2 X1.0214 I0.0489 J-0.3718
G1 X1.0497 Y5.4657
G2 X1.1443 Y5.4404 I-0.0489 J-0.3718
G1 X1.1707 Y5.4294
G2 X1.2555 Y5.3805 I-0.1435 J-0.3465
G1 X1.2781 Y5.3631
G2 X1.3473 Y5.2939 I-0.2283 J-0.2975
G1 X1.3647 Y5.2712
G2 X1.4137 Y5.1864 I-0.2975 J-0.2283
G1 X1.4246 Y5.16
G2 X1.45 Y5.0655 I-0.3465 J-0.1435
G1 X1.4537 Y5.0371
G2 Y4.9392 I-0.3718 J-0.0489
G1 X1.45 Y4.9109
G2 X1.4246 Y4.8164 I-0.3718 J0.0489
G1 X1.4137 Y4.79
G2 X1.3849 Y4.7343 I-0.3465 J0.1435
G1 F4.0 X1.4113 Y4.7844
G2 X1.3849 Y4.7343 Z-0.1 I-0.3441 J0.1491
G2 F8.0 X1.3647 Y4.7052 I-0.3177 J0.1992
G1 X1.3473 Y4.6825
G2 X1.2781 Y4.6133 I-0.2975 J0.2283
G1 X1.2555 Y4.5959
G2 X1.1707 Y4.5469 I-0.2283 J0.2975
G1 X1.1443 Y4.536
G2 X1.0497 Y4.5107 I-0.1435 J0.3465
G1 X1.0214 Y4.5069
G2 X0.9235 I-0.0489 J0.3718
G1 X0.8952 Y4.5107
G2 X0.8006 Y4.536 I0.0489 J0.3718
G1 X0.7742 Y4.5469
G2 X0.6894 Y4.5959 I0.1435 J0.3465
G1 X0.6668 Y4.6133
G2 X0.5975 Y4.6825 I0.2283 J0.2975
G1 X0.5801 Y4.7052
G2 X0.5312 Y4.79 I0.2975 J0.2283
G1 X0.5203 Y4.8164
G2 X0.4949 Y4.9109 I0.3465 J0.1435
G1 X0.4912 Y4.9392
G2 Y5.0371 I0.3718 J0.0489
G1 X0.4949 Y5.0655
G2 X0.5203 Y5.16 I0.3718 J-0.0489
G1 X0.5312 Y5.1864
G2 X0.5801 Y5.2712 I0.3465 J-0.1435
G1 X0.5975 Y5.2939
G2 X0.6668 Y5.3631 I0.2975 J-0.2283
G1 X0.6894 Y5.3805
G2 X0.7742 Y5.4294 I0.2283 J-0.2975
G1 X0.8006 Y5.4404
G2 X0.8952 Y5.4657 I0.1435 J-0.3465
G1 X0.9235 Y5.4694
G2 X1.0214 I0.0489 J-0.3718
G1 X1.0497 Y5.4657
G2 X1.1443 Y5.4404 I-0.0489 J-0.3718
G1 X1.1707 Y5.4294
G2 X1.2555 Y5.3805 I-0.1435 J-0.3465
G1 X1.2781 Y5.3631
G2 X1.3473 Y5.2939 I-0.2283 J-0.2975
G1 X1.3647 Y5.2712
G2 X1.4137 Y5.1864 I-0.2975 J-0.2283
G1 X1.4246 Y5.16
G2 X1.45 Y5.0655 I-0.3465 J-0.1435
G1 X1.4537 Y5.0371
G2 Y4.9392 I-0.3718 J-0.0489
G1 X1.45 Y4.9109
G2 X1.4246 Y4.8164 I-0.3718 J0.0489
G1 X1.4137 Y4.79
G2 X1.3849 Y4.7343 I-0.3465 J0.1435
G1 F4.0 X1.5886 Y4.5051
G1 F8.0 X1.5849 Y4.5002
G2 X1.4604 Y4.3758 I-0.535 J0.4105
G1 X1.4377 Y4.3584
G2 X1.3804 Y4.3189 I-0.4105 J0.535
G2 X1.4377 Y4.2794 I-0.3532 J-0.5745
G1 X1.4604 Y4.262
G2 X1.5849 Y4.1375 I-0.4105 J-0.535
G1 X1.5886 Y4.1327
G1 X1.5923 Y4.1375
G2 X1.7168 Y4.262 I0.535 J-0.4105
G1 X1.7395 Y4.2794
G2 X1.7968 Y4.3189 I0.4105 J-0.535
G2 X1.7395 Y4.3584 I0.3532 J0.5745
G1 X1.7168 Y4.3758
G2 X1.5923 Y4.5002 I0.4105 J0.535
G1 X1.5886 Y4.5051
G0 Z0.05
G0 X2.8881 Y4.315
G0 Z-0.0275
G1 F4.0 Z-0.09
G2 X2.8921 Y4.3189 Z-0.091 I0.5779 J-0.588
G2 X2.874 Y4.337 Z-0.0955 I0.5738 J0.5919
G2 X2.856 Y4.3189 Z-0.1 I-0.5919 J0.5738
G2 F8.0 X2.874 Y4.3008 I-0.5738 J-0.5919
G2 X2.8921 Y4.3189 I0.5919 J-0.5738
G2 X2.874 Y4.337 I0.5738 J0.5919
G2 X2.856 Y4.3189 I-0.5919 J0.5738
G1 F4.0 X2.7515 Y4.2112
G2 F8.0 X2.8172 Y4.1375 I-0.4694 J-0.4842
G1 X2.8345 Y4.1149
G2 X2.874 Y4.0575 I-0.535 J-0.4105
G2 X2.9135 Y4.1149 I0.5745 J-0.3532
G1 X2.9309 Y4.1375
G2 X3.0554 Y4.262 I0.535 J-0.4105
G1 X3.078 Y4.2794
G2 X3.1354 Y4.3189 I0.4105 J-0.535
G2 X3.078 Y4.3584 I0.3532 J0.5745
G1 X3.0554 Y4.3758
G2 X2.9309 Y4.5002 I0.4105 J0.535
G1 X2.9135 Y4.5229
G2 X2.874 Y4.5803 I0.535 J0.4105
G2 X2.8345 Y4.5229 I-0.5745 J0.3532
G1 X2.8172 Y4.5002
G2 X2.6927 Y4.3758 I-0.535 J0.4105
G1 X2.67 Y4.3584
G2 X2.6127 Y4.3189 I-0.4105 J0.535
G2 X2.67 Y4.2794 I-0.3532 J-0.5745
G1 X2.6927 Y4.262
G2 X2.7515 Y4.2112 I-0.4105 J-0.535
G0 Z0.05
G0 X3.9983 Y4.3506
G0 Z-0.0275
G1 F4.0 Z-0.09
G2 X3.9512 Y4.3189 Z-0.1 I-0.4002 J0.5428
G2 F8.0 X4.0086 Y4.2794 I-0.3532 J-0.5745
G1 X4.0312 Y4.262
G2 X4.1557 Y4.1375 I-0.4105 J-0.535
G1 X4.1594 Y4.1327
G1 X4.1632 Y4.1375
G2 X4.2876 Y4.262 I0.535 J-0.4105
G1 X4.3103 Y4.2794
G2 X4.3677 Y4.3189 I0.4105 J-0.535
G2 X4.3103 Y4.3584 I0.3532 J0.5745
G1 X4.2876 Y4.3758
G2 X4.1632 Y4.5002 I0.4105 J0.535
G1 X4.1594 Y4.5051
G1 X4.1557 Y4.5002
G2 X4.0312 Y4.3758 I-0.535 J0.4105
G1 X4.0086 Y4.3584
G2 X3.9512 Y4.3189 I-0.4105 J0.535
G0 Z0.05
G0 X4.1955 Y3.1227
G0 Z-0.0275
G1 F4.0 Z-0.09
G2 X4.1632 Y3.1617 Z-0.0989 I0.5027 J0.4495
G1 X4.1594 Y3.1665 Z-0.1
G1 F8.0 X4.1557 Y3.1617
G2 X4.0312 Y3.0372 I-0.535 J0.4105
G1 X4.0086 Y3.0198
G2 X3.9512 Y2.9803 I-0.4105 J0.535
G2 X4.0086 Y2.9408 I-0.3532 J-0.5745
G1 X4.0312 Y2.9235
G2 X4.1557 Y2.799 I-0.4105 J-0.535
G1 X4.1594 Y2.7941
G1 X4.1632 Y2.799
G2 X4.2876 Y2.9235 I0.535 J-0.4105
G1 X4.3103 Y2.9408
G2 X4.3677 Y2.9803 I0.4105 J-0.535
G2 X4.3103 Y3.0198 I0.3532 J0.5745
G1 X4.2876 Y3.0372
G2 X4.1632 Y3.1617 I0.4105 J0.535
G1 X4.1594 Y3.1665
G0 Z0.05
G0 X2.86 Y2.9842
G0 Z-0.0275
G1 F4.0 Z-0.09
G2 X2.856 Y2.9803 Z-0.091 I-0.5779 J0.588
G2 X2.874 Y2.9623 Z-0.0955 I-0.5738 J-0.5919
G2 X2.8921 Y2.9803 Z-0.1 I0.5919 J-0.5738
G2 F8.0 X2.874 Y2.9984 I0.5738 J0.5919
G2 X2.856 Y2.9803 I-0.5919 J0.5738
G2 X2.874 Y2.9623 I-0.5738 J-0.5919
G2 X2.8921 Y2.9803 I0.5919 J-0.5738
G1 F4.0 X2.9965 Y3.088
G2 F8.0 X2.9309 Y3.1617 I0.4694 J0.4842
G1 X2.9135 Y3.1843
G2 X2.874 Y3.2417 I0.535 J0.4105
G2 X2.8345 Y3.1843 I-0.5745 J0.3532
G1 X2.8172 Y3.1617
G2 X2.6927 Y3.0372 I-0.535 J0.4105
G1 X2.67 Y3.0198
G2 X2.6127 Y2.9803 I-0.4105 J0.535
G2 X2.67 Y2.9408 I-0.3532 J-0.5745
G1 X2.6927 Y2.9235
G2 X2.8172 Y2.799 I-0.4105 J-0.535
G1 X2.8345 Y2.7763
G2 X2.874 Y2.719 I-0.535 J-0.4105
G2 X2.9135 Y2.7763 I0.5745 J-0.3532
G1 X2.9309 Y2.799
G2 X3.0554 Y2.9235 I0.535 J-0.4105
G1 X3.078 Y2.9408
G2 X3.1354 Y2.9803 I0.4105 J-0.535
G2 X3.078 Y3.0198 I0.3532 J0.5745
G1 X3.0554 Y3.0372
G2 X2.9965 Y3.088 I0.4105 J0.535
G0 Z0.05
G0 X1.7498 Y2.9486
G0 Z-0.0275
G1 F4.0 Z-0.09
G2 X1.7968 Y2.9803 Z-0.1 I0.4002 J-0.5428
G2 F8.0 X1.7395 Y3.0198 I0.3532 J0.5745
G1 X1.7168 Y3.0372
G2 X1.5923 Y3.1617 I0.4105 J0.535
G1 X1.5886 Y3.1665
G1 X1.5849 Y3.1617
G2 X1.4604 Y3.0372 I-0.535 J0.4105
G1 X1.4377 Y3.0198
G2 X1.3804 Y2.9803 I-0.4105 J0.535
G2 X1.4377 Y2.9408 I-0.3532 J-0.5745
G1 X1.4604 Y2.9235
G2 X1.5849 Y2.799 I-0.4105 J-0.535
G1 X1.5886 Y2.7941
G1 X1.5923 Y2.799
G2 X1.7168 Y2.9235 I0.535 J-0.4105
G1 X1.7395 Y2.9408
G2 X1.7968 Y2.9803 I0.4105 J-0.535
G0 Z0.05
G0 X1.6246 Y1.7841
G0 Z-0.0275
G1 F4.0 Z-0.09
G2 X1.5923 Y1.8231 Z-0.0989 I0.5027 J0.4495
G1 X1.5886 Y1.8279 Z-0.1
G1 F8.0 X1.5849 Y1.8231
G2 X1.4604 Y1.6986 I-0.535 J0.4105
G1 X1.4377 Y1.6812
G2 X1.3804 Y1.6417 I-0.4105 J0.535
G2 X1.4377 Y1.6023 I-0.3532 J-0.5745
G1 X1.4604 Y1.5849
G2 X1.5849 Y1.4604 I-0.4105 J-0.535
G1 X1.5886 Y1.4555
G1 X1.5923 Y1.4604
G2 X1.7168 Y1.5849 I0.535 J-0.4105
G1 X1.7395 Y1.6023
G2 X1.7968 Y1.6417 I0.4105 J-0.535
G2 X1.7395 Y1.6812 I0.3532 J0.5745
G1 X1.7168 Y1.6986
G2 X1.5923 Y1.8231 I0.4105 J0.535
G1 X1.5886 Y1.8279
G0 Z0.05
G0 X2.8881 Y1.6378
G0 Z-0.0275
G1 F4.0 Z-0.09
G2 X2.8921 Y1.6417 Z-0.091 I0.5779 J-0.588
G2 X2.874 Y1.6598 Z-0.0955 I0.5738 J0.5919
G2 X2.856 Y1.6417 Z-0.1 I-0.5919 J0.5738
G2 F8.0 X2.874 Y1.6237 I-0.5738 J-0.5919
G2 X2.8921 Y1.6417 I0.5919 J-0.5738
G2 X2.874 Y1.6598 I0.5738 J0.5919
G2 X2.856 Y1.6417 I-0.5919 J0.5738
G1 F4.0 X2.7515 Y1.534
G2 F8.0 X2.8172 Y1.4604 I-0.4694 J-0.4842
G1 X2.8345 Y1.4377
G2 X2.874 Y1.3804 I-0.535 J-0.4105
G2 X2.9135 Y1.4377 I0.5745 J-0.3532
G1 X2.9309 Y1.4604
G2 X3.0554 Y1.5849 I0.535 J-0.4105
G1 X3.078 Y1.6023
G2 X3.1354 Y1.6417 I0.4105 J-0.535
G2 X3.078 Y1.6812 I0.3532 J0.5745
G1 X3.0554 Y1.6986
G2 X2.9309 Y1.8231 I0.4105 J0.535
G1 X2.9135 Y1.8458
G2 X2.874 Y1.9031 I0.535 J0.4105
G2 X2.8345 Y1.8458 I-0.5745 J0.3532
G1 X2.8172 Y1.8231
G2 X2.6927 Y1.6986 I-0.535 J0.4105
G1 X2.67 Y1.6812
G2 X2.6127 Y1.6417 I-0.4105 J0.535
G2 X2.67 Y1.6023 I-0.3532 J-0.5745
G1 X2.6927 Y1.5849
G2 X2.7515 Y1.534 I-0.4105 J-0.535
G0 Z0.05
G0 X3.9983 Y1.6734
G0 Z-0.0275
G1 F4.0 Z-0.09
G2 X3.9512 Y1.6417 Z-0.1 I-0.4002 J0.5428
G2 F8.0 X4.0086 Y1.6023 I-0.3532 J-0.5745
G1 X4.0312 Y1.5849
G2 X4.1557 Y1.4604 I-0.4105 J-0.535
G1 X4.1594 Y1.4555
G1 X4.1632 Y1.4604
G2 X4.2876 Y1.5849 I0.535 J-0.4105
G1 X4.3103 Y1.6023
G2 X4.3677 Y1.6417 I0.4105 J-0.535
G2 X4.3103 Y1.6812 I0.3532 J0.5745
G1 X4.2876 Y1.6986
G2 X4.1632 Y1.8231 I0.4105 J0.535
G1 X4.1594 Y1.8279
G1 X4.1557 Y1.8231
G2 X4.0312 Y1.6986 I-0.535 J0.4105
G1 X4.0086 Y1.6812
G2 X3.9512 Y1.6417 I-0.4105 J0.535
G0 Z0.05
G0 X5.4662 Y1.6826
G0 Z-0.0275
G1 F4.0 Z-0.09
G2 X5.4268 Y1.6417 Z-0.1 I-0.6132 J0.5511
G2 F8.0 X5.507 Y1.5517 I-0.5738 J-0.5919
G1 X5.5244 Y1.529
G2 X5.5805 Y1.4459 I-0.654 J-0.5019
G1 Y1.8376
G2 X5.5244 Y1.7544 I-0.7101 J0.4187
G1 X5.507 Y1.7318
G2 X5.4268 Y1.6417 I-0.654 J0.5019
G0 Z0.05
G0 X5.55 Y2.8323
G0 Z-0.0275
G1 F4.0 Z-0.09
G2 X5.5805 Y2.7845 Z-0.1 I-0.6797 J-0.4666
G1 F8.0 Y3.1761
G2 X5.5244 Y3.093 I-0.7101 J0.4187
G1 X5.507 Y3.0704
G2 X5.4268 Y2.9803 I-0.654 J0.5019
G2 X5.507 Y2.8903 I-0.5738 J-0.5919
G1 X5.5244 Y2.8676
G2 X5.5805 Y2.7845 I-0.654 J-0.5019
G0 Z0.05
G0 X5.55 Y4.1709
G0 Z-0.0275
G1 F4.0 Z-0.09
G2 X5.5805 Y4.1231 Z-0.1 I-0.6797 J-0.4666
G1 F8.0 Y4.5147
G2 X5.5244 Y4.4316 I-0.7101 J0.4187
G1 X5.507 Y4.4089
G2 X5.4268 Y4.3189 I-0.654 J0.5019
G2 X5.507 Y4.2289 I-0.5738 J-0.5919
G1 X5.5244 Y4.2062
G2 X5.5805 Y4.1231 I-0.654 J-0.5019
G1 F4.0 X5.4513 Y4.0469
G2 F8.0 X5.4934 Y3.9624 I-0.5809 J-0.3425
G1 X5.5044 Y3.936
G2 X5.5499 Y3.766 I-0.6231 J-0.2581
G1 X5.5537 Y3.7376
G2 Y3.5616 I-0.6686 J-0.088
G1 X5.5499 Y3.5333
G2 X5.5044 Y3.3632 I-0.6686 J0.088
G1 X5.4934 Y3.3368
G2 X5.4054 Y3.1843 I-0.6231 J0.2581
G1 X5.388 Y3.1617
G2 X5.2635 Y3.0372 I-0.535 J0.4105
G1 X5.2409 Y3.0198
G2 X5.1835 Y2.9803 I-0.4105 J0.535
G2 X5.2409 Y2.9408 I-0.3532 J-0.5745
G1 X5.2635 Y2.9235
G2 X5.388 Y2.799 I-0.4105 J-0.535
G1 X5.4054 Y2.7763
G2 X5.4934 Y2.6238 I-0.535 J-0.4105
G1 X5.5044 Y2.5974
G2 X5.5499 Y2.4274 I-0.6231 J-0.2581
G1 X5.5537 Y2.3991
G2 Y2.223 I-0.6686 J-0.088
G1 X5.5499 Y2.1947
G2 X5.5044 Y2.0246 I-0.6686 J0.088
G1 X5.4934 Y1.9982
G2 X5.4054 Y1.8458 I-0.6231 J0.2581
G1 X5.388 Y1.8231
G2 X5.2635 Y1.6986 I-0.535 J0.4105
G1 X5.2409 Y1.6812
G2 X5.1835 Y1.6417 I-0.4105 J0.535
G2 X5.2409 Y1.6023 I-0.3532 J-0.5745
G1 X5.2635 Y1.5849
G2 X5.388 Y1.4604 I-0.4105 J-0.535
G1 X5.4054 Y1.4377
G2 X5.4934 Y1.2852 I-0.535 J-0.4105
G1 X5.5044 Y1.2589
G2 X5.5499 Y1.0888 I-0.6231 J-0.2581
G1 X5.5537 Y1.0605
G2 Y0.8844 I-0.6686 J-0.088
G1 X5.5499 Y0.8561
G2 X5.5044 Y0.686 I-0.6686 J0.088
G1 X5.4998 Y0.675
G1 X5.7305
G1 Y5.325
G1 X5.4829
G2 X5.4934 Y5.301 I-0.6126 J-0.2821
G1 X5.5044 Y5.2746
G2 X5.5499 Y5.1045 I-0.6231 J-0.2581
G1 X5.5537 Y5.0762
G2 Y4.9002 I-0.6686 J-0.088
G1 X5.5499 Y4.8718
G2 X5.5044 Y4.7018 I-0.6686 J0.088
G1 X5.4934 Y4.6754
G2 X5.4054 Y4.5229 I-0.6231 J0.2581
G1 X5.388 Y4.5002
G2 X5.2635 Y4.3758 I-0.535 J0.4105
G1 X5.2409 Y4.3584
G2 X5.1835 Y4.3189 I-0.4105 J0.535
G2 X5.2409 Y4.2794 I-0.3532 J-0.5745
G1 X5.2635 Y4.262
G2 X5.388 Y4.1375 I-0.4105 J-0.535
G1 X5.4054 Y4.1149
G2 X5.4513 Y4.0469 I-0.535 J-0.4105
G0 Z0.05
G0 X6.0305 Y3.9902
G0 Z-0.0275
G1 F4.0 Z-0.09
G1 Y4.0469 Z-0.1
G1 F8.0 Y5.625
G1 X0.375
G1 Y0.375
G1 X6.0305
G1 Y4.0469
G0 Z0.05
G0 X2.6843 Y4.9263
G0 Z-0.0275
G1 F4.0 Z-0.09
G1 X2.6822 Y4.9109 Z-0.0927
G2 X2.6746 Y4.8705 Z-0.1 I-0.3718 J0.0489
G2 F8.0 X2.6569 Y4.8164 I-0.3642 J0.0894
G1 X2.646 Y4.79
G2 X2.597 Y4.7052 I-0.3465 J0.1435
G1 X2.5796 Y4.6825
G2 X2.5104 Y4.6133 I-0.2975 J0.2283
G1 X2.4877 Y4.5959
G2 X2.403 Y4.5469 I-0.2283 J0.2975
G1 X2.3766 Y4.536
G2 X2.282 Y4.5107 I-0.1435 J0.3465
G1 X2.2537 Y4.5069
G2 X2.1558 I-0.0489 J0.3718
G1 X2.1274 Y4.5107
G2 X2.0329 Y4.536 I0.0489 J0.3718
G1 X2.0065 Y4.5469
G2 X1.9217 Y4.5959 I0.1435 J0.3465
G1 X1.899 Y4.6133
G2 X1.8298 Y4.6825 I0.2283 J0.2975
G1 X1.8124 Y4.7052
G2 X1.7635 Y4.79 I0.2975 J0.2283
G1 X1.7526 Y4.8164
G2 X1.7272 Y4.9109 I0.3465 J0.1435
G1 X1.7235 Y4.9392
G2 Y5.0371 I0.3718 J0.0489
G1 X1.7272 Y5.0655
G2 X1.7526 Y5.16 I0.3718 J-0.0489
G1 X1.7635 Y5.1864
G2 X1.8124 Y5.2712 I0.3465 J-0.1435
G1 X1.8298 Y5.2939
G2 X1.899 Y5.3631 I0.2975 J-0.2283
G1 X1.9217 Y5.3805
G2 X2.0065 Y5.4294 I0.2283 J-0.2975
G1 X2.0329 Y5.4404
G2 X2.1274 Y5.4657 I0.1435 J-0.3465
G1 X2.1558 Y5.4694
G2 X2.2537 I0.0489 J-0.3718
G1 X2.282 Y5.4657
G2 X2.3766 Y5.4404 I-0.0489 J-0.3718
G1 X2.403 Y5.4294
G2 X2.4877 Y5.3805 I-0.1435 J-0.3465
G1 X2.5104 Y5.3631
G2 X2.5796 Y5.2939 I-0.2283 J-0.2975
G1 X2.597 Y5.2712
G2 X2.646 Y5.1864 I-0.2975 J-0.2283
G1 X2.6569 Y5.16
G2 X2.6822 Y5.0655 I-0.3465 J-0.1435
G1 X2.686 Y5.0371
G2 Y4.9392 I-0.3718 J-0.0489
G1 X2.6822 Y4.9109
G2 X2.6746 Y4.8705 I-0.3718 J0.0489
G0 Z0.05
G0 X1.336 Y3.9693
G0 Z-0.0275
G1 F4.0 Z-0.09
G2 X1.3473 Y3.9553 Z-0.0932 I-0.2862 J-0.2423
G1 X1.3647 Y3.9326 Z-0.0982
G2 X1.3708 Y3.9245 Z-0.1 I-0.2975 J-0.2283
G2 F8.0 X1.4137 Y3.8478 I-0.3035 J-0.2202
G1 X1.4246 Y3.8214
G2 X1.45 Y3.7269 I-0.3465 J-0.1435
G1 X1.4537 Y3.6986
G2 Y3.6007 I-0.3718 J-0.0489
G1 X1.45 Y3.5723
G2 X1.4246 Y3.4778 I-0.3718 J0.0489
G1 X1.4137 Y3.4514
G2 X1.3647 Y3.3666 I-0.3465 J0.1435
G1 X1.3473 Y3.3439
G2 X1.2781 Y3.2747 I-0.2975 J0.2283
G1 X1.2555 Y3.2573
G2 X1.1707 Y3.2084 I-0.2283 J0.2975
G1 X1.1443 Y3.1974
G2 X1.0497 Y3.1721 I-0.1435 J0.3465
G1 X1.0214 Y3.1684
G2 X0.9235 I-0.0489 J0.3718
G1 X0.8952 Y3.1721
G2 X0.8006 Y3.1974 I0.0489 J0.3718
G1 X0.7742 Y3.2084
G2 X0.6894 Y3.2573 I0.1435 J0.3465
G1 X0.6668 Y3.2747
G2 X0.5975 Y3.3439 I0.2283 J0.2975
G1 X0.5801 Y3.3666
G2 X0.5312 Y3.4514 I0.2975 J0.2283
G1 X0.5203 Y3.4778
G2 X0.4949 Y3.5723 I0.3465 J0.1435
G1 X0.4912 Y3.6007
G2 Y3.6986 I0.3718 J0.0489
G1 X0.4949 Y3.7269
G2 X0.5203 Y3.8214 I0.3718 J-0.0489
G1 X0.5312 Y3.8478
G2 X0.5801 Y3.9326 I0.3465 J-0.1435
G1 X0.5975 Y3.9553
G2 X0.6668 Y4.0245 I0.2975 J-0.2283
G1 X0.6894 Y4.0419
G2 X0.7742 Y4.0908 I0.2283 J-0.2975
G1 X0.8006 Y4.1018
G2 X0.8952 Y4.1271 I0.1435 J-0.3465
G1 X0.9235 Y4.1308
G2 X1.0214 I0.0489 J-0.3718
G1 X1.0497 Y4.1271
G2 X1.1443 Y4.1018 I-0.0489 J-0.3718
G1 X1.1707 Y4.0908
G2 X1.2555 Y4.0419 I-0.1435 J-0.3465
G1 X1.2781 Y4.0245
G2 X1.3473 Y3.9553 I-0.2283 J-0.2975
G1 X1.3647 Y3.9326
G2 X1.3708 Y3.9245 I-0.2975 J-0.2283
( Drill1 )
G0 Z0.05
( T12 : 0.141 )
T12 M6
M3 S4000
G0 X0.9724 Y4.9882
G98
G81 X0.9724 Y4.9882 Z-0.1 R0.05 F4.0
G81 X2.2047 Z-0.1
G81 X3.5433 Z-0.1
G81 X4.7756 Z-0.1
G81 Y3.6496 Z-0.1
G81 X3.5433 Z-0.1
G81 X2.2047 Z-0.1
G81 X0.9724 Z-0.1
G81 Y2.311 Z-0.1
G81 X2.2047 Z-0.1
G81 X3.5433 Z-0.1
G81 X4.7756 Z-0.1
G81 Y0.9724 Z-0.1
G81 X3.5433 Z-0.1
G81 X2.2047 Z-0.1
G81 X0.9724 Z-0.1
G80
( Drill2 )
G0 Z0.05
( T13 : 0.141 )
T13 M6
M3 S4000
G0 Y4.9882
G98
G81 X0.9724 Y4.9882 Z-0.3 R0.05 F4.0
G81 X2.2047 Z-0.3
G81 X3.5433 Z-0.3
G81 X4.7756 Z-0.3
G81 Y3.6496 Z-0.3
G81 X3.5433 Z-0.3
G81 X2.2047 Z-0.3
G81 X0.9724 Z-0.3
G81 Y2.311 Z-0.3
G81 X2.2047 Z-0.3
G81 X3.5433 Z-0.3
G81 X4.7756 Z-0.3
G81 Y0.9724 Z-0.3
G81 X3.5433 Z-0.3
G81 X2.2047 Z-0.3
G81 X0.9724 Z-0.3
G80
G0 Z0.05
M5
M30
