( Made using CamBam - http://www.cambam.co.uk )
( TrackV2.Master.Mold.top 4/18/2014 6:11:50 PM )
( T10 : 0.75 )
( T11 : 0.375 )
( T12 : 0.219 )
( T13 : 0.219 )
G20 G90 G64 G40
G0 Z0.05
( T10 : 0.75 )
T10 M6
( Pocket1 )
G17
M3 S4000
G0 X1.9675 Y1.6312
G1 F4.0 Z0.01
G1 F5.0 X2.8205 Z-0.0347
G2 X2.7902 Y1.6759 Z-0.0375 I0.6834 J0.4948
G1 X1.8948 Z-0.0845
G2 X1.8645 Y1.6312 Z-0.0873 I-0.7137 J0.45
G1 X2.8205 Z-0.1374
G2 X2.7902 Y1.6759 Z-0.1402 I0.6834 J0.4948
G1 X1.8948 Z-0.1872
G2 X1.8645 Y1.6312 Z-0.19 I-0.7137 J0.45
G1 F9.0 X2.8205
G2 X2.7902 Y1.6759 I0.6834 J0.4948
G1 X1.8948
G2 X1.8645 Y1.6312 I-0.7137 J0.45
G1 F4.0 X1.7886 Y1.6861
G2 F9.0 X1.6459 Y1.5374 I-0.6075 J0.4399
G1 X3.0391
G2 X2.844 Y1.7697 I0.4648 J0.5886
G1 X1.8411
G2 X1.7886 Y1.6861 I-0.66 J0.3563
G1 F4.0 X1.6367 Y1.7961
G2 F9.0 X1.1811 Y1.5635 I-0.4556 J0.3299
G1 X0.7594
G1 Y1.3499
G1 X3.9257
G1 Y1.5635
G1 X3.5039
G2 X2.9674 Y1.9572 I0.0 J0.5625
G1 X1.7177
G2 X1.6367 Y1.7961 I-0.5366 J0.1688
G1 F4.0 X1.4848 Y1.9061
G2 F9.0 X1.1811 Y1.751 I-0.3037 J0.2199
G1 X0.5719
G1 Y1.1624
G1 X4.1132
G1 Y1.751
G1 X3.5039
G2 X3.1289 Y2.126 I0.0 J0.375
G1 Y2.1447
G1 X1.5561
G1 Y2.126
G2 X1.4848 Y1.9061 I-0.375 J0.0
G0 Z0.05
G0 X2.0315 Y1.6759
G0 Z-0.1275
G1 F4.0 Z-0.19
G1 F5.0 X1.8948 Z-0.1972
G2 X1.8645 Y1.6312 Z-0.2 I-0.7137 J0.45
G1 F9.0 X2.8205
G2 X2.7902 Y1.6759 I0.6834 J0.4948
G1 X1.8948
G2 X1.8645 Y1.6312 I-0.7137 J0.45
G1 F4.0 X1.7886 Y1.6861
G2 F9.0 X1.6459 Y1.5374 I-0.6075 J0.4399
G1 X3.0391
G2 X2.844 Y1.7697 I0.4648 J0.5886
G1 X1.8411
G2 X1.7886 Y1.6861 I-0.66 J0.3563
G1 F4.0 X1.6367 Y1.7961
G2 F9.0 X1.1811 Y1.5635 I-0.4556 J0.3299
G1 X0.7594
G1 Y1.3499
G1 X3.9257
G1 Y1.5635
G1 X3.5039
G2 X2.9674 Y1.9572 I0.0 J0.5625
G1 X1.7177
G2 X1.6367 Y1.7961 I-0.5366 J0.1688
G1 F4.0 X1.4848 Y1.9061
G2 F9.0 X1.1811 Y1.751 I-0.3037 J0.2199
G1 X0.5719
G1 Y1.1624
G1 X4.1132
G1 Y1.751
G1 X3.5039
G2 X3.1289 Y2.126 I0.0 J0.375
G1 Y2.1447
G1 X1.5561
G1 Y2.126
G2 X1.4848 Y1.9061 I-0.375 J0.0
( Pocket2 )
S4000
G0 Z0.05
G0 X3.0467 Y1.4437
G1 F4.0 Z0.0
G1 F5.0 X3.8319 Z-0.0412
G1 Y1.4697 Z-0.0425
G1 X0.8531 Z-0.1986
G1 Y1.4437 Z-0.2
G1 F9.0 X3.8319
G1 Y1.4697
G1 X0.8531
G1 Y1.4437
G1 F4.0 Y1.3499
G1 F9.0 X3.9257
G1 Y1.5635
G1 X0.7594
G1 Y1.3499
G1 X0.8531
G1 F4.0 Y1.1624
G1 F9.0 X4.1132
G1 Y1.751
G1 X0.5719
G1 Y1.1624
G1 X0.8531
G0 Z0.05
G0 X3.0467 Y1.4437
G0 Z-0.1375
G1 F4.0 Z-0.2
G1 F5.0 X3.8319 Z-0.2412
G1 Y1.4697 Z-0.2425
G1 X0.8531 Z-0.3986
G1 Y1.4437 Z-0.4
G1 F9.0 X3.8319
G1 Y1.4697
G1 X0.8531
G1 Y1.4437
G1 F4.0 Y1.3499
G1 F9.0 X3.9257
G1 Y1.5635
G1 X0.7594
G1 Y1.3499
G1 X0.8531
G1 F4.0 Y1.1624
G1 F9.0 X4.1132
G1 Y1.751
G1 X0.5719
G1 Y1.1624
G1 X0.8531
G0 Z0.05
G0 X3.0467 Y1.4437
G0 Z-0.3375
G1 F4.0 Z-0.4
G1 F5.0 X3.8319 Z-0.4412
G1 Y1.4697 Z-0.4425
G1 X0.8531 Z-0.5986
G1 Y1.4437 Z-0.6
G1 F9.0 X3.8319
G1 Y1.4697
G1 X0.8531
G1 Y1.4437
G1 F4.0 Y1.3499
G1 F9.0 X3.9257
G1 Y1.5635
G1 X0.7594
G1 Y1.3499
G1 X0.8531
G1 F4.0 Y1.1624
G1 F9.0 X4.1132
G1 Y1.751
G1 X0.5719
G1 Y1.1624
G1 X0.8531
G0 Z0.05
G0 X3.4283 Y1.4437
G0 Z-0.5375
G1 F4.0 Z-0.6
G1 F5.0 X3.8319 Z-0.6212
G1 Y1.4697 Z-0.6225
G1 X0.8531 Z-0.7786
G1 Y1.4437 Z-0.78
G1 F9.0 X3.8319
G1 Y1.4697
G1 X0.8531
G1 Y1.4437
G1 F4.0 Y1.3499
G1 F9.0 X3.9257
G1 Y1.5635
G1 X0.7594
G1 Y1.3499
G1 X0.8531
G1 F4.0 Y1.1624
G1 F9.0 X4.1132
G1 Y1.751
G1 X0.5719
G1 Y1.1624
G1 X0.8531
G1 F4.0 X1.0178 Y1.4697
G1 F5.0 X0.8531 Z-0.7886
G1 Y1.4437 Z-0.79
G1 F9.0 X3.8319
G1 Y1.4697
G1 X0.8531
G1 Y1.4437
G1 F4.0 Y1.3499
G1 F9.0 X3.9257
G1 Y1.5635
G1 X0.7594
G1 Y1.3499
G1 X0.8531
G1 F4.0 Y1.1624
G1 F9.0 X4.1132
G1 Y1.751
G1 X0.5719
G1 Y1.1624
G1 X0.8531
( Pocket3 )
G0 Z0.05
( T11 : 0.375 )
T11 M6
M3 S4000
G0 X4.2248 Y1.0967
G1 F4.0 Z0.0
G1 F5.0 Y1.0452 Z-0.0027
G1 X4.2304 Z-0.003
G1 Y1.123 Z-0.0071
G1 X4.2248 Z-0.0074
G1 Y1.0452 Z-0.0114
G1 X4.2304 Z-0.0117
G1 Y1.123 Z-0.0158
G1 X4.2248 Z-0.0161
G1 Y1.0452 Z-0.0202
G1 X4.2304 Z-0.0205
G1 Y1.123 Z-0.0245
G1 X4.2248 Z-0.0248
G1 Y1.0452 Z-0.0289
G1 X4.2304 Z-0.0292
G1 Y1.123 Z-0.0333
G1 X4.2248 Z-0.0336
G1 Y1.0452 Z-0.0376
G1 X4.2304 Z-0.0379
G1 Y1.123 Z-0.042
G1 X4.2248 Z-0.0423
G1 Y1.0452 Z-0.0464
G1 X4.2304 Z-0.0467
G1 Y1.123 Z-0.0507
G1 X4.2248 Z-0.051
G1 Y1.0452 Z-0.0551
G1 X4.2304 Z-0.0554
G1 Y1.123 Z-0.0595
G1 X4.2248 Z-0.0598
G1 Y1.0452 Z-0.0638
G1 X4.2304 Z-0.0641
G1 Y1.123 Z-0.0682
G1 X4.2248 Z-0.0685
G1 Y1.0452 Z-0.0726
G1 X4.2304 Z-0.0729
G1 Y1.123 Z-0.077
G1 X4.2248 Z-0.0772
G1 Y1.0452 Z-0.0813
G1 X4.2304 Z-0.0816
G1 Y1.123 Z-0.0857
G1 X4.2248 Z-0.086
G1 Y1.0452 Z-0.0901
G1 X4.2304 Z-0.0903
G1 Y1.123 Z-0.0944
G1 X4.2248 Z-0.0947
G1 Y1.0452 Z-0.0988
G1 X4.2304 Z-0.0991
G1 Y1.123 Z-0.1032
G1 X4.2248 Z-0.1035
G1 Y1.0452 Z-0.1075
G1 X4.2304 Z-0.1078
G1 Y1.123 Z-0.1119
G1 X4.2248 Z-0.1122
G1 Y1.0452 Z-0.1163
G1 X4.2304 Z-0.1166
G1 Y1.123 Z-0.1206
G1 X4.2248 Z-0.1209
G1 Y1.0452 Z-0.125
G1 F9.0 X4.2304
G1 Y1.123
G1 X4.2248
G1 Y1.0452
G1 F4.0 X4.2013
G1 F9.0 Y1.0218
G1 X4.2538
G1 Y1.1464
G1 X4.2013
G1 Y1.0452
G1 F4.0 X4.1545
G1 F9.0 Y0.9749
G1 X4.3007
G1 Y1.1933
G1 X4.1545
G1 Y1.0452
G1 F4.0 X4.2248 Y1.0967
G1 F5.0 Y1.0452 Z-0.1277
G1 X4.2304 Z-0.128
G1 Y1.123 Z-0.1321
G1 X4.2248 Z-0.1324
G1 Y1.0452 Z-0.1364
G1 X4.2304 Z-0.1367
G1 Y1.123 Z-0.1408
G1 X4.2248 Z-0.1411
G1 Y1.0452 Z-0.1452
G1 X4.2304 Z-0.1455
G1 Y1.123 Z-0.1495
G1 X4.2248 Z-0.1498
G1 Y1.0452 Z-0.1539
G1 X4.2304 Z-0.1542
G1 Y1.123 Z-0.1583
G1 X4.2248 Z-0.1586
G1 Y1.0452 Z-0.1626
G1 X4.2304 Z-0.1629
G1 Y1.123 Z-0.167
G1 X4.2248 Z-0.1673
G1 Y1.0452 Z-0.1714
G1 X4.2304 Z-0.1717
G1 Y1.123 Z-0.1757
G1 X4.2248 Z-0.176
G1 Y1.0452 Z-0.1801
G1 X4.2304 Z-0.1804
G1 Y1.123 Z-0.1845
G1 X4.2248 Z-0.1848
G1 Y1.0452 Z-0.1888
G1 X4.2304 Z-0.1891
G1 Y1.123 Z-0.1932
G1 X4.2248 Z-0.1935
G1 Y1.0452 Z-0.1976
G1 X4.2304 Z-0.1979
G1 Y1.123 Z-0.202
G1 X4.2248 Z-0.2022
G1 Y1.0452 Z-0.2063
G1 X4.2304 Z-0.2066
G1 Y1.123 Z-0.2107
G1 X4.2248 Z-0.211
G1 Y1.0452 Z-0.2151
G1 X4.2304 Z-0.2153
G1 Y1.123 Z-0.2194
G1 X4.2248 Z-0.2197
G1 Y1.0452 Z-0.2238
G1 X4.2304 Z-0.2241
G1 Y1.123 Z-0.2282
G1 X4.2248 Z-0.2285
G1 Y1.0452 Z-0.2325
G1 X4.2304 Z-0.2328
G1 Y1.123 Z-0.2369
G1 X4.2248 Z-0.2372
G1 Y1.0452 Z-0.2413
G1 X4.2304 Z-0.2416
G1 Y1.123 Z-0.2456
G1 X4.2248 Z-0.2459
G1 Y1.0452 Z-0.25
G1 F9.0 X4.2304
G1 Y1.123
G1 X4.2248
G1 Y1.0452
G1 F4.0 X4.2013
G1 F9.0 Y1.0218
G1 X4.2538
G1 Y1.1464
G1 X4.2013
G1 Y1.0452
G1 F4.0 X4.1545
G1 F9.0 Y0.9749
G1 X4.3007
G1 Y1.1933
G1 X4.1545
G1 Y1.0452
G1 F4.0 X4.2248 Y1.0967
G1 F5.0 Y1.0452 Z-0.2527
G1 X4.2304 Z-0.253
G1 Y1.123 Z-0.2571
G1 X4.2248 Z-0.2574
G1 Y1.0452 Z-0.2614
G1 X4.2304 Z-0.2617
G1 Y1.123 Z-0.2658
G1 X4.2248 Z-0.2661
G1 Y1.0452 Z-0.2702
G1 X4.2304 Z-0.2705
G1 Y1.123 Z-0.2745
G1 X4.2248 Z-0.2748
G1 Y1.0452 Z-0.2789
G1 X4.2304 Z-0.2792
G1 Y1.123 Z-0.2833
G1 X4.2248 Z-0.2836
G1 Y1.0452 Z-0.2876
G1 X4.2304 Z-0.2879
G1 Y1.123 Z-0.292
G1 X4.2248 Z-0.2923
G1 Y1.0452 Z-0.2964
G1 X4.2304 Z-0.2967
G1 Y1.123 Z-0.3007
G1 X4.2248 Z-0.301
G1 Y1.0452 Z-0.3051
G1 X4.2304 Z-0.3054
G1 Y1.123 Z-0.3095
G1 X4.2248 Z-0.3098
G1 Y1.0452 Z-0.3138
G1 X4.2304 Z-0.3141
G1 Y1.123 Z-0.3182
G1 X4.2248 Z-0.3185
G1 Y1.0452 Z-0.3226
G1 X4.2304 Z-0.3229
G1 Y1.123 Z-0.327
G1 X4.2248 Z-0.3272
G1 Y1.0452 Z-0.3313
G1 X4.2304 Z-0.3316
G1 Y1.123 Z-0.3357
G1 X4.2248 Z-0.336
G1 Y1.0452 Z-0.3401
G1 X4.2304 Z-0.3403
G1 Y1.123 Z-0.3444
G1 X4.2248 Z-0.3447
G1 Y1.0452 Z-0.3488
G1 X4.2304 Z-0.3491
G1 Y1.123 Z-0.3532
G1 X4.2248 Z-0.3535
G1 Y1.0452 Z-0.3575
G1 X4.2304 Z-0.3578
G1 Y1.123 Z-0.3619
G1 X4.2248 Z-0.3622
G1 Y1.0452 Z-0.3663
G1 X4.2304 Z-0.3666
G1 Y1.123 Z-0.3706
G1 X4.2248 Z-0.3709
G1 Y1.0452 Z-0.375
G1 F9.0 X4.2304
G1 Y1.123
G1 X4.2248
G1 Y1.0452
G1 F4.0 X4.2013
G1 F9.0 Y1.0218
G1 X4.2538
G1 Y1.1464
G1 X4.2013
G1 Y1.0452
G1 F4.0 X4.1545
G1 F9.0 Y0.9749
G1 X4.3007
G1 Y1.1933
G1 X4.1545
G1 Y1.0452
G1 F4.0 X4.2248 Y1.0967
G1 F5.0 Y1.0452 Z-0.3777
G1 X4.2304 Z-0.378
G1 Y1.123 Z-0.3821
G1 X4.2248 Z-0.3824
G1 Y1.0452 Z-0.3864
G1 X4.2304 Z-0.3867
G1 Y1.123 Z-0.3908
G1 X4.2248 Z-0.3911
G1 Y1.0452 Z-0.3952
G1 X4.2304 Z-0.3955
G1 Y1.123 Z-0.3995
G1 X4.2248 Z-0.3998
G1 Y1.0452 Z-0.4039
G1 X4.2304 Z-0.4042
G1 Y1.123 Z-0.4083
G1 X4.2248 Z-0.4086
G1 Y1.0452 Z-0.4126
G1 X4.2304 Z-0.4129
G1 Y1.123 Z-0.417
G1 X4.2248 Z-0.4173
G1 Y1.0452 Z-0.4214
G1 X4.2304 Z-0.4217
G1 Y1.123 Z-0.4257
G1 X4.2248 Z-0.426
G1 Y1.0452 Z-0.4301
G1 X4.2304 Z-0.4304
G1 Y1.123 Z-0.4345
G1 X4.2248 Z-0.4348
G1 Y1.0452 Z-0.4388
G1 X4.2304 Z-0.4391
G1 Y1.123 Z-0.4432
G1 X4.2248 Z-0.4435
G1 Y1.0452 Z-0.4476
G1 X4.2304 Z-0.4479
G1 Y1.123 Z-0.452
G1 X4.2248 Z-0.4522
G1 Y1.0452 Z-0.4563
G1 X4.2304 Z-0.4566
G1 Y1.123 Z-0.4607
G1 X4.2248 Z-0.461
G1 Y1.0452 Z-0.4651
G1 X4.2304 Z-0.4653
G1 Y1.123 Z-0.4694
G1 X4.2248 Z-0.4697
G1 Y1.0452 Z-0.4738
G1 X4.2304 Z-0.4741
G1 Y1.123 Z-0.4782
G1 X4.2248 Z-0.4785
G1 Y1.0452 Z-0.4825
G1 X4.2304 Z-0.4828
G1 Y1.123 Z-0.4869
G1 X4.2248 Z-0.4872
G1 Y1.0452 Z-0.4913
G1 X4.2304 Z-0.4916
G1 Y1.123 Z-0.4956
G1 X4.2248 Z-0.4959
G1 Y1.0452 Z-0.5
G1 F9.0 X4.2304
G1 Y1.123
G1 X4.2248
G1 Y1.0452
G1 F4.0 X4.2013
G1 F9.0 Y1.0218
G1 X4.2538
G1 Y1.1464
G1 X4.2013
G1 Y1.0452
G1 F4.0 X4.1545
G1 F9.0 Y0.9749
G1 X4.3007
G1 Y1.1933
G1 X4.1545
G1 Y1.0452
G1 F4.0 X4.2248 Y1.0967
G1 F5.0 Y1.0452 Z-0.5027
G1 X4.2304 Z-0.503
G1 Y1.123 Z-0.5071
G1 X4.2248 Z-0.5074
G1 Y1.0452 Z-0.5114
G1 X4.2304 Z-0.5117
G1 Y1.123 Z-0.5158
G1 X4.2248 Z-0.5161
G1 Y1.0452 Z-0.5202
G1 X4.2304 Z-0.5205
G1 Y1.123 Z-0.5245
G1 X4.2248 Z-0.5248
G1 Y1.0452 Z-0.5289
G1 X4.2304 Z-0.5292
G1 Y1.123 Z-0.5333
G1 X4.2248 Z-0.5336
G1 Y1.0452 Z-0.5376
G1 X4.2304 Z-0.5379
G1 Y1.123 Z-0.542
G1 X4.2248 Z-0.5423
G1 Y1.0452 Z-0.5464
G1 X4.2304 Z-0.5467
G1 Y1.123 Z-0.5507
G1 X4.2248 Z-0.551
G1 Y1.0452 Z-0.5551
G1 X4.2304 Z-0.5554
G1 Y1.123 Z-0.5595
G1 X4.2248 Z-0.5598
G1 Y1.0452 Z-0.5638
G1 X4.2304 Z-0.5641
G1 Y1.123 Z-0.5682
G1 X4.2248 Z-0.5685
G1 Y1.0452 Z-0.5726
G1 X4.2304 Z-0.5729
G1 Y1.123 Z-0.577
G1 X4.2248 Z-0.5772
G1 Y1.0452 Z-0.5813
G1 X4.2304 Z-0.5816
G1 Y1.123 Z-0.5857
G1 X4.2248 Z-0.586
G1 Y1.0452 Z-0.5901
G1 X4.2304 Z-0.5903
G1 Y1.123 Z-0.5944
G1 X4.2248 Z-0.5947
G1 Y1.0452 Z-0.5988
G1 X4.2304 Z-0.5991
G1 Y1.123 Z-0.6032
G1 X4.2248 Z-0.6035
G1 Y1.0452 Z-0.6075
G1 X4.2304 Z-0.6078
G1 Y1.123 Z-0.6119
G1 X4.2248 Z-0.6122
G1 Y1.0452 Z-0.6163
G1 X4.2304 Z-0.6166
G1 Y1.123 Z-0.6206
G1 X4.2248 Z-0.6209
G1 Y1.0452 Z-0.625
G1 F9.0 X4.2304
G1 Y1.123
G1 X4.2248
G1 Y1.0452
G1 F4.0 X4.2013
G1 F9.0 Y1.0218
G1 X4.2538
G1 Y1.1464
G1 X4.2013
G1 Y1.0452
G1 F4.0 X4.1545
G1 F9.0 Y0.9749
G1 X4.3007
G1 Y1.1933
G1 X4.1545
G1 Y1.0452
G1 F4.0 X4.2248 Y1.0967
G1 F5.0 Y1.0452 Z-0.6277
G1 X4.2304 Z-0.628
G1 Y1.123 Z-0.6321
G1 X4.2248 Z-0.6324
G1 Y1.0452 Z-0.6364
G1 X4.2304 Z-0.6367
G1 Y1.123 Z-0.6408
G1 X4.2248 Z-0.6411
G1 Y1.0452 Z-0.6452
G1 X4.2304 Z-0.6455
G1 Y1.123 Z-0.6495
G1 X4.2248 Z-0.6498
G1 Y1.0452 Z-0.6539
G1 X4.2304 Z-0.6542
G1 Y1.123 Z-0.6583
G1 X4.2248 Z-0.6586
G1 Y1.0452 Z-0.6626
G1 X4.2304 Z-0.6629
G1 Y1.123 Z-0.667
G1 X4.2248 Z-0.6673
G1 Y1.0452 Z-0.6714
G1 X4.2304 Z-0.6717
G1 Y1.123 Z-0.6757
G1 X4.2248 Z-0.676
G1 Y1.0452 Z-0.6801
G1 X4.2304 Z-0.6804
G1 Y1.123 Z-0.6845
G1 X4.2248 Z-0.6848
G1 Y1.0452 Z-0.6888
G1 X4.2304 Z-0.6891
G1 Y1.123 Z-0.6932
G1 X4.2248 Z-0.6935
G1 Y1.0452 Z-0.6976
G1 X4.2304 Z-0.6979
G1 Y1.123 Z-0.702
G1 X4.2248 Z-0.7022
G1 Y1.0452 Z-0.7063
G1 X4.2304 Z-0.7066
G1 Y1.123 Z-0.7107
G1 X4.2248 Z-0.711
G1 Y1.0452 Z-0.7151
G1 X4.2304 Z-0.7153
G1 Y1.123 Z-0.7194
G1 X4.2248 Z-0.7197
G1 Y1.0452 Z-0.7238
G1 X4.2304 Z-0.7241
G1 Y1.123 Z-0.7282
G1 X4.2248 Z-0.7285
G1 Y1.0452 Z-0.7325
G1 X4.2304 Z-0.7328
G1 Y1.123 Z-0.7369
G1 X4.2248 Z-0.7372
G1 Y1.0452 Z-0.7413
G1 X4.2304 Z-0.7416
G1 Y1.123 Z-0.7456
G1 X4.2248 Z-0.7459
G1 Y1.0452 Z-0.75
G1 F9.0 X4.2304
G1 Y1.123
G1 X4.2248
G1 Y1.0452
G1 F4.0 X4.2013
G1 F9.0 Y1.0218
G1 X4.2538
G1 Y1.1464
G1 X4.2013
G1 Y1.0452
G1 F4.0 X4.1545
G1 F9.0 Y0.9749
G1 X4.3007
G1 Y1.1933
G1 X4.1545
G1 Y1.0452
G1 F4.0 X4.2248 Y1.1176
G1 F5.0 Y1.0452 Z-0.7538
G1 X4.2304 Z-0.7541
G1 Y1.123 Z-0.7582
G1 X4.2248 Z-0.7585
G1 Y1.0452 Z-0.7625
G1 X4.2304 Z-0.7628
G1 Y1.123 Z-0.7669
G1 X4.2248 Z-0.7672
G1 Y1.0452 Z-0.7713
G1 X4.2304 Z-0.7716
G1 Y1.123 Z-0.7756
G1 X4.2248 Z-0.7759
G1 Y1.0452 Z-0.78
G1 F9.0 X4.2304
G1 Y1.123
G1 X4.2248
G1 Y1.0452
G1 F4.0 X4.2013
G1 F9.0 Y1.0218
G1 X4.2538
G1 Y1.1464
G1 X4.2013
G1 Y1.0452
G1 F4.0 X4.1545
G1 F9.0 Y0.9749
G1 X4.3007
G1 Y1.1933
G1 X4.1545
G1 Y1.0452
G1 F4.0 X4.2248 Y1.0693
G1 F5.0 Y1.0452 Z-0.7813
G1 X4.2304 Z-0.7816
G1 Y1.123 Z-0.7856
G1 X4.2248 Z-0.7859
G1 Y1.0452 Z-0.79
G1 F9.0 X4.2304
G1 Y1.123
G1 X4.2248
G1 Y1.0452
G1 F4.0 X4.2013
G1 F9.0 Y1.0218
G1 X4.2538
G1 Y1.1464
G1 X4.2013
G1 Y1.0452
G1 F4.0 X4.1545
G1 F9.0 Y0.9749
G1 X4.3007
G1 Y1.1933
G1 X4.1545
G1 Y1.0452
( Pocket4 )
S4000
G0 Z0.05
G0 X0.4547 Y1.8155
G1 F4.0 Z0.0
G1 F5.0 Y1.8085 Z-0.0004
G1 X0.4941 Z-0.0024
G1 Y1.8682 Z-0.0056
G1 X0.4547 Z-0.0076
G1 Y1.8085 Z-0.0108
G1 X0.4941 Z-0.0128
G1 Y1.8682 Z-0.0159
G1 X0.4547 Z-0.018
G1 Y1.8085 Z-0.0211
G1 X0.4941 Z-0.0232
G1 Y1.8682 Z-0.0263
G1 X0.4547 Z-0.0284
G1 Y1.8085 Z-0.0315
G1 X0.4941 Z-0.0336
G1 Y1.8682 Z-0.0367
G1 X0.4547 Z-0.0388
G1 Y1.8085 Z-0.0419
G1 X0.4941 Z-0.044
G1 Y1.8682 Z-0.0471
G1 X0.4547 Z-0.0492
G1 Y1.8085 Z-0.0523
G1 X0.4941 Z-0.0544
G1 Y1.8682 Z-0.0575
G1 X0.4547 Z-0.0596
G1 Y1.8085 Z-0.0627
G1 X0.4941 Z-0.0647
G1 Y1.8682 Z-0.0679
G1 X0.4547 Z-0.0699
G1 Y1.8085 Z-0.0731
G1 X0.4941 Z-0.0751
G1 Y1.8682 Z-0.0783
G1 X0.4547 Z-0.0803
G1 Y1.8085 Z-0.0835
G1 X0.4941 Z-0.0855
G1 Y1.8682 Z-0.0886
G1 X0.4547 Z-0.0907
G1 Y1.8085 Z-0.0938
G1 X0.4941 Z-0.0959
G1 Y1.8682 Z-0.099
G1 X0.4547 Z-0.1011
G1 Y1.8085 Z-0.1042
G1 X0.4941 Z-0.1063
G1 Y1.8682 Z-0.1094
G1 X0.4547 Z-0.1115
G1 Y1.8085 Z-0.1146
G1 X0.4941 Z-0.1167
G1 Y1.8682 Z-0.1198
G1 X0.4547 Z-0.1219
G1 Y1.8085 Z-0.125
G1 F9.0 X0.4941
G1 Y1.8682
G1 X0.4547
G1 Y1.8085
G1 F4.0 X0.4312
G1 F9.0 Y1.7851
G1 X0.5175
G1 Y1.8916
G1 X0.4312
G1 Y1.8085
G1 F4.0 X0.3844
G1 F9.0 Y1.7382
G1 X0.5644
G1 Y1.9385
G1 X0.3844
G1 Y1.8085
G1 F4.0 X0.4547 Y1.8155
G1 F5.0 Y1.8085 Z-0.1254
G1 X0.4941 Z-0.1274
G1 Y1.8682 Z-0.1306
G1 X0.4547 Z-0.1326
G1 Y1.8085 Z-0.1358
G1 X0.4941 Z-0.1378
G1 Y1.8682 Z-0.1409
G1 X0.4547 Z-0.143
G1 Y1.8085 Z-0.1461
G1 X0.4941 Z-0.1482
G1 Y1.8682 Z-0.1513
G1 X0.4547 Z-0.1534
G1 Y1.8085 Z-0.1565
G1 X0.4941 Z-0.1586
G1 Y1.8682 Z-0.1617
G1 X0.4547 Z-0.1638
G1 Y1.8085 Z-0.1669
G1 X0.4941 Z-0.169
G1 Y1.8682 Z-0.1721
G1 X0.4547 Z-0.1742
G1 Y1.8085 Z-0.1773
G1 X0.4941 Z-0.1794
G1 Y1.8682 Z-0.1825
G1 X0.4547 Z-0.1846
G1 Y1.8085 Z-0.1877
G1 X0.4941 Z-0.1897
G1 Y1.8682 Z-0.1929
G1 X0.4547 Z-0.1949
G1 Y1.8085 Z-0.1981
G1 X0.4941 Z-0.2001
G1 Y1.8682 Z-0.2033
G1 X0.4547 Z-0.2053
G1 Y1.8085 Z-0.2085
G1 X0.4941 Z-0.2105
G1 Y1.8682 Z-0.2136
G1 X0.4547 Z-0.2157
G1 Y1.8085 Z-0.2188
G1 X0.4941 Z-0.2209
G1 Y1.8682 Z-0.224
G1 X0.4547 Z-0.2261
G1 Y1.8085 Z-0.2292
G1 X0.4941 Z-0.2313
G1 Y1.8682 Z-0.2344
G1 X0.4547 Z-0.2365
G1 Y1.8085 Z-0.2396
G1 X0.4941 Z-0.2417
G1 Y1.8682 Z-0.2448
G1 X0.4547 Z-0.2469
G1 Y1.8085 Z-0.25
G1 F9.0 X0.4941
G1 Y1.8682
G1 X0.4547
G1 Y1.8085
G1 F4.0 X0.4312
G1 F9.0 Y1.7851
G1 X0.5175
G1 Y1.8916
G1 X0.4312
G1 Y1.8085
G1 F4.0 X0.3844
G1 F9.0 Y1.7382
G1 X0.5644
G1 Y1.9385
G1 X0.3844
G1 Y1.8085
G1 F4.0 X0.4547 Y1.8155
G1 F5.0 Y1.8085 Z-0.2504
G1 X0.4941 Z-0.2524
G1 Y1.8682 Z-0.2556
G1 X0.4547 Z-0.2576
G1 Y1.8085 Z-0.2608
G1 X0.4941 Z-0.2628
G1 Y1.8682 Z-0.2659
G1 X0.4547 Z-0.268
G1 Y1.8085 Z-0.2711
G1 X0.4941 Z-0.2732
G1 Y1.8682 Z-0.2763
G1 X0.4547 Z-0.2784
G1 Y1.8085 Z-0.2815
G1 X0.4941 Z-0.2836
G1 Y1.8682 Z-0.2867
G1 X0.4547 Z-0.2888
G1 Y1.8085 Z-0.2919
G1 X0.4941 Z-0.294
G1 Y1.8682 Z-0.2971
G1 X0.4547 Z-0.2992
G1 Y1.8085 Z-0.3023
G1 X0.4941 Z-0.3044
G1 Y1.8682 Z-0.3075
G1 X0.4547 Z-0.3096
G1 Y1.8085 Z-0.3127
G1 X0.4941 Z-0.3147
G1 Y1.8682 Z-0.3179
G1 X0.4547 Z-0.3199
G1 Y1.8085 Z-0.3231
G1 X0.4941 Z-0.3251
G1 Y1.8682 Z-0.3283
G1 X0.4547 Z-0.3303
G1 Y1.8085 Z-0.3335
G1 X0.4941 Z-0.3355
G1 Y1.8682 Z-0.3386
G1 X0.4547 Z-0.3407
G1 Y1.8085 Z-0.3438
G1 X0.4941 Z-0.3459
G1 Y1.8682 Z-0.349
G1 X0.4547 Z-0.3511
G1 Y1.8085 Z-0.3542
G1 X0.4941 Z-0.3563
G1 Y1.8682 Z-0.3594
G1 X0.4547 Z-0.3615
G1 Y1.8085 Z-0.3646
G1 X0.4941 Z-0.3667
G1 Y1.8682 Z-0.3698
G1 X0.4547 Z-0.3719
G1 Y1.8085 Z-0.375
G1 F9.0 X0.4941
G1 Y1.8682
G1 X0.4547
G1 Y1.8085
G1 F4.0 X0.4312
G1 F9.0 Y1.7851
G1 X0.5175
G1 Y1.8916
G1 X0.4312
G1 Y1.8085
G1 F4.0 X0.3844
G1 F9.0 Y1.7382
G1 X0.5644
G1 Y1.9385
G1 X0.3844
G1 Y1.8085
G1 F4.0 X0.4547 Y1.8155
G1 F5.0 Y1.8085 Z-0.3754
G1 X0.4941 Z-0.3774
G1 Y1.8682 Z-0.3806
G1 X0.4547 Z-0.3826
G1 Y1.8085 Z-0.3858
G1 X0.4941 Z-0.3878
G1 Y1.8682 Z-0.3909
G1 X0.4547 Z-0.393
G1 Y1.8085 Z-0.3961
G1 X0.4941 Z-0.3982
G1 Y1.8682 Z-0.4013
G1 X0.4547 Z-0.4034
G1 Y1.8085 Z-0.4065
G1 X0.4941 Z-0.4086
G1 Y1.8682 Z-0.4117
G1 X0.4547 Z-0.4138
G1 Y1.8085 Z-0.4169
G1 X0.4941 Z-0.419
G1 Y1.8682 Z-0.4221
G1 X0.4547 Z-0.4242
G1 Y1.8085 Z-0.4273
G1 X0.4941 Z-0.4294
G1 Y1.8682 Z-0.4325
G1 X0.4547 Z-0.4346
G1 Y1.8085 Z-0.4377
G1 X0.4941 Z-0.4397
G1 Y1.8682 Z-0.4429
G1 X0.4547 Z-0.4449
G1 Y1.8085 Z-0.4481
G1 X0.4941 Z-0.4501
G1 Y1.8682 Z-0.4533
G1 X0.4547 Z-0.4553
G1 Y1.8085 Z-0.4585
G1 X0.4941 Z-0.4605
G1 Y1.8682 Z-0.4636
G1 X0.4547 Z-0.4657
G1 Y1.8085 Z-0.4688
G1 X0.4941 Z-0.4709
G1 Y1.8682 Z-0.474
G1 X0.4547 Z-0.4761
G1 Y1.8085 Z-0.4792
G1 X0.4941 Z-0.4813
G1 Y1.8682 Z-0.4844
G1 X0.4547 Z-0.4865
G1 Y1.8085 Z-0.4896
G1 X0.4941 Z-0.4917
G1 Y1.8682 Z-0.4948
G1 X0.4547 Z-0.4969
G1 Y1.8085 Z-0.5
G1 F9.0 X0.4941
G1 Y1.8682
G1 X0.4547
G1 Y1.8085
G1 F4.0 X0.4312
G1 F9.0 Y1.7851
G1 X0.5175
G1 Y1.8916
G1 X0.4312
G1 Y1.8085
G1 F4.0 X0.3844
G1 F9.0 Y1.7382
G1 X0.5644
G1 Y1.9385
G1 X0.3844
G1 Y1.8085
G1 F4.0 X0.4547 Y1.8155
G1 F5.0 Y1.8085 Z-0.5004
G1 X0.4941 Z-0.5024
G1 Y1.8682 Z-0.5056
G1 X0.4547 Z-0.5076
G1 Y1.8085 Z-0.5108
G1 X0.4941 Z-0.5128
G1 Y1.8682 Z-0.5159
G1 X0.4547 Z-0.518
G1 Y1.8085 Z-0.5211
G1 X0.4941 Z-0.5232
G1 Y1.8682 Z-0.5263
G1 X0.4547 Z-0.5284
G1 Y1.8085 Z-0.5315
G1 X0.4941 Z-0.5336
G1 Y1.8682 Z-0.5367
G1 X0.4547 Z-0.5388
G1 Y1.8085 Z-0.5419
G1 X0.4941 Z-0.544
G1 Y1.8682 Z-0.5471
G1 X0.4547 Z-0.5492
G1 Y1.8085 Z-0.5523
G1 X0.4941 Z-0.5544
G1 Y1.8682 Z-0.5575
G1 X0.4547 Z-0.5596
G1 Y1.8085 Z-0.5627
G1 X0.4941 Z-0.5647
G1 Y1.8682 Z-0.5679
G1 X0.4547 Z-0.5699
G1 Y1.8085 Z-0.5731
G1 X0.4941 Z-0.5751
G1 Y1.8682 Z-0.5783
G1 X0.4547 Z-0.5803
G1 Y1.8085 Z-0.5835
G1 X0.4941 Z-0.5855
G1 Y1.8682 Z-0.5886
G1 X0.4547 Z-0.5907
G1 Y1.8085 Z-0.5938
G1 X0.4941 Z-0.5959
G1 Y1.8682 Z-0.599
G1 X0.4547 Z-0.6011
G1 Y1.8085 Z-0.6042
G1 X0.4941 Z-0.6063
G1 Y1.8682 Z-0.6094
G1 X0.4547 Z-0.6115
G1 Y1.8085 Z-0.6146
G1 X0.4941 Z-0.6167
G1 Y1.8682 Z-0.6198
G1 X0.4547 Z-0.6219
G1 Y1.8085 Z-0.625
G1 F9.0 X0.4941
G1 Y1.8682
G1 X0.4547
G1 Y1.8085
G1 F4.0 X0.4312
G1 F9.0 Y1.7851
G1 X0.5175
G1 Y1.8916
G1 X0.4312
G1 Y1.8085
G1 F4.0 X0.3844
G1 F9.0 Y1.7382
G1 X0.5644
G1 Y1.9385
G1 X0.3844
G1 Y1.8085
G1 F4.0 X0.4547 Y1.8155
G1 F5.0 Y1.8085 Z-0.6254
G1 X0.4941 Z-0.6274
G1 Y1.8682 Z-0.6306
G1 X0.4547 Z-0.6326
G1 Y1.8085 Z-0.6358
G1 X0.4941 Z-0.6378
G1 Y1.8682 Z-0.6409
G1 X0.4547 Z-0.643
G1 Y1.8085 Z-0.6461
G1 X0.4941 Z-0.6482
G1 Y1.8682 Z-0.6513
G1 X0.4547 Z-0.6534
G1 Y1.8085 Z-0.6565
G1 X0.4941 Z-0.6586
G1 Y1.8682 Z-0.6617
G1 X0.4547 Z-0.6638
G1 Y1.8085 Z-0.6669
G1 X0.4941 Z-0.669
G1 Y1.8682 Z-0.6721
G1 X0.4547 Z-0.6742
G1 Y1.8085 Z-0.6773
G1 X0.4941 Z-0.6794
G1 Y1.8682 Z-0.6825
G1 X0.4547 Z-0.6846
G1 Y1.8085 Z-0.6877
G1 X0.4941 Z-0.6897
G1 Y1.8682 Z-0.6929
G1 X0.4547 Z-0.6949
G1 Y1.8085 Z-0.6981
G1 X0.4941 Z-0.7001
G1 Y1.8682 Z-0.7033
G1 X0.4547 Z-0.7053
G1 Y1.8085 Z-0.7085
G1 X0.4941 Z-0.7105
G1 Y1.8682 Z-0.7136
G1 X0.4547 Z-0.7157
G1 Y1.8085 Z-0.7188
G1 X0.4941 Z-0.7209
G1 Y1.8682 Z-0.724
G1 X0.4547 Z-0.7261
G1 Y1.8085 Z-0.7292
G1 X0.4941 Z-0.7313
G1 Y1.8682 Z-0.7344
G1 X0.4547 Z-0.7365
G1 Y1.8085 Z-0.7396
G1 X0.4941 Z-0.7417
G1 Y1.8682 Z-0.7448
G1 X0.4547 Z-0.7469
G1 Y1.8085 Z-0.75
G1 F9.0 X0.4941
G1 Y1.8682
G1 X0.4547
G1 Y1.8085
G1 F4.0 X0.4312
G1 F9.0 Y1.7851
G1 X0.5175
G1 Y1.8916
G1 X0.4312
G1 Y1.8085
G1 F4.0 X0.3844
G1 F9.0 Y1.7382
G1 X0.5644
G1 Y1.9385
G1 X0.3844
G1 Y1.8085
G1 F4.0 X0.4768
G1 F5.0 X0.4941 Z-0.7509
G1 Y1.8682 Z-0.754
G1 X0.4547 Z-0.7561
G1 Y1.8085 Z-0.7592
G1 X0.4941 Z-0.7613
G1 Y1.8682 Z-0.7644
G1 X0.4547 Z-0.7665
G1 Y1.8085 Z-0.7696
G1 X0.4941 Z-0.7717
G1 Y1.8682 Z-0.7748
G1 X0.4547 Z-0.7769
G1 Y1.8085 Z-0.78
G1 F9.0 X0.4941
G1 Y1.8682
G1 X0.4547
G1 Y1.8085
G1 F4.0 X0.4312
G1 F9.0 Y1.7851
G1 X0.5175
G1 Y1.8916
G1 X0.4312
G1 Y1.8085
G1 F4.0 X0.3844
G1 F9.0 Y1.7382
G1 X0.5644
G1 Y1.9385
G1 X0.3844
G1 Y1.8085
G1 F4.0 X0.462
G1 F5.0 X0.4941 Z-0.7817
G1 Y1.8682 Z-0.7848
G1 X0.4547 Z-0.7869
G1 Y1.8085 Z-0.79
G1 F9.0 X0.4941
G1 Y1.8682
G1 X0.4547
G1 Y1.8085
G1 F4.0 X0.4312
G1 F9.0 Y1.7851
G1 X0.5175
G1 Y1.8916
G1 X0.4312
G1 Y1.8085
G1 F4.0 X0.3844
G1 F9.0 Y1.7382
G1 X0.5644
G1 Y1.9385
G1 X0.3844
G1 Y1.8085
( Pocket5 )
S4000
G0 Z0.05
G0 X0.4796 Y1.1298
G1 F4.0 Z0.0
G1 F5.0 Y1.1487 Z-0.001
G1 X0.4781 Z-0.0011
G1 Y1.0687 Z-0.0053
G1 X0.4796
G1 Y1.1487 Z-0.0095
G1 X0.4781 Z-0.0096
G1 Y1.0687 Z-0.0138
G1 X0.4796 Z-0.0139
G1 Y1.1487 Z-0.0181
G1 X0.4781 Z-0.0182
G1 Y1.0687 Z-0.0224
G1 X0.4796 Z-0.0225
G1 Y1.1487 Z-0.0266
G1 X0.4781 Z-0.0267
G1 Y1.0687 Z-0.0309
G1 X0.4796 Z-0.031
G1 Y1.1487 Z-0.0352
G1 X0.4781 Z-0.0353
G1 Y1.0687 Z-0.0395
G1 X0.4796 Z-0.0396
G1 Y1.1487 Z-0.0438
G1 X0.4781
G1 Y1.0687 Z-0.048
G1 X0.4796 Z-0.0481
G1 Y1.1487 Z-0.0523
G1 X0.4781 Z-0.0524
G1 Y1.0687 Z-0.0566
G1 X0.4796 Z-0.0567
G1 Y1.1487 Z-0.0609
G1 X0.4781
G1 Y1.0687 Z-0.0651
G1 X0.4796 Z-0.0652
G1 Y1.1487 Z-0.0694
G1 X0.4781 Z-0.0695
G1 Y1.0687 Z-0.0737
G1 X0.4796 Z-0.0738
G1 Y1.1487 Z-0.078
G1 X0.4781
G1 Y1.0687 Z-0.0822
G1 X0.4796 Z-0.0823
G1 Y1.1487 Z-0.0865
G1 X0.4781 Z-0.0866
G1 Y1.0687 Z-0.0908
G1 X0.4796 Z-0.0909
G1 Y1.1487 Z-0.0951
G1 X0.4781
G1 Y1.0687 Z-0.0993
G1 X0.4796 Z-0.0994
G1 Y1.1487 Z-0.1036
G1 X0.4781 Z-0.1037
G1 Y1.0687 Z-0.1079
G1 X0.4796 Z-0.108
G1 Y1.1487 Z-0.1122
G1 X0.4781 Z-0.1123
G1 Y1.0687 Z-0.1164
G1 X0.4796 Z-0.1165
G1 Y1.1487 Z-0.1207
G1 X0.4781 Z-0.1208
G1 Y1.0687 Z-0.125
G1 F9.0 X0.4796
G1 Y1.1487
G1 X0.4781
G1 Y1.0687
G1 F4.0 Y1.0218
G1 F9.0 X0.5265
G1 Y1.1956
G1 X0.4312
G1 Y1.0218
G1 X0.4781
G1 F4.0 Y0.9749
G1 F9.0 X0.5734
G1 Y1.2425
G1 X0.3844
G1 Y0.9749
G1 X0.4781
G1 F4.0 X0.4796 Y1.1298
G1 F5.0 Y1.1487 Z-0.126
G1 X0.4781 Z-0.1261
G1 Y1.0687 Z-0.1303
G1 X0.4796
G1 Y1.1487 Z-0.1345
G1 X0.4781 Z-0.1346
G1 Y1.0687 Z-0.1388
G1 X0.4796 Z-0.1389
G1 Y1.1487 Z-0.1431
G1 X0.4781 Z-0.1432
G1 Y1.0687 Z-0.1474
G1 X0.4796 Z-0.1475
G1 Y1.1487 Z-0.1516
G1 X0.4781 Z-0.1517
G1 Y1.0687 Z-0.1559
G1 X0.4796 Z-0.156
G1 Y1.1487 Z-0.1602
G1 X0.4781 Z-0.1603
G1 Y1.0687 Z-0.1645
G1 X0.4796 Z-0.1646
G1 Y1.1487 Z-0.1688
G1 X0.4781
G1 Y1.0687 Z-0.173
G1 X0.4796 Z-0.1731
G1 Y1.1487 Z-0.1773
G1 X0.4781 Z-0.1774
G1 Y1.0687 Z-0.1816
G1 X0.4796 Z-0.1817
G1 Y1.1487 Z-0.1859
G1 X0.4781
G1 Y1.0687 Z-0.1901
G1 X0.4796 Z-0.1902
G1 Y1.1487 Z-0.1944
G1 X0.4781 Z-0.1945
G1 Y1.0687 Z-0.1987
G1 X0.4796 Z-0.1988
G1 Y1.1487 Z-0.203
G1 X0.4781
G1 Y1.0687 Z-0.2072
G1 X0.4796 Z-0.2073
G1 Y1.1487 Z-0.2115
G1 X0.4781 Z-0.2116
G1 Y1.0687 Z-0.2158
G1 X0.4796 Z-0.2159
G1 Y1.1487 Z-0.2201
G1 X0.4781
G1 Y1.0687 Z-0.2243
G1 X0.4796 Z-0.2244
G1 Y1.1487 Z-0.2286
G1 X0.4781 Z-0.2287
G1 Y1.0687 Z-0.2329
G1 X0.4796 Z-0.233
G1 Y1.1487 Z-0.2372
G1 X0.4781 Z-0.2373
G1 Y1.0687 Z-0.2414
G1 X0.4796 Z-0.2415
G1 Y1.1487 Z-0.2457
G1 X0.4781 Z-0.2458
G1 Y1.0687 Z-0.25
G1 F9.0 X0.4796
G1 Y1.1487
G1 X0.4781
G1 Y1.0687
G1 F4.0 Y1.0218
G1 F9.0 X0.5265
G1 Y1.1956
G1 X0.4312
G1 Y1.0218
G1 X0.4781
G1 F4.0 Y0.9749
G1 F9.0 X0.5734
G1 Y1.2425
G1 X0.3844
G1 Y0.9749
G1 X0.4781
G1 F4.0 X0.4796 Y1.1298
G1 F5.0 Y1.1487 Z-0.251
G1 X0.4781 Z-0.2511
G1 Y1.0687 Z-0.2553
G1 X0.4796
G1 Y1.1487 Z-0.2595
G1 X0.4781 Z-0.2596
G1 Y1.0687 Z-0.2638
G1 X0.4796 Z-0.2639
G1 Y1.1487 Z-0.2681
G1 X0.4781 Z-0.2682
G1 Y1.0687 Z-0.2724
G1 X0.4796 Z-0.2725
G1 Y1.1487 Z-0.2766
G1 X0.4781 Z-0.2767
G1 Y1.0687 Z-0.2809
G1 X0.4796 Z-0.281
G1 Y1.1487 Z-0.2852
G1 X0.4781 Z-0.2853
G1 Y1.0687 Z-0.2895
G1 X0.4796 Z-0.2896
G1 Y1.1487 Z-0.2938
G1 X0.4781
G1 Y1.0687 Z-0.298
G1 X0.4796 Z-0.2981
G1 Y1.1487 Z-0.3023
G1 X0.4781 Z-0.3024
G1 Y1.0687 Z-0.3066
G1 X0.4796 Z-0.3067
G1 Y1.1487 Z-0.3109
G1 X0.4781
G1 Y1.0687 Z-0.3151
G1 X0.4796 Z-0.3152
G1 Y1.1487 Z-0.3194
G1 X0.4781 Z-0.3195
G1 Y1.0687 Z-0.3237
G1 X0.4796 Z-0.3238
G1 Y1.1487 Z-0.328
G1 X0.4781
G1 Y1.0687 Z-0.3322
G1 X0.4796 Z-0.3323
G1 Y1.1487 Z-0.3365
G1 X0.4781 Z-0.3366
G1 Y1.0687 Z-0.3408
G1 X0.4796 Z-0.3409
G1 Y1.1487 Z-0.3451
G1 X0.4781
G1 Y1.0687 Z-0.3493
G1 X0.4796 Z-0.3494
G1 Y1.1487 Z-0.3536
G1 X0.4781 Z-0.3537
G1 Y1.0687 Z-0.3579
G1 X0.4796 Z-0.358
G1 Y1.1487 Z-0.3622
G1 X0.4781 Z-0.3623
G1 Y1.0687 Z-0.3664
G1 X0.4796 Z-0.3665
G1 Y1.1487 Z-0.3707
G1 X0.4781 Z-0.3708
G1 Y1.0687 Z-0.375
G1 F9.0 X0.4796
G1 Y1.1487
G1 X0.4781
G1 Y1.0687
G1 F4.0 Y1.0218
G1 F9.0 X0.5265
G1 Y1.1956
G1 X0.4312
G1 Y1.0218
G1 X0.4781
G1 F4.0 Y0.9749
G1 F9.0 X0.5734
G1 Y1.2425
G1 X0.3844
G1 Y0.9749
G1 X0.4781
G1 F4.0 X0.4796 Y1.1298
G1 F5.0 Y1.1487 Z-0.376
G1 X0.4781 Z-0.3761
G1 Y1.0687 Z-0.3803
G1 X0.4796
G1 Y1.1487 Z-0.3845
G1 X0.4781 Z-0.3846
G1 Y1.0687 Z-0.3888
G1 X0.4796 Z-0.3889
G1 Y1.1487 Z-0.3931
G1 X0.4781 Z-0.3932
G1 Y1.0687 Z-0.3974
G1 X0.4796 Z-0.3975
G1 Y1.1487 Z-0.4016
G1 X0.4781 Z-0.4017
G1 Y1.0687 Z-0.4059
G1 X0.4796 Z-0.406
G1 Y1.1487 Z-0.4102
G1 X0.4781 Z-0.4103
G1 Y1.0687 Z-0.4145
G1 X0.4796 Z-0.4146
G1 Y1.1487 Z-0.4188
G1 X0.4781
G1 Y1.0687 Z-0.423
G1 X0.4796 Z-0.4231
G1 Y1.1487 Z-0.4273
G1 X0.4781 Z-0.4274
G1 Y1.0687 Z-0.4316
G1 X0.4796 Z-0.4317
G1 Y1.1487 Z-0.4359
G1 X0.4781
G1 Y1.0687 Z-0.4401
G1 X0.4796 Z-0.4402
G1 Y1.1487 Z-0.4444
G1 X0.4781 Z-0.4445
G1 Y1.0687 Z-0.4487
G1 X0.4796 Z-0.4488
G1 Y1.1487 Z-0.453
G1 X0.4781
G1 Y1.0687 Z-0.4572
G1 X0.4796 Z-0.4573
G1 Y1.1487 Z-0.4615
G1 X0.4781 Z-0.4616
G1 Y1.0687 Z-0.4658
G1 X0.4796 Z-0.4659
G1 Y1.1487 Z-0.4701
G1 X0.4781
G1 Y1.0687 Z-0.4743
G1 X0.4796 Z-0.4744
G1 Y1.1487 Z-0.4786
G1 X0.4781 Z-0.4787
G1 Y1.0687 Z-0.4829
G1 X0.4796 Z-0.483
G1 Y1.1487 Z-0.4872
G1 X0.4781 Z-0.4873
G1 Y1.0687 Z-0.4914
G1 X0.4796 Z-0.4915
G1 Y1.1487 Z-0.4957
G1 X0.4781 Z-0.4958
G1 Y1.0687 Z-0.5
G1 F9.0 X0.4796
G1 Y1.1487
G1 X0.4781
G1 Y1.0687
G1 F4.0 Y1.0218
G1 F9.0 X0.5265
G1 Y1.1956
G1 X0.4312
G1 Y1.0218
G1 X0.4781
G1 F4.0 Y0.9749
G1 F9.0 X0.5734
G1 Y1.2425
G1 X0.3844
G1 Y0.9749
G1 X0.4781
G1 F4.0 X0.4796 Y1.1298
G1 F5.0 Y1.1487 Z-0.501
G1 X0.4781 Z-0.5011
G1 Y1.0687 Z-0.5053
G1 X0.4796
G1 Y1.1487 Z-0.5095
G1 X0.4781 Z-0.5096
G1 Y1.0687 Z-0.5138
G1 X0.4796 Z-0.5139
G1 Y1.1487 Z-0.5181
G1 X0.4781 Z-0.5182
G1 Y1.0687 Z-0.5224
G1 X0.4796 Z-0.5225
G1 Y1.1487 Z-0.5266
G1 X0.4781 Z-0.5267
G1 Y1.0687 Z-0.5309
G1 X0.4796 Z-0.531
G1 Y1.1487 Z-0.5352
G1 X0.4781 Z-0.5353
G1 Y1.0687 Z-0.5395
G1 X0.4796 Z-0.5396
G1 Y1.1487 Z-0.5438
G1 X0.4781
G1 Y1.0687 Z-0.548
G1 X0.4796 Z-0.5481
G1 Y1.1487 Z-0.5523
G1 X0.4781 Z-0.5524
G1 Y1.0687 Z-0.5566
G1 X0.4796 Z-0.5567
G1 Y1.1487 Z-0.5609
G1 X0.4781
G1 Y1.0687 Z-0.5651
G1 X0.4796 Z-0.5652
G1 Y1.1487 Z-0.5694
G1 X0.4781 Z-0.5695
G1 Y1.0687 Z-0.5737
G1 X0.4796 Z-0.5738
G1 Y1.1487 Z-0.578
G1 X0.4781
G1 Y1.0687 Z-0.5822
G1 X0.4796 Z-0.5823
G1 Y1.1487 Z-0.5865
G1 X0.4781 Z-0.5866
G1 Y1.0687 Z-0.5908
G1 X0.4796 Z-0.5909
G1 Y1.1487 Z-0.5951
G1 X0.4781
G1 Y1.0687 Z-0.5993
G1 X0.4796 Z-0.5994
G1 Y1.1487 Z-0.6036
G1 X0.4781 Z-0.6037
G1 Y1.0687 Z-0.6079
G1 X0.4796 Z-0.608
G1 Y1.1487 Z-0.6122
G1 X0.4781 Z-0.6123
G1 Y1.0687 Z-0.6164
G1 X0.4796 Z-0.6165
G1 Y1.1487 Z-0.6207
G1 X0.4781 Z-0.6208
G1 Y1.0687 Z-0.625
G1 F9.0 X0.4796
G1 Y1.1487
G1 X0.4781
G1 Y1.0687
G1 F4.0 Y1.0218
G1 F9.0 X0.5265
G1 Y1.1956
G1 X0.4312
G1 Y1.0218
G1 X0.4781
G1 F4.0 Y0.9749
G1 F9.0 X0.5734
G1 Y1.2425
G1 X0.3844
G1 Y0.9749
G1 X0.4781
G1 F4.0 X0.4796 Y1.1298
G1 F5.0 Y1.1487 Z-0.626
G1 X0.4781 Z-0.6261
G1 Y1.0687 Z-0.6303
G1 X0.4796
G1 Y1.1487 Z-0.6345
G1 X0.4781 Z-0.6346
G1 Y1.0687 Z-0.6388
G1 X0.4796 Z-0.6389
G1 Y1.1487 Z-0.6431
G1 X0.4781 Z-0.6432
G1 Y1.0687 Z-0.6474
G1 X0.4796 Z-0.6475
G1 Y1.1487 Z-0.6516
G1 X0.4781 Z-0.6517
G1 Y1.0687 Z-0.6559
G1 X0.4796 Z-0.656
G1 Y1.1487 Z-0.6602
G1 X0.4781 Z-0.6603
G1 Y1.0687 Z-0.6645
G1 X0.4796 Z-0.6646
G1 Y1.1487 Z-0.6688
G1 X0.4781
G1 Y1.0687 Z-0.673
G1 X0.4796 Z-0.6731
G1 Y1.1487 Z-0.6773
G1 X0.4781 Z-0.6774
G1 Y1.0687 Z-0.6816
G1 X0.4796 Z-0.6817
G1 Y1.1487 Z-0.6859
G1 X0.4781
G1 Y1.0687 Z-0.6901
G1 X0.4796 Z-0.6902
G1 Y1.1487 Z-0.6944
G1 X0.4781 Z-0.6945
G1 Y1.0687 Z-0.6987
G1 X0.4796 Z-0.6988
G1 Y1.1487 Z-0.703
G1 X0.4781
G1 Y1.0687 Z-0.7072
G1 X0.4796 Z-0.7073
G1 Y1.1487 Z-0.7115
G1 X0.4781 Z-0.7116
G1 Y1.0687 Z-0.7158
G1 X0.4796 Z-0.7159
G1 Y1.1487 Z-0.7201
G1 X0.4781
G1 Y1.0687 Z-0.7243
G1 X0.4796 Z-0.7244
G1 Y1.1487 Z-0.7286
G1 X0.4781 Z-0.7287
G1 Y1.0687 Z-0.7329
G1 X0.4796 Z-0.733
G1 Y1.1487 Z-0.7372
G1 X0.4781 Z-0.7373
G1 Y1.0687 Z-0.7414
G1 X0.4796 Z-0.7415
G1 Y1.1487 Z-0.7457
G1 X0.4781 Z-0.7458
G1 Y1.0687 Z-0.75
G1 F9.0 X0.4796
G1 Y1.1487
G1 X0.4781
G1 Y1.0687
G1 F4.0 Y1.0218
G1 F9.0 X0.5265
G1 Y1.1956
G1 X0.4312
G1 Y1.0218
G1 X0.4781
G1 F4.0 Y0.9749
G1 F9.0 X0.5734
G1 Y1.2425
G1 X0.3844
G1 Y0.9749
G1 X0.4781
G1 F4.0 X0.4796 Y1.1475
G1 F5.0 Y1.1487 Z-0.7501
G1 X0.4781
G1 Y1.0687 Z-0.7543
G1 X0.4796 Z-0.7544
G1 Y1.1487 Z-0.7586
G1 X0.4781 Z-0.7587
G1 Y1.0687 Z-0.7629
G1 X0.4796 Z-0.763
G1 Y1.1487 Z-0.7672
G1 X0.4781 Z-0.7673
G1 Y1.0687 Z-0.7714
G1 X0.4796 Z-0.7715
G1 Y1.1487 Z-0.7757
G1 X0.4781 Z-0.7758
G1 Y1.0687 Z-0.78
G1 F9.0 X0.4796
G1 Y1.1487
G1 X0.4781
G1 Y1.0687
G1 F4.0 Y1.0218
G1 F9.0 X0.5265
G1 Y1.1956
G1 X0.4312
G1 Y1.0218
G1 X0.4781
G1 F4.0 Y0.9749
G1 F9.0 X0.5734
G1 Y1.2425
G1 X0.3844
G1 Y0.9749
G1 X0.4781
G1 F4.0 Y1.0963
G1 F5.0 Y1.0687 Z-0.7814
G1 X0.4796 Z-0.7815
G1 Y1.1487 Z-0.7857
G1 X0.4781 Z-0.7858
G1 Y1.0687 Z-0.79
G1 F9.0 X0.4796
G1 Y1.1487
G1 X0.4781
G1 Y1.0687
G1 F4.0 Y1.0218
G1 F9.0 X0.5265
G1 Y1.1956
G1 X0.4312
G1 Y1.0218
G1 X0.4781
G1 F4.0 Y0.9749
G1 F9.0 X0.5734
G1 Y1.2425
G1 X0.3844
G1 Y0.9749
G1 X0.4781
( Pocket6 )
S4000
G0 Z0.05
G0 X4.2304 Y1.8521
G1 F4.0 Z0.0
G1 F5.0 Y1.8682 Z-0.0008
G1 X4.2297 Z-0.0009
G1 Y1.797 Z-0.0046
G1 X4.2304
G1 Y1.8682 Z-0.0084
G1 X4.2297
G1 Y1.797 Z-0.0121
G1 X4.2304 Z-0.0122
G1 Y1.8682 Z-0.0159
G1 X4.2297
G1 Y1.797 Z-0.0197
G1 X4.2304
G1 Y1.8682 Z-0.0234
G1 X4.2297 Z-0.0235
G1 Y1.797 Z-0.0272
G1 X4.2304
G1 Y1.8682 Z-0.0309
G1 X4.2297 Z-0.031
G1 Y1.797 Z-0.0347
G1 X4.2304
G1 Y1.8682 Z-0.0385
G1 X4.2297
G1 Y1.797 Z-0.0422
G1 X4.2304 Z-0.0423
G1 Y1.8682 Z-0.046
G1 X4.2297
G1 Y1.797 Z-0.0498
G1 X4.2304
G1 Y1.8682 Z-0.0535
G1 X4.2297 Z-0.0536
G1 Y1.797 Z-0.0573
G1 X4.2304
G1 Y1.8682 Z-0.061
G1 X4.2297 Z-0.0611
G1 Y1.797 Z-0.0648
G1 X4.2304
G1 Y1.8682 Z-0.0686
G1 X4.2297
G1 Y1.797 Z-0.0723
G1 X4.2304 Z-0.0724
G1 Y1.8682 Z-0.0761
G1 X4.2297
G1 Y1.797 Z-0.0799
G1 X4.2304
G1 Y1.8682 Z-0.0836
G1 X4.2297
G1 Y1.797 Z-0.0874
G1 X4.2304
G1 Y1.8682 Z-0.0911
G1 X4.2297 Z-0.0912
G1 Y1.797 Z-0.0949
G1 X4.2304
G1 Y1.8682 Z-0.0987
G1 X4.2297
G1 Y1.797 Z-0.1024
G1 X4.2304 Z-0.1025
G1 Y1.8682 Z-0.1062
G1 X4.2297
G1 Y1.797 Z-0.11
G1 X4.2304
G1 Y1.8682 Z-0.1137
G1 X4.2297
G1 Y1.797 Z-0.1175
G1 X4.2304
G1 Y1.8682 Z-0.1212
G1 X4.2297 Z-0.1213
G1 Y1.797 Z-0.125
G1 F9.0 X4.2304
G1 Y1.8682
G1 X4.2297
G1 Y1.797
G1 F4.0 Y1.7736
G1 F9.0 X4.2538
G1 Y1.8916
G1 X4.2063
G1 Y1.7736
G1 X4.2297
G1 F4.0 Y1.7267
G1 F9.0 X4.3007
G1 Y1.9385
G1 X4.1594
G1 Y1.7267
G1 X4.2297
G1 F4.0 X4.2304 Y1.8521
G1 F5.0 Y1.8682 Z-0.1258
G1 X4.2297 Z-0.1259
G1 Y1.797 Z-0.1296
G1 X4.2304
G1 Y1.8682 Z-0.1334
G1 X4.2297
G1 Y1.797 Z-0.1371
G1 X4.2304 Z-0.1372
G1 Y1.8682 Z-0.1409
G1 X4.2297
G1 Y1.797 Z-0.1447
G1 X4.2304
G1 Y1.8682 Z-0.1484
G1 X4.2297 Z-0.1485
G1 Y1.797 Z-0.1522
G1 X4.2304
G1 Y1.8682 Z-0.1559
G1 X4.2297 Z-0.156
G1 Y1.797 Z-0.1597
G1 X4.2304
G1 Y1.8682 Z-0.1635
G1 X4.2297
G1 Y1.797 Z-0.1672
G1 X4.2304 Z-0.1673
G1 Y1.8682 Z-0.171
G1 X4.2297
G1 Y1.797 Z-0.1748
G1 X4.2304
G1 Y1.8682 Z-0.1785
G1 X4.2297 Z-0.1786
G1 Y1.797 Z-0.1823
G1 X4.2304
G1 Y1.8682 Z-0.186
G1 X4.2297 Z-0.1861
G1 Y1.797 Z-0.1898
G1 X4.2304
G1 Y1.8682 Z-0.1936
G1 X4.2297
G1 Y1.797 Z-0.1973
G1 X4.2304 Z-0.1974
G1 Y1.8682 Z-0.2011
G1 X4.2297
G1 Y1.797 Z-0.2049
G1 X4.2304
G1 Y1.8682 Z-0.2086
G1 X4.2297
G1 Y1.797 Z-0.2124
G1 X4.2304
G1 Y1.8682 Z-0.2161
G1 X4.2297 Z-0.2162
G1 Y1.797 Z-0.2199
G1 X4.2304
G1 Y1.8682 Z-0.2237
G1 X4.2297
G1 Y1.797 Z-0.2274
G1 X4.2304 Z-0.2275
G1 Y1.8682 Z-0.2312
G1 X4.2297
G1 Y1.797 Z-0.235
G1 X4.2304
G1 Y1.8682 Z-0.2387
G1 X4.2297
G1 Y1.797 Z-0.2425
G1 X4.2304
G1 Y1.8682 Z-0.2462
G1 X4.2297 Z-0.2463
G1 Y1.797 Z-0.25
G1 F9.0 X4.2304
G1 Y1.8682
G1 X4.2297
G1 Y1.797
G1 F4.0 Y1.7736
G1 F9.0 X4.2538
G1 Y1.8916
G1 X4.2063
G1 Y1.7736
G1 X4.2297
G1 F4.0 Y1.7267
G1 F9.0 X4.3007
G1 Y1.9385
G1 X4.1594
G1 Y1.7267
G1 X4.2297
G1 F4.0 X4.2304 Y1.8521
G1 F5.0 Y1.8682 Z-0.2508
G1 X4.2297 Z-0.2509
G1 Y1.797 Z-0.2546
G1 X4.2304
G1 Y1.8682 Z-0.2584
G1 X4.2297
G1 Y1.797 Z-0.2621
G1 X4.2304 Z-0.2622
G1 Y1.8682 Z-0.2659
G1 X4.2297
G1 Y1.797 Z-0.2697
G1 X4.2304
G1 Y1.8682 Z-0.2734
G1 X4.2297 Z-0.2735
G1 Y1.797 Z-0.2772
G1 X4.2304
G1 Y1.8682 Z-0.2809
G1 X4.2297 Z-0.281
G1 Y1.797 Z-0.2847
G1 X4.2304
G1 Y1.8682 Z-0.2885
G1 X4.2297
G1 Y1.797 Z-0.2922
G1 X4.2304 Z-0.2923
G1 Y1.8682 Z-0.296
G1 X4.2297
G1 Y1.797 Z-0.2998
G1 X4.2304
G1 Y1.8682 Z-0.3035
G1 X4.2297 Z-0.3036
G1 Y1.797 Z-0.3073
G1 X4.2304
G1 Y1.8682 Z-0.311
G1 X4.2297 Z-0.3111
G1 Y1.797 Z-0.3148
G1 X4.2304
G1 Y1.8682 Z-0.3186
G1 X4.2297
G1 Y1.797 Z-0.3223
G1 X4.2304 Z-0.3224
G1 Y1.8682 Z-0.3261
G1 X4.2297
G1 Y1.797 Z-0.3299
G1 X4.2304
G1 Y1.8682 Z-0.3336
G1 X4.2297
G1 Y1.797 Z-0.3374
G1 X4.2304
G1 Y1.8682 Z-0.3411
G1 X4.2297 Z-0.3412
G1 Y1.797 Z-0.3449
G1 X4.2304
G1 Y1.8682 Z-0.3487
G1 X4.2297
G1 Y1.797 Z-0.3524
G1 X4.2304 Z-0.3525
G1 Y1.8682 Z-0.3562
G1 X4.2297
G1 Y1.797 Z-0.36
G1 X4.2304
G1 Y1.8682 Z-0.3637
G1 X4.2297
G1 Y1.797 Z-0.3675
G1 X4.2304
G1 Y1.8682 Z-0.3712
G1 X4.2297 Z-0.3713
G1 Y1.797 Z-0.375
G1 F9.0 X4.2304
G1 Y1.8682
G1 X4.2297
G1 Y1.797
G1 F4.0 Y1.7736
G1 F9.0 X4.2538
G1 Y1.8916
G1 X4.2063
G1 Y1.7736
G1 X4.2297
G1 F4.0 Y1.7267
G1 F9.0 X4.3007
G1 Y1.9385
G1 X4.1594
G1 Y1.7267
G1 X4.2297
G1 F4.0 X4.2304 Y1.8521
G1 F5.0 Y1.8682 Z-0.3758
G1 X4.2297 Z-0.3759
G1 Y1.797 Z-0.3796
G1 X4.2304
G1 Y1.8682 Z-0.3834
G1 X4.2297
G1 Y1.797 Z-0.3871
G1 X4.2304 Z-0.3872
G1 Y1.8682 Z-0.3909
G1 X4.2297
G1 Y1.797 Z-0.3947
G1 X4.2304
G1 Y1.8682 Z-0.3984
G1 X4.2297 Z-0.3985
G1 Y1.797 Z-0.4022
G1 X4.2304
G1 Y1.8682 Z-0.4059
G1 X4.2297 Z-0.406
G1 Y1.797 Z-0.4097
G1 X4.2304
G1 Y1.8682 Z-0.4135
G1 X4.2297
G1 Y1.797 Z-0.4172
G1 X4.2304 Z-0.4173
G1 Y1.8682 Z-0.421
G1 X4.2297
G1 Y1.797 Z-0.4248
G1 X4.2304
G1 Y1.8682 Z-0.4285
G1 X4.2297 Z-0.4286
G1 Y1.797 Z-0.4323
G1 X4.2304
G1 Y1.8682 Z-0.436
G1 X4.2297 Z-0.4361
G1 Y1.797 Z-0.4398
G1 X4.2304
G1 Y1.8682 Z-0.4436
G1 X4.2297
G1 Y1.797 Z-0.4473
G1 X4.2304 Z-0.4474
G1 Y1.8682 Z-0.4511
G1 X4.2297
G1 Y1.797 Z-0.4549
G1 X4.2304
G1 Y1.8682 Z-0.4586
G1 X4.2297
G1 Y1.797 Z-0.4624
G1 X4.2304
G1 Y1.8682 Z-0.4661
G1 X4.2297 Z-0.4662
G1 Y1.797 Z-0.4699
G1 X4.2304
G1 Y1.8682 Z-0.4737
G1 X4.2297
G1 Y1.797 Z-0.4774
G1 X4.2304 Z-0.4775
G1 Y1.8682 Z-0.4812
G1 X4.2297
G1 Y1.797 Z-0.485
G1 X4.2304
G1 Y1.8682 Z-0.4887
G1 X4.2297
G1 Y1.797 Z-0.4925
G1 X4.2304
G1 Y1.8682 Z-0.4962
G1 X4.2297 Z-0.4963
G1 Y1.797 Z-0.5
G1 F9.0 X4.2304
G1 Y1.8682
G1 X4.2297
G1 Y1.797
G1 F4.0 Y1.7736
G1 F9.0 X4.2538
G1 Y1.8916
G1 X4.2063
G1 Y1.7736
G1 X4.2297
G1 F4.0 Y1.7267
G1 F9.0 X4.3007
G1 Y1.9385
G1 X4.1594
G1 Y1.7267
G1 X4.2297
G1 F4.0 X4.2304 Y1.8521
G1 F5.0 Y1.8682 Z-0.5008
G1 X4.2297 Z-0.5009
G1 Y1.797 Z-0.5046
G1 X4.2304
G1 Y1.8682 Z-0.5084
G1 X4.2297
G1 Y1.797 Z-0.5121
G1 X4.2304 Z-0.5122
G1 Y1.8682 Z-0.5159
G1 X4.2297
G1 Y1.797 Z-0.5197
G1 X4.2304
G1 Y1.8682 Z-0.5234
G1 X4.2297 Z-0.5235
G1 Y1.797 Z-0.5272
G1 X4.2304
G1 Y1.8682 Z-0.5309
G1 X4.2297 Z-0.531
G1 Y1.797 Z-0.5347
G1 X4.2304
G1 Y1.8682 Z-0.5385
G1 X4.2297
G1 Y1.797 Z-0.5422
G1 X4.2304 Z-0.5423
G1 Y1.8682 Z-0.546
G1 X4.2297
G1 Y1.797 Z-0.5498
G1 X4.2304
G1 Y1.8682 Z-0.5535
G1 X4.2297 Z-0.5536
G1 Y1.797 Z-0.5573
G1 X4.2304
G1 Y1.8682 Z-0.561
G1 X4.2297 Z-0.5611
G1 Y1.797 Z-0.5648
G1 X4.2304
G1 Y1.8682 Z-0.5686
G1 X4.2297
G1 Y1.797 Z-0.5723
G1 X4.2304 Z-0.5724
G1 Y1.8682 Z-0.5761
G1 X4.2297
G1 Y1.797 Z-0.5799
G1 X4.2304
G1 Y1.8682 Z-0.5836
G1 X4.2297
G1 Y1.797 Z-0.5874
G1 X4.2304
G1 Y1.8682 Z-0.5911
G1 X4.2297 Z-0.5912
G1 Y1.797 Z-0.5949
G1 X4.2304
G1 Y1.8682 Z-0.5987
G1 X4.2297
G1 Y1.797 Z-0.6024
G1 X4.2304 Z-0.6025
G1 Y1.8682 Z-0.6062
G1 X4.2297
G1 Y1.797 Z-0.61
G1 X4.2304
G1 Y1.8682 Z-0.6137
G1 X4.2297
G1 Y1.797 Z-0.6175
G1 X4.2304
G1 Y1.8682 Z-0.6212
G1 X4.2297 Z-0.6213
G1 Y1.797 Z-0.625
G1 F9.0 X4.2304
G1 Y1.8682
G1 X4.2297
G1 Y1.797
G1 F4.0 Y1.7736
G1 F9.0 X4.2538
G1 Y1.8916
G1 X4.2063
G1 Y1.7736
G1 X4.2297
G1 F4.0 Y1.7267
G1 F9.0 X4.3007
G1 Y1.9385
G1 X4.1594
G1 Y1.7267
G1 X4.2297
G1 F4.0 X4.2304 Y1.8521
G1 F5.0 Y1.8682 Z-0.6258
G1 X4.2297 Z-0.6259
G1 Y1.797 Z-0.6296
G1 X4.2304
G1 Y1.8682 Z-0.6334
G1 X4.2297
G1 Y1.797 Z-0.6371
G1 X4.2304 Z-0.6372
G1 Y1.8682 Z-0.6409
G1 X4.2297
G1 Y1.797 Z-0.6447
G1 X4.2304
G1 Y1.8682 Z-0.6484
G1 X4.2297 Z-0.6485
G1 Y1.797 Z-0.6522
G1 X4.2304
G1 Y1.8682 Z-0.6559
G1 X4.2297 Z-0.656
G1 Y1.797 Z-0.6597
G1 X4.2304
G1 Y1.8682 Z-0.6635
G1 X4.2297
G1 Y1.797 Z-0.6672
G1 X4.2304 Z-0.6673
G1 Y1.8682 Z-0.671
G1 X4.2297
G1 Y1.797 Z-0.6748
G1 X4.2304
G1 Y1.8682 Z-0.6785
G1 X4.2297 Z-0.6786
G1 Y1.797 Z-0.6823
G1 X4.2304
G1 Y1.8682 Z-0.686
G1 X4.2297 Z-0.6861
G1 Y1.797 Z-0.6898
G1 X4.2304
G1 Y1.8682 Z-0.6936
G1 X4.2297
G1 Y1.797 Z-0.6973
G1 X4.2304 Z-0.6974
G1 Y1.8682 Z-0.7011
G1 X4.2297
G1 Y1.797 Z-0.7049
G1 X4.2304
G1 Y1.8682 Z-0.7086
G1 X4.2297
G1 Y1.797 Z-0.7124
G1 X4.2304
G1 Y1.8682 Z-0.7161
G1 X4.2297 Z-0.7162
G1 Y1.797 Z-0.7199
G1 X4.2304
G1 Y1.8682 Z-0.7237
G1 X4.2297
G1 Y1.797 Z-0.7274
G1 X4.2304 Z-0.7275
G1 Y1.8682 Z-0.7312
G1 X4.2297
G1 Y1.797 Z-0.735
G1 X4.2304
G1 Y1.8682 Z-0.7387
G1 X4.2297
G1 Y1.797 Z-0.7425
G1 X4.2304
G1 Y1.8682 Z-0.7462
G1 X4.2297 Z-0.7463
G1 Y1.797 Z-0.75
G1 F9.0 X4.2304
G1 Y1.8682
G1 X4.2297
G1 Y1.797
G1 F4.0 Y1.7736
G1 F9.0 X4.2538
G1 Y1.8916
G1 X4.2063
G1 Y1.7736
G1 X4.2297
G1 F4.0 Y1.7267
G1 F9.0 X4.3007
G1 Y1.9385
G1 X4.1594
G1 Y1.7267
G1 X4.2297
G1 F4.0 X4.2304 Y1.7983
G1 F5.0 Y1.8682 Z-0.7537
G1 X4.2297
G1 Y1.797 Z-0.7574
G1 X4.2304 Z-0.7575
G1 Y1.8682 Z-0.7612
G1 X4.2297
G1 Y1.797 Z-0.765
G1 X4.2304
G1 Y1.8682 Z-0.7687
G1 X4.2297
G1 Y1.797 Z-0.7725
G1 X4.2304
G1 Y1.8682 Z-0.7762
G1 X4.2297 Z-0.7763
G1 Y1.797 Z-0.78
G1 F9.0 X4.2304
G1 Y1.8682
G1 X4.2297
G1 Y1.797
G1 F4.0 Y1.7736
G1 F9.0 X4.2538
G1 Y1.8916
G1 X4.2063
G1 Y1.7736
G1 X4.2297
G1 F4.0 Y1.7267
G1 F9.0 X4.3007
G1 Y1.9385
G1 X4.1594
G1 Y1.7267
G1 X4.2297
G1 F4.0 Y1.8443
G1 F5.0 Y1.797 Z-0.7825
G1 X4.2304
G1 Y1.8682 Z-0.7862
G1 X4.2297 Z-0.7863
G1 Y1.797 Z-0.79
G1 F9.0 X4.2304
G1 Y1.8682
G1 X4.2297
G1 Y1.797
G1 F4.0 Y1.7736
G1 F9.0 X4.2538
G1 Y1.8916
G1 X4.2063
G1 Y1.7736
G1 X4.2297
G1 F4.0 Y1.7267
G1 F9.0 X4.3007
G1 Y1.9385
G1 X4.1594
G1 Y1.7267
G1 X4.2297
( Pocket7 )
S4000
G0 Z0.05
G0 X1.4491 Y2.1963
G1 F4.0 Z0.0
G1 F5.0 Y2.2853 Z-0.0047
G1 X1.4155 Z-0.0064
G1 Y2.1423 Z-0.0139
G1 X1.4491 Z-0.0157
G1 Y2.2853 Z-0.0232
G1 X1.4155 Z-0.0249
G1 Y2.1423 Z-0.0324
G1 X1.4491 Z-0.0342
G1 Y2.2853 Z-0.0417
G1 X1.4155 Z-0.0435
G1 Y2.1423 Z-0.0509
G1 X1.4491 Z-0.0527
G1 Y2.2853 Z-0.0602
G1 X1.4155 Z-0.062
G1 Y2.1423 Z-0.0695
G1 X1.4491 Z-0.0712
G1 Y2.2853 Z-0.0787
G1 X1.4155 Z-0.0805
G1 Y2.1423 Z-0.088
G1 X1.4491 Z-0.0897
G1 Y2.2853 Z-0.0972
G1 X1.4155 Z-0.099
G1 Y2.1423 Z-0.1065
G1 X1.4491 Z-0.1083
G1 Y2.2853 Z-0.1157
G1 X1.4155 Z-0.1175
G1 Y2.1423 Z-0.125
G1 F9.0 X1.4491
G1 Y2.2853
G1 X1.4155
G1 Y2.1423
G1 F4.0 X1.3686
G1 F9.0 Y2.0955
G1 X1.496
G1 Y2.3322
G1 X1.3686
G1 Y2.1423
G1 F4.0 X1.4491 Y2.2814
G1 F5.0 Y2.2853 Z-0.1252
G1 X1.4155 Z-0.127
G1 Y2.1423 Z-0.1345
G1 X1.4491 Z-0.1362
G1 Y2.2853 Z-0.1437
G1 X1.4155 Z-0.1455
G1 Y2.1423 Z-0.153
G1 X1.4491 Z-0.1547
G1 Y2.2853 Z-0.1622
G1 X1.4155 Z-0.164
G1 Y2.1423 Z-0.1715
G1 X1.4491 Z-0.1733
G1 Y2.2853 Z-0.1807
G1 X1.4155 Z-0.1825
G1 Y2.1423 Z-0.19
G1 F9.0 X1.4491
G1 Y2.2853
G1 X1.4155
G1 Y2.1423
G1 F4.0 X1.3686
G1 F9.0 Y2.0955
G1 X1.496
G1 Y2.3322
G1 X1.3686
G1 Y2.1423
G1 F4.0 X1.4491 Y2.2711
G1 F5.0 Y2.2853 Z-0.1907
G1 X1.4155 Z-0.1925
G1 Y2.1423 Z-0.2
G1 F9.0 X1.4491
G1 Y2.2853
G1 X1.4155
G1 Y2.1423
G1 F4.0 X1.3686
G1 F9.0 Y2.0955
G1 X1.496
G1 Y2.3322
G1 X1.3686
G1 Y2.1423
( Pocket8 )
S4000
G0 Z0.05
G0 X3.2128 Y2.2142
G1 F4.0 Z0.0
G1 F5.0 Y2.2009 Z-0.0007
G1 X3.2227 Z-0.0012
G1 Y2.2384 Z-0.0032
G1 X3.2128 Z-0.0037
G1 Y2.2009 Z-0.0057
G1 X3.2227 Z-0.0062
G1 Y2.2384 Z-0.0082
G1 X3.2128 Z-0.0087
G1 Y2.2009 Z-0.0106
G1 X3.2227 Z-0.0112
G1 Y2.2384 Z-0.0131
G1 X3.2128 Z-0.0136
G1 Y2.2009 Z-0.0156
G1 X3.2227 Z-0.0161
G1 Y2.2384 Z-0.0181
G1 X3.2128 Z-0.0186
G1 Y2.2009 Z-0.0206
G1 X3.2227 Z-0.0211
G1 Y2.2384 Z-0.0231
G1 X3.2128 Z-0.0236
G1 Y2.2009 Z-0.0256
G1 X3.2227 Z-0.0261
G1 Y2.2384 Z-0.028
G1 X3.2128 Z-0.0286
G1 Y2.2009 Z-0.0305
G1 X3.2227 Z-0.031
G1 Y2.2384 Z-0.033
G1 X3.2128 Z-0.0335
G1 Y2.2009 Z-0.0355
G1 X3.2227 Z-0.036
G1 Y2.2384 Z-0.038
G1 X3.2128 Z-0.0385
G1 Y2.2009 Z-0.0405
G1 X3.2227 Z-0.041
G1 Y2.2384 Z-0.043
G1 X3.2128 Z-0.0435
G1 Y2.2009 Z-0.0454
G1 X3.2227 Z-0.046
G1 Y2.2384 Z-0.0479
G1 X3.2128 Z-0.0484
G1 Y2.2009 Z-0.0504
G1 X3.2227 Z-0.0509
G1 Y2.2384 Z-0.0529
G1 X3.2128 Z-0.0534
G1 Y2.2009 Z-0.0554
G1 X3.2227 Z-0.0559
G1 Y2.2384 Z-0.0579
G1 X3.2128 Z-0.0584
G1 Y2.2009 Z-0.0604
G1 X3.2227 Z-0.0609
G1 Y2.2384 Z-0.0628
G1 X3.2128 Z-0.0634
G1 Y2.2009 Z-0.0653
G1 X3.2227 Z-0.0659
G1 Y2.2384 Z-0.0678
G1 X3.2128 Z-0.0683
G1 Y2.2009 Z-0.0703
G1 X3.2227 Z-0.0708
G1 Y2.2384 Z-0.0728
G1 X3.2128 Z-0.0733
G1 Y2.2009 Z-0.0753
G1 X3.2227 Z-0.0758
G1 Y2.2384 Z-0.0778
G1 X3.2128 Z-0.0783
G1 Y2.2009 Z-0.0803
G1 X3.2227 Z-0.0808
G1 Y2.2384 Z-0.0827
G1 X3.2128 Z-0.0833
G1 Y2.2009 Z-0.0852
G1 X3.2227 Z-0.0857
G1 Y2.2384 Z-0.0877
G1 X3.2128 Z-0.0882
G1 Y2.2009 Z-0.0902
G1 X3.2227 Z-0.0907
G1 Y2.2384 Z-0.0927
G1 X3.2128 Z-0.0932
G1 Y2.2009 Z-0.0952
G1 X3.2227 Z-0.0957
G1 Y2.2384 Z-0.0977
G1 X3.2128 Z-0.0982
G1 Y2.2009 Z-0.1001
G1 X3.2227 Z-0.1007
G1 Y2.2384 Z-0.1026
G1 X3.2128 Z-0.1031
G1 Y2.2009 Z-0.1051
G1 X3.2227 Z-0.1056
G1 Y2.2384 Z-0.1076
G1 X3.2128 Z-0.1081
G1 Y2.2009 Z-0.1101
G1 X3.2227 Z-0.1106
G1 Y2.2384 Z-0.1126
G1 X3.2128 Z-0.1131
G1 Y2.2009 Z-0.1151
G1 X3.2227 Z-0.1156
G1 Y2.2384 Z-0.1175
G1 X3.2128 Z-0.1181
G1 Y2.2009 Z-0.12
G1 X3.2227 Z-0.1205
G1 Y2.2384 Z-0.1225
G1 X3.2128 Z-0.123
G1 Y2.2009 Z-0.125
G1 F9.0 X3.2227
G1 Y2.2384
G1 X3.2128
G1 Y2.2009
G1 F4.0 Y2.154
G1 F9.0 X3.2696
G1 Y2.2853
G1 X3.1659
G1 Y2.154
G1 X3.2128
G1 F4.0 Y2.1071
G1 F9.0 X3.3164
G1 Y2.3322
G1 X3.1191
G1 Y2.1071
G1 X3.2128
G1 F4.0 Y2.2078
G1 F5.0 Y2.2009 Z-0.1254
G1 X3.2227 Z-0.1259
G1 Y2.2384 Z-0.1278
G1 X3.2128 Z-0.1284
G1 Y2.2009 Z-0.1303
G1 X3.2227 Z-0.1309
G1 Y2.2384 Z-0.1328
G1 X3.2128 Z-0.1333
G1 Y2.2009 Z-0.1353
G1 X3.2227 Z-0.1358
G1 Y2.2384 Z-0.1378
G1 X3.2128 Z-0.1383
G1 Y2.2009 Z-0.1403
G1 X3.2227 Z-0.1408
G1 Y2.2384 Z-0.1428
G1 X3.2128 Z-0.1433
G1 Y2.2009 Z-0.1453
G1 X3.2227 Z-0.1458
G1 Y2.2384 Z-0.1477
G1 X3.2128 Z-0.1483
G1 Y2.2009 Z-0.1502
G1 X3.2227 Z-0.1507
G1 Y2.2384 Z-0.1527
G1 X3.2128 Z-0.1532
G1 Y2.2009 Z-0.1552
G1 X3.2227 Z-0.1557
G1 Y2.2384 Z-0.1577
G1 X3.2128 Z-0.1582
G1 Y2.2009 Z-0.1602
G1 X3.2227 Z-0.1607
G1 Y2.2384 Z-0.1627
G1 X3.2128 Z-0.1632
G1 Y2.2009 Z-0.1651
G1 X3.2227 Z-0.1657
G1 Y2.2384 Z-0.1676
G1 X3.2128 Z-0.1681
G1 Y2.2009 Z-0.1701
G1 X3.2227 Z-0.1706
G1 Y2.2384 Z-0.1726
G1 X3.2128 Z-0.1731
G1 Y2.2009 Z-0.1751
G1 X3.2227 Z-0.1756
G1 Y2.2384 Z-0.1776
G1 X3.2128 Z-0.1781
G1 Y2.2009 Z-0.1801
G1 X3.2227 Z-0.1806
G1 Y2.2384 Z-0.1825
G1 X3.2128 Z-0.1831
G1 Y2.2009 Z-0.185
G1 X3.2227 Z-0.1855
G1 Y2.2384 Z-0.1875
G1 X3.2128 Z-0.188
G1 Y2.2009 Z-0.19
G1 F9.0 X3.2227
G1 Y2.2384
G1 X3.2128
G1 Y2.2009
G1 F4.0 Y2.154
G1 F9.0 X3.2696
G1 Y2.2853
G1 X3.1659
G1 Y2.154
G1 X3.2128
G1 F4.0 Y2.1071
G1 F9.0 X3.3164
G1 Y2.3322
G1 X3.1191
G1 Y2.1071
G1 X3.2128
G1 F4.0 Y2.2019
G1 F5.0 Y2.2009 Z-0.1901
G1 X3.2227 Z-0.1906
G1 Y2.2384 Z-0.1925
G1 X3.2128 Z-0.1931
G1 Y2.2009 Z-0.195
G1 X3.2227 Z-0.1955
G1 Y2.2384 Z-0.1975
G1 X3.2128 Z-0.198
G1 Y2.2009 Z-0.2
G1 F9.0 X3.2227
G1 Y2.2384
G1 X3.2128
G1 Y2.2009
G1 F4.0 Y2.154
G1 F9.0 X3.2696
G1 Y2.2853
G1 X3.1659
G1 Y2.154
G1 X3.2128
G1 F4.0 Y2.1071
G1 F9.0 X3.3164
G1 Y2.3322
G1 X3.1191
G1 Y2.1071
G1 X3.2128
( Drill1 )
G0 Z0.1
( T12 : 0.219 )
T12 M6
M3 S4000
G0 X0.4 Y2.5
G98
G83 X0.4 Y2.5 Z-0.1 Q0.25 R0.05 F10.0
G80
( Drill2 )
G0 Z0.1
( T13 : 0.219 )
T13 M6
M3 S4000
G98
G83 X0.4 Y2.5 Z-1.1 Q0.25 R0.05 F10.0
G80
( Drill3 )
G0 Z0.1
( T12 : 0.219 )
T12 M6
M3 S4000
G0 Y0.4
G98
G83 X0.4 Y0.4 Z-0.1 Q0.25 R0.05 F10.0
G80
( Drill4 )
G0 Z0.1
( T13 : 0.219 )
T13 M6
M3 S4000
G98
G83 X0.4 Y0.4 Z-1.1 Q0.25 R0.05 F10.0
G80
( Drill5 )
G0 Z0.1
( T12 : 0.219 )
T12 M6
M3 S4000
G0 X4.25
G98
G83 X4.25 Y0.4 Z-0.1 Q0.25 R0.05 F10.0
G80
( Drill6 )
G0 Z0.1
( T13 : 0.219 )
T13 M6
M3 S4000
G98
G83 X4.25 Y0.4 Z-1.1 Q0.25 R0.05 F10.0
G80
( Drill7 )
G0 Z0.1
( T12 : 0.219 )
T12 M6
M3 S4000
G0 Y2.5
G98
G83 X4.25 Y2.5 Z-0.1 Q0.25 R0.05 F10.0
G80
( Drill8 )
G0 Z0.1
( T13 : 0.219 )
T13 M6
M3 S4000
G98
G83 X4.25 Y2.5 Z-1.1 Q0.25 R0.05 F10.0
G80
G0 Z0.1
M5
M30
