( Made using CamBam - http://www.cambam.co.uk )
( TrackV2.Master.Mold.top 4/18/2014 7:26:17 PM )
( T12 : 0.219 )
( T13 : 0.219 )
G20 G90 G64 G40
G0 Z0.1
( T12 : 0.219 )
T12 M6
( Drill3 )
G17
M3 S4000
G0 X0.4 Y0.4
G98
G83 X0.4 Y0.4 Z-0.1 Q0.25 R0.05 F10.0
G80
( Drill5 )
S4000
G0 Z0.1
G0 X4.25
G98
G83 X4.25 Y0.4 Z-0.1 Q0.25 R0.05 F10.0
G80
( Drill7 )
S4000
G0 Z0.1
G0 Y2.5
G98
G83 X4.25 Y2.5 Z-0.1 Q0.25 R0.05 F10.0
G80
( Drill4 )
G0 Z0.1
( T13 : 0.219 )
T13 M6
M3 S4000
G0 X0.4 Y0.4
G98
G83 X0.4 Y0.4 Z-1.2 Q0.18 R0.1 F8.0
G80
( Drill6 )
S4000
G0 Z0.1
G0 X4.25
G98
G83 X4.25 Y0.4 Z-1.2 Q0.18 R0.1 F8.0
G80
( Drill8 )
S4000
G0 Z0.1
G0 Y2.5
G98
G83 X4.25 Y2.5 Z-1.2 Q0.18 R0.1 F8.0
G80
G0 Z0.1
M5
M30
