( Made using CamBam - http://www.cambam.co.uk )
( TrackV2.Master.Mold.right 4/18/2014 11:01:15 PM )
( T10 : 0.75 )
( T11 : 0.375 )
( T12 : 0.219 )
( T13 : 0.219 )
G20 G90 G61 G40
G0 Z0.05
( T10 : 0.75 )
T10 M6
( Pocket1 )
G17
M3 S4000
G0 X2.2412 Y1.9676
G1 F4.0 Z0.0
G1 F5.0 X2.2001 Z-0.0072
G2 X2.1659 Y1.8201 Z-0.034 I-1.019 J0.1583
G1 X2.5192 Y1.8198 Z-0.0963
G2 X2.4849 Y1.9677 Z-0.123 I0.9848 J0.3061
G1 X2.2001 Y1.9676 Z-0.1733
G2 X2.1659 Y1.8201 Z-0.2 I-1.019 J0.1583
G1 F9.0 X2.5192 Y1.8198
G2 X2.4849 Y1.9677 I0.9848 J0.3061
G1 X2.2001 Y1.9676
G2 X2.1659 Y1.8201 I-1.019 J0.1583
G1 F4.0 Y1.7263
G1 F9.0 X2.656 Y1.726
G2 X2.5687 Y2.0614 I0.8479 J0.4
G1 X2.1164
G2 X2.0292 Y1.7264 I-0.9353 J0.0646
G1 X2.1659 Y1.7263
G1 F4.0 X2.1658 Y1.5388
G1 F9.0 X3.038 Y1.5383
G2 X2.7539 Y2.126 I0.4659 J0.5877
G1 Y2.2489
G1 X1.9311
G1 Y2.126
G2 X1.6481 Y1.5391 I-0.75 J0.0
G1 X2.1658 Y1.5388
G1 F4.0 X2.1656 Y1.3513
G1 F9.0 X3.9257 Y1.3502
G1 Y1.5624
G1 X3.5025 Y1.5635
G2 X2.9414 Y2.126 I0.0015 J0.5625
G1 Y2.4364
G1 X1.7436
G1 Y2.126
G2 X1.1813 Y1.5635 I-0.5625 J0.0
G1 X0.7594 Y1.5634
G1 Y1.3521
G1 X2.1656 Y1.3513
G1 F4.0 X2.1655 Y1.1638
G1 F9.0 X4.1132 Y1.1626
G1 Y1.7494
G1 X3.503 Y1.751
G2 X3.1289 Y2.126 I0.001 J0.375
G1 Y2.6239
G1 X1.5561
G1 Y2.126
G2 X1.1812 Y1.751 I-0.375 J0.0
G1 X0.5719 Y1.7508
G1 Y1.1648
G1 X2.1655 Y1.1638
G0 Z0.05
G0 X2.2412 Y1.9676
G0 Z-0.1375
G1 F4.0 Z-0.2
G1 F5.0 X2.2001 Z-0.2072
G2 X2.1659 Y1.8201 Z-0.234 I-1.019 J0.1583
G1 X2.5192 Y1.8198 Z-0.2963
G2 X2.4849 Y1.9677 Z-0.323 I0.9848 J0.3061
G1 X2.2001 Y1.9676 Z-0.3733
G2 X2.1659 Y1.8201 Z-0.4 I-1.019 J0.1583
G1 F9.0 X2.5192 Y1.8198
G2 X2.4849 Y1.9677 I0.9848 J0.3061
G1 X2.2001 Y1.9676
G2 X2.1659 Y1.8201 I-1.019 J0.1583
G1 F4.0 Y1.7263
G1 F9.0 X2.656 Y1.726
G2 X2.5687 Y2.0614 I0.8479 J0.4
G1 X2.1164
G2 X2.0292 Y1.7264 I-0.9353 J0.0646
G1 X2.1659 Y1.7263
G1 F4.0 X2.1658 Y1.5388
G1 F9.0 X3.038 Y1.5383
G2 X2.7539 Y2.126 I0.4659 J0.5877
G1 Y2.2489
G1 X1.9311
G1 Y2.126
G2 X1.6481 Y1.5391 I-0.75 J0.0
G1 X2.1658 Y1.5388
G1 F4.0 X2.1656 Y1.3513
G1 F9.0 X3.9257 Y1.3502
G1 Y1.5624
G1 X3.5025 Y1.5635
G2 X2.9414 Y2.126 I0.0015 J0.5625
G1 Y2.4364
G1 X1.7436
G1 Y2.126
G2 X1.1813 Y1.5635 I-0.5625 J0.0
G1 X0.7594 Y1.5634
G1 Y1.3521
G1 X2.1656 Y1.3513
G1 F4.0 X2.1655 Y1.1638
G1 F9.0 X4.1132 Y1.1626
G1 Y1.7494
G1 X3.503 Y1.751
G2 X3.1289 Y2.126 I0.001 J0.375
G1 Y2.6239
G1 X1.5561
G1 Y2.126
G2 X1.1812 Y1.751 I-0.375 J0.0
G1 X0.5719 Y1.7508
G1 Y1.1648
G1 X2.1655 Y1.1638
G0 Z0.05
G0 X2.2412 Y1.9676
G0 Z-0.3375
G1 F4.0 Z-0.4
G1 F5.0 X2.2001 Z-0.4072
G2 X2.1659 Y1.8201 Z-0.434 I-1.019 J0.1583
G1 X2.5192 Y1.8198 Z-0.4963
G2 X2.4849 Y1.9677 Z-0.523 I0.9848 J0.3061
G1 X2.2001 Y1.9676 Z-0.5733
G2 X2.1659 Y1.8201 Z-0.6 I-1.019 J0.1583
G1 F9.0 X2.5192 Y1.8198
G2 X2.4849 Y1.9677 I0.9848 J0.3061
G1 X2.2001 Y1.9676
G2 X2.1659 Y1.8201 I-1.019 J0.1583
G1 F4.0 Y1.7263
G1 F9.0 X2.656 Y1.726
G2 X2.5687 Y2.0614 I0.8479 J0.4
G1 X2.1164
G2 X2.0292 Y1.7264 I-0.9353 J0.0646
G1 X2.1659 Y1.7263
G1 F4.0 X2.1658 Y1.5388
G1 F9.0 X3.038 Y1.5383
G2 X2.7539 Y2.126 I0.4659 J0.5877
G1 Y2.2489
G1 X1.9311
G1 Y2.126
G2 X1.6481 Y1.5391 I-0.75 J0.0
G1 X2.1658 Y1.5388
G1 F4.0 X2.1656 Y1.3513
G1 F9.0 X3.9257 Y1.3502
G1 Y1.5624
G1 X3.5025 Y1.5635
G2 X2.9414 Y2.126 I0.0015 J0.5625
G1 Y2.4364
G1 X1.7436
G1 Y2.126
G2 X1.1813 Y1.5635 I-0.5625 J0.0
G1 X0.7594 Y1.5634
G1 Y1.3521
G1 X2.1656 Y1.3513
G1 F4.0 X2.1655 Y1.1638
G1 F9.0 X4.1132 Y1.1626
G1 Y1.7494
G1 X3.503 Y1.751
G2 X3.1289 Y2.126 I0.001 J0.375
G1 Y2.6239
G1 X1.5561
G1 Y2.126
G2 X1.1812 Y1.751 I-0.375 J0.0
G1 X0.5719 Y1.7508
G1 Y1.1648
G1 X2.1655 Y1.1638
G0 Z0.05
G0 X2.1865 Y1.8966
G0 Z-0.5375
G1 F4.0 Z-0.6
G2 F5.0 X2.1659 Y1.8201 Z-0.614 I-1.0054 J0.2294
G1 X2.5192 Y1.8198 Z-0.6763
G2 X2.4849 Y1.9677 Z-0.703 I0.9848 J0.3061
G1 X2.2001 Y1.9676 Z-0.7533
G2 X2.1659 Y1.8201 Z-0.78 I-1.019 J0.1583
G1 F9.0 X2.5192 Y1.8198
G2 X2.4849 Y1.9677 I0.9848 J0.3061
G1 X2.2001 Y1.9676
G2 X2.1659 Y1.8201 I-1.019 J0.1583
G1 F4.0 Y1.7263
G1 F9.0 X2.656 Y1.726
G2 X2.5687 Y2.0614 I0.8479 J0.4
G1 X2.1164
G2 X2.0292 Y1.7264 I-0.9353 J0.0646
G1 X2.1659 Y1.7263
G1 F4.0 X2.1658 Y1.5388
G1 F9.0 X3.038 Y1.5383
G2 X2.7539 Y2.126 I0.4659 J0.5877
G1 Y2.2489
G1 X1.9311
G1 Y2.126
G2 X1.6481 Y1.5391 I-0.75 J0.0
G1 X2.1658 Y1.5388
G1 F4.0 X2.1656 Y1.3513
G1 F9.0 X3.9257 Y1.3502
G1 Y1.5624
G1 X3.5025 Y1.5635
G2 X2.9414 Y2.126 I0.0015 J0.5625
G1 Y2.4364
G1 X1.7436
G1 Y2.126
G2 X1.1813 Y1.5635 I-0.5625 J0.0
G1 X0.7594 Y1.5634
G1 Y1.3521
G1 X2.1656 Y1.3513
G1 F4.0 X2.1655 Y1.1638
G1 F9.0 X4.1132 Y1.1626
G1 Y1.7494
G1 X3.503 Y1.751
G2 X3.1289 Y2.126 I0.001 J0.375
G1 Y2.6239
G1 X1.5561
G1 Y2.126
G2 X1.1812 Y1.751 I-0.375 J0.0
G1 X0.5719 Y1.7508
G1 Y1.1648
G1 X2.1655 Y1.1638
G0 Z0.05
G0 X2.1813 Y1.8746
G0 Z-0.7175
G1 F4.0 Z-0.78
G2 F5.0 X2.1659 Y1.8201 Z-0.79 I-1.0002 J0.2513
G1 F9.0 X2.5192 Y1.8198
G2 X2.4849 Y1.9677 I0.9848 J0.3061
G1 X2.2001 Y1.9676
G2 X2.1659 Y1.8201 I-1.019 J0.1583
G1 F4.0 Y1.7263
G1 F9.0 X2.656 Y1.726
G2 X2.5687 Y2.0614 I0.8479 J0.4
G1 X2.1164
G2 X2.0292 Y1.7264 I-0.9353 J0.0646
G1 X2.1659 Y1.7263
G1 F4.0 X2.1658 Y1.5388
G1 F9.0 X3.038 Y1.5383
G2 X2.7539 Y2.126 I0.4659 J0.5877
G1 Y2.2489
G1 X1.9311
G1 Y2.126
G2 X1.6481 Y1.5391 I-0.75 J0.0
G1 X2.1658 Y1.5388
G1 F4.0 X2.1656 Y1.3513
G1 F9.0 X3.9257 Y1.3502
G1 Y1.5624
G1 X3.5025 Y1.5635
G2 X2.9414 Y2.126 I0.0015 J0.5625
G1 Y2.4364
G1 X1.7436
G1 Y2.126
G2 X1.1813 Y1.5635 I-0.5625 J0.0
G1 X0.7594 Y1.5634
G1 Y1.3521
G1 X2.1656 Y1.3513
G1 F4.0 X2.1655 Y1.1638
G1 F9.0 X4.1132 Y1.1626
G1 Y1.7494
G1 X3.503 Y1.751
G2 X3.1289 Y2.126 I0.001 J0.375
G1 Y2.6239
G1 X1.5561
G1 Y2.126
G2 X1.1812 Y1.751 I-0.375 J0.0
G1 X0.5719 Y1.7508
G1 Y1.1648
G1 X2.1655 Y1.1638
( Pocket9 )
S4000
G0 Z0.05
G0 X2.3928 Y1.9676
G0 Z-0.6275
G1 F4.0 Z-0.69
G1 F5.0 X2.2001 Z-0.724
G2 X2.1659 Y1.8201 Z-0.7507 I-1.019 J0.1583
G1 X2.5192 Y1.8198 Z-0.813
G2 X2.4849 Y1.9677 Z-0.8398 I0.9847 J0.3062
G1 X2.2001 Y1.9676 Z-0.89
G2 F9.0 X2.1659 Y1.8201 I-1.019 J0.1583
G1 X2.5192 Y1.8198
G2 X2.4849 Y1.9677 I0.9847 J0.3062
G1 X2.2001 Y1.9676
G1 F4.0 X2.1075 Y1.982
G2 F9.0 X2.0292 Y1.7265 I-0.9264 J0.144
G1 X2.6561 Y1.7259
G2 X2.5687 Y2.0614 I0.8478 J0.4001
G1 X2.1164
G2 X2.1075 Y1.982 I-0.9353 J0.0646
G1 F4.0 X1.9222 Y2.0108
G2 F9.0 X1.7479 Y1.6348 I-0.7411 J0.1152
G1 Y1.5393
G1 X2.9372 Y1.5381
G1 Y1.6348
G2 X2.7539 Y2.126 I0.5668 J0.4912
G1 Y2.2489
G1 X1.9311
G1 Y2.126
G2 X1.9222 Y2.0108 I-0.75 J0.0
G1 F4.0 X1.7369 Y2.0396
G2 F9.0 X1.5604 Y1.7106 I-0.5558 J0.0864
G1 Y1.3519
G1 X3.1247 Y1.3504
G1 Y1.7106
G2 X2.9414 Y2.126 I0.3793 J0.4154
G1 Y2.4364
G1 X1.7436
G1 Y2.126
G2 X1.7369 Y2.0396 I-0.5625 J0.0
G1 F4.0 X1.5517 Y2.0684
G2 F9.0 X1.3729 Y1.8037 I-0.3706 J0.0576
G1 Y1.1646
G1 X3.3122 Y1.1628
G1 Y1.8037
G2 X3.1289 Y2.126 I0.1918 J0.3223
G1 Y2.6239
G1 X1.5561
G1 Y2.126
G2 X1.5517 Y2.0684 I-0.375 J0.0
G0 Z0.05
G0 X2.2568 Y1.9676
G0 Z-0.8275
G1 F4.0 Z-0.89
G1 F5.0 X2.2001 Z-0.9
G2 F9.0 X2.1659 Y1.8201 I-1.019 J0.1583
G1 X2.5192 Y1.8198
G2 X2.4849 Y1.9677 I0.9847 J0.3062
G1 X2.2001 Y1.9676
G1 F4.0 X2.1075 Y1.982
G2 F9.0 X2.0292 Y1.7265 I-0.9264 J0.144
G1 X2.6561 Y1.7259
G2 X2.5687 Y2.0614 I0.8478 J0.4001
G1 X2.1164
G2 X2.1075 Y1.982 I-0.9353 J0.0646
G1 F4.0 X1.9222 Y2.0108
G2 F9.0 X1.7479 Y1.6348 I-0.7411 J0.1152
G1 Y1.5393
G1 X2.9372 Y1.5381
G1 Y1.6348
G2 X2.7539 Y2.126 I0.5668 J0.4912
G1 Y2.2489
G1 X1.9311
G1 Y2.126
G2 X1.9222 Y2.0108 I-0.75 J0.0
G1 F4.0 X1.7369 Y2.0396
G2 F9.0 X1.5604 Y1.7106 I-0.5558 J0.0864
G1 Y1.3519
G1 X3.1247 Y1.3504
G1 Y1.7106
G2 X2.9414 Y2.126 I0.3793 J0.4154
G1 Y2.4364
G1 X1.7436
G1 Y2.126
G2 X1.7369 Y2.0396 I-0.5625 J0.0
G1 F4.0 X1.5517 Y2.0684
G2 F9.0 X1.3729 Y1.8037 I-0.3706 J0.0576
G1 Y1.1646
G1 X3.3122 Y1.1628
G1 Y1.8037
G2 X3.1289 Y2.126 I0.1918 J0.3223
G1 Y2.6239
G1 X1.5561
G1 Y2.126
G2 X1.5517 Y2.0684 I-0.375 J0.0
( Pocket2 )
G0 Z0.05
( T11 : 0.375 )
T11 M6
M3 S4000
G0 X2.2617 Y1.8973
G0 Z-0.8375
G1 F5.0 Z-0.9
G1 X2.2587 Z-0.9005
G2 X2.2572 Y1.8903 Z-0.9018 I-1.0776 J0.2287
G1 X2.4279 Y1.8902 Z-0.9319
G2 X2.4264 Y1.8973 Z-0.9332 I1.076 J0.2358
G1 X2.2587 Z-0.9628
G2 X2.2572 Y1.8903 Z-0.964 I-1.0776 J0.2287
G1 X2.4279 Y1.8902 Z-0.9941
G2 X2.4264 Y1.8973 Z-0.9954 I1.076 J0.2358
G1 X2.2587 Z-1.025
G2 F9.0 X2.2572 Y1.8903 I-1.0776 J0.2287
G1 X2.4279 Y1.8902
G2 X2.4264 Y1.8973 I1.076 J0.2358
G1 X2.2587
G1 F5.0 Y1.9208
G1 F9.0 X2.2395
G2 X2.2276 Y1.8669 I-1.0584 J0.2052
G1 X2.4575 Y1.8667
G2 X2.4455 Y1.9208 I1.0465 J0.2593
G1 X2.2587
G1 F5.0 Y1.9676
G1 F9.0 X2.2001
G2 X2.1659 Y1.8201 I-1.019 J0.1583
G1 X2.5192 Y1.8198
G2 X2.4849 Y1.9677 I0.9847 J0.3062
G1 X2.2587 Y1.9676
G1 F5.0 Y2.0145
G1 F9.0 X2.1591
G2 X2.1001 Y1.7733 I-0.978 J0.1115
G1 X2.5851 Y1.7728
G2 X2.5259 Y2.0145 I0.9188 J0.3531
G1 X2.2587
G1 F5.0 Y2.0614
G1 F9.0 X2.1164
G2 X2.0292 Y1.7265 I-0.9353 J0.0646
G1 X2.6561 Y1.7259
G2 X2.5687 Y2.0614 I0.8478 J0.4001
G1 X2.2587
G1 F5.0 Y2.1083
G1 F9.0 X2.0716
G2 X1.9518 Y1.6797 I-0.8904 J0.0177
G1 X2.7336 Y1.6789
G2 X2.6135 Y2.1083 I0.7703 J0.447
G1 X2.2587
G1 F5.0 Y2.1551
G1 F9.0 X2.0249
G1 Y2.126
G2 X1.8658 Y1.6329 I-0.8438 J0.0
G1 X2.8199 Y1.632
G2 X2.6602 Y2.126 I0.684 J0.494
G1 Y2.1552
G1 X2.2587 Y2.1551
G1 F5.0 Y2.202
G1 F9.0 X1.978
G1 Y2.126
G2 X1.7947 Y1.6176 I-0.7969 J0.0
G1 Y1.5861
G1 X2.8903 Y1.585
G1 Y1.6176
G2 X2.7071 Y2.126 I0.6136 J0.5084
G1 Y2.202
G1 X2.2587
G1 F5.0 Y2.2489
G1 F9.0 X1.9311
G1 Y2.126
G2 X1.7479 Y1.6348 I-0.75 J0.0
G1 Y1.5393
G1 X2.9372 Y1.5381
G1 Y1.6348
G2 X2.7539 Y2.126 I0.5668 J0.4912
G1 Y2.2489
G1 X2.2587
G1 F5.0 Y2.2958
G1 F9.0 X1.8842 Y2.2957
G1 Y2.126
G2 X1.701 Y1.6526 I-0.7031 J0.0
G1 Y1.4924
G1 X2.984 Y1.4912
G1 Y1.6526
G2 X2.8008 Y2.126 I0.5199 J0.4734
G1 Y2.2958
G1 X2.2587
G1 F5.0 Y2.3426
G1 F9.0 X1.8374
G1 Y2.126
G2 X1.6541 Y1.6711 I-0.6563 J0.0
G1 Y1.4456
G1 X3.0309 Y1.4443
G1 Y1.6711
G2 X2.8477 Y2.126 I0.473 J0.4549
G1 Y2.3427
G1 X2.2587 Y2.3426
G1 F5.0 X2.2586 Y2.3895
G1 F9.0 X1.7905
G1 Y2.126
G2 X1.6072 Y1.6904 I-0.6094 J0.0
G1 Y1.3988
G1 X3.0778 Y1.3974
G1 Y1.6904
G2 X2.8946 Y2.126 I0.4261 J0.4356
G1 Y2.3895
G1 X2.2586
G1 F5.0 Y2.4364
G1 F9.0 X1.7436
G1 Y2.126
G2 X1.5604 Y1.7106 I-0.5625 J0.0
G1 Y1.3519
G1 X3.1247 Y1.3504
G1 Y1.7106
G2 X2.9414 Y2.126 I0.3793 J0.4154
G1 Y2.4364
G1 X2.2586
G1 F5.0 Y2.4833
G1 F9.0 X1.6967 Y2.4832
G1 Y2.126
G2 X1.5135 Y1.7318 I-0.5156 J0.0
G1 Y1.3051
G1 X3.1715 Y1.3035
G1 Y1.7318
G2 X2.9883 Y2.126 I0.3324 J0.3942
G1 Y2.4833
G1 X2.2586
G1 F5.0 Y2.5301
G1 F9.0 X1.6499
G1 Y2.126
G2 X1.4666 Y1.7542 I-0.4688 J0.0
G1 Y1.2583
G1 X3.2184 Y1.2566
G1 Y1.7542
G2 X3.0352 Y2.126 I0.2855 J0.3718
G1 Y2.5302
G1 X2.2586 Y2.5301
G1 F5.0 Y2.577
G1 F9.0 X1.603
G1 Y2.126
G2 X1.4197 Y1.7781 I-0.4219 J0.0
G1 Y1.2115
G1 X3.2653 Y1.2097
G1 Y1.7781
G2 X3.0821 Y2.126 I0.2386 J0.3479
G1 Y2.5771
G1 X2.2586 Y2.577
G1 F5.0 Y2.6239
G1 F9.0 X1.5561
G1 Y2.126
G2 X1.3729 Y1.8037 I-0.375 J0.0
G1 Y1.1646
G1 X3.3122 Y1.1628
G1 Y1.8037
G2 X3.1289 Y2.126 I0.1918 J0.3223
G1 Y2.6239
G1 X2.2586
G1 F5.0 Y2.6708
G1 F9.0 X1.5092 Y2.6707
G1 Y2.126
G2 X1.326 Y1.8316 I-0.3281 J0.0
G1 Y1.1178
G1 X3.359 Y1.1158
G1 Y1.8316
G2 X3.1758 Y2.126 I0.1449 J0.2944
G1 Y2.6708
G1 X2.2586
G1 F5.0 Y2.7176
G1 F9.0 X1.4624
G1 Y2.126
G2 X1.2791 Y1.8624 I-0.2813 J0.0
G1 Y1.071
G1 X3.4059 Y1.0689
G1 Y1.8624
G2 X3.2227 Y2.126 I0.098 J0.2636
G1 Y2.7177
G1 X2.2586 Y2.7176
G1 F5.0 Y2.7645
G1 F9.0 X1.4155
G1 Y2.126
G2 X1.2322 Y1.8973 I-0.2344 J0.0
G1 Y1.0241
G1 X3.4528 Y1.022
G1 Y1.8973
G2 X3.2696 Y2.126 I0.0511 J0.2287
G1 Y2.7646
G1 X2.2586 Y2.7645
G1 F5.0 Y2.8114
G1 F9.0 X1.3686 Y2.8113
G1 Y2.126
G2 X1.1854 Y1.9385 I-0.1875 J0.0
G1 Y0.9773
G1 X3.4997 Y0.9751
G1 Y1.9385
G2 X3.3164 Y2.126 I0.0043 J0.1875
G1 Y2.8114
G1 X2.2586
G0 Z0.05
G0 X2.2617 Y1.8973
G0 Z-0.9625
G1 F5.0 Z-1.025
G1 X2.2587 Z-1.0255
G2 X2.2572 Y1.8903 Z-1.0268 I-1.0776 J0.2287
G1 X2.4279 Y1.8902 Z-1.0569
G2 X2.4264 Y1.8973 Z-1.0582 I1.076 J0.2358
G1 X2.2587 Z-1.0878
G2 X2.2572 Y1.8903 Z-1.089 I-1.0776 J0.2287
G1 X2.4279 Y1.8902 Z-1.1191
G2 X2.4264 Y1.8973 Z-1.1204 I1.076 J0.2358
G1 X2.2587 Z-1.15
G2 F9.0 X2.2572 Y1.8903 I-1.0776 J0.2287
G1 X2.4279 Y1.8902
G2 X2.4264 Y1.8973 I1.076 J0.2358
G1 X2.2587
G1 F5.0 Y1.9208
G1 F9.0 X2.2395
G2 X2.2276 Y1.8669 I-1.0584 J0.2052
G1 X2.4575 Y1.8667
G2 X2.4455 Y1.9208 I1.0465 J0.2593
G1 X2.2587
G1 F5.0 Y1.9676
G1 F9.0 X2.2001
G2 X2.1659 Y1.8201 I-1.019 J0.1583
G1 X2.5192 Y1.8198
G2 X2.4849 Y1.9677 I0.9847 J0.3062
G1 X2.2587 Y1.9676
G1 F5.0 Y2.0145
G1 F9.0 X2.1591
G2 X2.1001 Y1.7733 I-0.978 J0.1115
G1 X2.5851 Y1.7728
G2 X2.5259 Y2.0145 I0.9188 J0.3531
G1 X2.2587
G1 F5.0 Y2.0614
G1 F9.0 X2.1164
G2 X2.0292 Y1.7265 I-0.9353 J0.0646
G1 X2.6561 Y1.7259
G2 X2.5687 Y2.0614 I0.8478 J0.4001
G1 X2.2587
G1 F5.0 Y2.1083
G1 F9.0 X2.0716
G2 X1.9518 Y1.6797 I-0.8904 J0.0177
G1 X2.7336 Y1.6789
G2 X2.6135 Y2.1083 I0.7703 J0.447
G1 X2.2587
G1 F5.0 Y2.1551
G1 F9.0 X2.0249
G1 Y2.126
G2 X1.8658 Y1.6329 I-0.8438 J0.0
G1 X2.8199 Y1.632
G2 X2.6602 Y2.126 I0.684 J0.494
G1 Y2.1552
G1 X2.2587 Y2.1551
G1 F5.0 Y2.202
G1 F9.0 X1.978
G1 Y2.126
G2 X1.7947 Y1.6176 I-0.7969 J0.0
G1 Y1.5861
G1 X2.8903 Y1.585
G1 Y1.6176
G2 X2.7071 Y2.126 I0.6136 J0.5084
G1 Y2.202
G1 X2.2587
G1 F5.0 Y2.2489
G1 F9.0 X1.9311
G1 Y2.126
G2 X1.7479 Y1.6348 I-0.75 J0.0
G1 Y1.5393
G1 X2.9372 Y1.5381
G1 Y1.6348
G2 X2.7539 Y2.126 I0.5668 J0.4912
G1 Y2.2489
G1 X2.2587
G1 F5.0 Y2.2958
G1 F9.0 X1.8842 Y2.2957
G1 Y2.126
G2 X1.701 Y1.6526 I-0.7031 J0.0
G1 Y1.4924
G1 X2.984 Y1.4912
G1 Y1.6526
G2 X2.8008 Y2.126 I0.5199 J0.4734
G1 Y2.2958
G1 X2.2587
G1 F5.0 Y2.3426
G1 F9.0 X1.8374
G1 Y2.126
G2 X1.6541 Y1.6711 I-0.6563 J0.0
G1 Y1.4456
G1 X3.0309 Y1.4443
G1 Y1.6711
G2 X2.8477 Y2.126 I0.473 J0.4549
G1 Y2.3427
G1 X2.2587 Y2.3426
G1 F5.0 X2.2586 Y2.3895
G1 F9.0 X1.7905
G1 Y2.126
G2 X1.6072 Y1.6904 I-0.6094 J0.0
G1 Y1.3988
G1 X3.0778 Y1.3974
G1 Y1.6904
G2 X2.8946 Y2.126 I0.4261 J0.4356
G1 Y2.3895
G1 X2.2586
G1 F5.0 Y2.4364
G1 F9.0 X1.7436
G1 Y2.126
G2 X1.5604 Y1.7106 I-0.5625 J0.0
G1 Y1.3519
G1 X3.1247 Y1.3504
G1 Y1.7106
G2 X2.9414 Y2.126 I0.3793 J0.4154
G1 Y2.4364
G1 X2.2586
G1 F5.0 Y2.4833
G1 F9.0 X1.6967 Y2.4832
G1 Y2.126
G2 X1.5135 Y1.7318 I-0.5156 J0.0
G1 Y1.3051
G1 X3.1715 Y1.3035
G1 Y1.7318
G2 X2.9883 Y2.126 I0.3324 J0.3942
G1 Y2.4833
G1 X2.2586
G1 F5.0 Y2.5301
G1 F9.0 X1.6499
G1 Y2.126
G2 X1.4666 Y1.7542 I-0.4688 J0.0
G1 Y1.2583
G1 X3.2184 Y1.2566
G1 Y1.7542
G2 X3.0352 Y2.126 I0.2855 J0.3718
G1 Y2.5302
G1 X2.2586 Y2.5301
G1 F5.0 Y2.577
G1 F9.0 X1.603
G1 Y2.126
G2 X1.4197 Y1.7781 I-0.4219 J0.0
G1 Y1.2115
G1 X3.2653 Y1.2097
G1 Y1.7781
G2 X3.0821 Y2.126 I0.2386 J0.3479
G1 Y2.5771
G1 X2.2586 Y2.577
G1 F5.0 Y2.6239
G1 F9.0 X1.5561
G1 Y2.126
G2 X1.3729 Y1.8037 I-0.375 J0.0
G1 Y1.1646
G1 X3.3122 Y1.1628
G1 Y1.8037
G2 X3.1289 Y2.126 I0.1918 J0.3223
G1 Y2.6239
G1 X2.2586
G1 F5.0 Y2.6708
G1 F9.0 X1.5092 Y2.6707
G1 Y2.126
G2 X1.326 Y1.8316 I-0.3281 J0.0
G1 Y1.1178
G1 X3.359 Y1.1158
G1 Y1.8316
G2 X3.1758 Y2.126 I0.1449 J0.2944
G1 Y2.6708
G1 X2.2586
G1 F5.0 Y2.7176
G1 F9.0 X1.4624
G1 Y2.126
G2 X1.2791 Y1.8624 I-0.2813 J0.0
G1 Y1.071
G1 X3.4059 Y1.0689
G1 Y1.8624
G2 X3.2227 Y2.126 I0.098 J0.2636
G1 Y2.7177
G1 X2.2586 Y2.7176
G1 F5.0 Y2.7645
G1 F9.0 X1.4155
G1 Y2.126
G2 X1.2322 Y1.8973 I-0.2344 J0.0
G1 Y1.0241
G1 X3.4528 Y1.022
G1 Y1.8973
G2 X3.2696 Y2.126 I0.0511 J0.2287
G1 Y2.7646
G1 X2.2586 Y2.7645
G1 F5.0 Y2.8114
G1 F9.0 X1.3686 Y2.8113
G1 Y2.126
G2 X1.1854 Y1.9385 I-0.1875 J0.0
G1 Y0.9773
G1 X3.4997 Y0.9751
G1 Y1.9385
G2 X3.3164 Y2.126 I0.0043 J0.1875
G1 Y2.8114
G1 X2.2586
G0 Z0.05
G0 X2.2617 Y1.8973
G0 Z-1.0875
G1 F5.0 Z-1.15
G1 X2.2587 Z-1.1505
G2 X2.2572 Y1.8903 Z-1.1518 I-1.0776 J0.2287
G1 X2.4279 Y1.8902 Z-1.1819
G2 X2.4264 Y1.8973 Z-1.1832 I1.076 J0.2358
G1 X2.2587 Z-1.2128
G2 X2.2572 Y1.8903 Z-1.214 I-1.0776 J0.2287
G1 X2.4279 Y1.8902 Z-1.2441
G2 X2.4264 Y1.8973 Z-1.2454 I1.076 J0.2358
G1 X2.2587 Z-1.275
G2 F9.0 X2.2572 Y1.8903 I-1.0776 J0.2287
G1 X2.4279 Y1.8902
G2 X2.4264 Y1.8973 I1.076 J0.2358
G1 X2.2587
G1 F5.0 Y1.9208
G1 F9.0 X2.2395
G2 X2.2276 Y1.8669 I-1.0584 J0.2052
G1 X2.4575 Y1.8667
G2 X2.4455 Y1.9208 I1.0465 J0.2593
G1 X2.2587
G1 F5.0 Y1.9676
G1 F9.0 X2.2001
G2 X2.1659 Y1.8201 I-1.019 J0.1583
G1 X2.5192 Y1.8198
G2 X2.4849 Y1.9677 I0.9847 J0.3062
G1 X2.2587 Y1.9676
G1 F5.0 Y2.0145
G1 F9.0 X2.1591
G2 X2.1001 Y1.7733 I-0.978 J0.1115
G1 X2.5851 Y1.7728
G2 X2.5259 Y2.0145 I0.9188 J0.3531
G1 X2.2587
G1 F5.0 Y2.0614
G1 F9.0 X2.1164
G2 X2.0292 Y1.7265 I-0.9353 J0.0646
G1 X2.6561 Y1.7259
G2 X2.5687 Y2.0614 I0.8478 J0.4001
G1 X2.2587
G1 F5.0 Y2.1083
G1 F9.0 X2.0716
G2 X1.9518 Y1.6797 I-0.8904 J0.0177
G1 X2.7336 Y1.6789
G2 X2.6135 Y2.1083 I0.7703 J0.447
G1 X2.2587
G1 F5.0 Y2.1551
G1 F9.0 X2.0249
G1 Y2.126
G2 X1.8658 Y1.6329 I-0.8438 J0.0
G1 X2.8199 Y1.632
G2 X2.6602 Y2.126 I0.684 J0.494
G1 Y2.1552
G1 X2.2587 Y2.1551
G1 F5.0 Y2.202
G1 F9.0 X1.978
G1 Y2.126
G2 X1.7947 Y1.6176 I-0.7969 J0.0
G1 Y1.5861
G1 X2.8903 Y1.585
G1 Y1.6176
G2 X2.7071 Y2.126 I0.6136 J0.5084
G1 Y2.202
G1 X2.2587
G1 F5.0 Y2.2489
G1 F9.0 X1.9311
G1 Y2.126
G2 X1.7479 Y1.6348 I-0.75 J0.0
G1 Y1.5393
G1 X2.9372 Y1.5381
G1 Y1.6348
G2 X2.7539 Y2.126 I0.5668 J0.4912
G1 Y2.2489
G1 X2.2587
G1 F5.0 Y2.2958
G1 F9.0 X1.8842 Y2.2957
G1 Y2.126
G2 X1.701 Y1.6526 I-0.7031 J0.0
G1 Y1.4924
G1 X2.984 Y1.4912
G1 Y1.6526
G2 X2.8008 Y2.126 I0.5199 J0.4734
G1 Y2.2958
G1 X2.2587
G1 F5.0 Y2.3426
G1 F9.0 X1.8374
G1 Y2.126
G2 X1.6541 Y1.6711 I-0.6563 J0.0
G1 Y1.4456
G1 X3.0309 Y1.4443
G1 Y1.6711
G2 X2.8477 Y2.126 I0.473 J0.4549
G1 Y2.3427
G1 X2.2587 Y2.3426
G1 F5.0 X2.2586 Y2.3895
G1 F9.0 X1.7905
G1 Y2.126
G2 X1.6072 Y1.6904 I-0.6094 J0.0
G1 Y1.3988
G1 X3.0778 Y1.3974
G1 Y1.6904
G2 X2.8946 Y2.126 I0.4261 J0.4356
G1 Y2.3895
G1 X2.2586
G1 F5.0 Y2.4364
G1 F9.0 X1.7436
G1 Y2.126
G2 X1.5604 Y1.7106 I-0.5625 J0.0
G1 Y1.3519
G1 X3.1247 Y1.3504
G1 Y1.7106
G2 X2.9414 Y2.126 I0.3793 J0.4154
G1 Y2.4364
G1 X2.2586
G1 F5.0 Y2.4833
G1 F9.0 X1.6967 Y2.4832
G1 Y2.126
G2 X1.5135 Y1.7318 I-0.5156 J0.0
G1 Y1.3051
G1 X3.1715 Y1.3035
G1 Y1.7318
G2 X2.9883 Y2.126 I0.3324 J0.3942
G1 Y2.4833
G1 X2.2586
G1 F5.0 Y2.5301
G1 F9.0 X1.6499
G1 Y2.126
G2 X1.4666 Y1.7542 I-0.4688 J0.0
G1 Y1.2583
G1 X3.2184 Y1.2566
G1 Y1.7542
G2 X3.0352 Y2.126 I0.2855 J0.3718
G1 Y2.5302
G1 X2.2586 Y2.5301
G1 F5.0 Y2.577
G1 F9.0 X1.603
G1 Y2.126
G2 X1.4197 Y1.7781 I-0.4219 J0.0
G1 Y1.2115
G1 X3.2653 Y1.2097
G1 Y1.7781
G2 X3.0821 Y2.126 I0.2386 J0.3479
G1 Y2.5771
G1 X2.2586 Y2.577
G1 F5.0 Y2.6239
G1 F9.0 X1.5561
G1 Y2.126
G2 X1.3729 Y1.8037 I-0.375 J0.0
G1 Y1.1646
G1 X3.3122 Y1.1628
G1 Y1.8037
G2 X3.1289 Y2.126 I0.1918 J0.3223
G1 Y2.6239
G1 X2.2586
G1 F5.0 Y2.6708
G1 F9.0 X1.5092 Y2.6707
G1 Y2.126
G2 X1.326 Y1.8316 I-0.3281 J0.0
G1 Y1.1178
G1 X3.359 Y1.1158
G1 Y1.8316
G2 X3.1758 Y2.126 I0.1449 J0.2944
G1 Y2.6708
G1 X2.2586
G1 F5.0 Y2.7176
G1 F9.0 X1.4624
G1 Y2.126
G2 X1.2791 Y1.8624 I-0.2813 J0.0
G1 Y1.071
G1 X3.4059 Y1.0689
G1 Y1.8624
G2 X3.2227 Y2.126 I0.098 J0.2636
G1 Y2.7177
G1 X2.2586 Y2.7176
G1 F5.0 Y2.7645
G1 F9.0 X1.4155
G1 Y2.126
G2 X1.2322 Y1.8973 I-0.2344 J0.0
G1 Y1.0241
G1 X3.4528 Y1.022
G1 Y1.8973
G2 X3.2696 Y2.126 I0.0511 J0.2287
G1 Y2.7646
G1 X2.2586 Y2.7645
G1 F5.0 Y2.8114
G1 F9.0 X1.3686 Y2.8113
G1 Y2.126
G2 X1.1854 Y1.9385 I-0.1875 J0.0
G1 Y0.9773
G1 X3.4997 Y0.9751
G1 Y1.9385
G2 X3.3164 Y2.126 I0.0043 J0.1875
G1 Y2.8114
G1 X2.2586
G0 Z0.05
G0 X2.332 Y1.8903
G0 Z-1.2125
G1 F5.0 Z-1.275
G1 X2.4279 Y1.8902 Z-1.2919
G2 X2.4264 Y1.8973 Z-1.2932 I1.076 J0.2358
G1 X2.2587 Z-1.3228
G2 X2.2572 Y1.8903 Z-1.324 I-1.0776 J0.2287
G1 X2.4279 Y1.8902 Z-1.3541
G2 X2.4264 Y1.8973 Z-1.3554 I1.076 J0.2358
G1 X2.2587 Z-1.385
G2 F9.0 X2.2572 Y1.8903 I-1.0776 J0.2287
G1 X2.4279 Y1.8902
G2 X2.4264 Y1.8973 I1.076 J0.2358
G1 X2.2587
G1 F5.0 Y1.9208
G1 F9.0 X2.2395
G2 X2.2276 Y1.8669 I-1.0584 J0.2052
G1 X2.4575 Y1.8667
G2 X2.4455 Y1.9208 I1.0465 J0.2593
G1 X2.2587
G1 F5.0 Y1.9676
G1 F9.0 X2.2001
G2 X2.1659 Y1.8201 I-1.019 J0.1583
G1 X2.5192 Y1.8198
G2 X2.4849 Y1.9677 I0.9847 J0.3062
G1 X2.2587 Y1.9676
G1 F5.0 Y2.0145
G1 F9.0 X2.1591
G2 X2.1001 Y1.7733 I-0.978 J0.1115
G1 X2.5851 Y1.7728
G2 X2.5259 Y2.0145 I0.9188 J0.3531
G1 X2.2587
G1 F5.0 Y2.0614
G1 F9.0 X2.1164
G2 X2.0292 Y1.7265 I-0.9353 J0.0646
G1 X2.6561 Y1.7259
G2 X2.5687 Y2.0614 I0.8478 J0.4001
G1 X2.2587
G1 F5.0 Y2.1083
G1 F9.0 X2.0716
G2 X1.9518 Y1.6797 I-0.8904 J0.0177
G1 X2.7336 Y1.6789
G2 X2.6135 Y2.1083 I0.7703 J0.447
G1 X2.2587
G1 F5.0 Y2.1551
G1 F9.0 X2.0249
G1 Y2.126
G2 X1.8658 Y1.6329 I-0.8438 J0.0
G1 X2.8199 Y1.632
G2 X2.6602 Y2.126 I0.684 J0.494
G1 Y2.1552
G1 X2.2587 Y2.1551
G1 F5.0 Y2.202
G1 F9.0 X1.978
G1 Y2.126
G2 X1.7947 Y1.6176 I-0.7969 J0.0
G1 Y1.5861
G1 X2.8903 Y1.585
G1 Y1.6176
G2 X2.7071 Y2.126 I0.6136 J0.5084
G1 Y2.202
G1 X2.2587
G1 F5.0 Y2.2489
G1 F9.0 X1.9311
G1 Y2.126
G2 X1.7479 Y1.6348 I-0.75 J0.0
G1 Y1.5393
G1 X2.9372 Y1.5381
G1 Y1.6348
G2 X2.7539 Y2.126 I0.5668 J0.4912
G1 Y2.2489
G1 X2.2587
G1 F5.0 Y2.2958
G1 F9.0 X1.8842 Y2.2957
G1 Y2.126
G2 X1.701 Y1.6526 I-0.7031 J0.0
G1 Y1.4924
G1 X2.984 Y1.4912
G1 Y1.6526
G2 X2.8008 Y2.126 I0.5199 J0.4734
G1 Y2.2958
G1 X2.2587
G1 F5.0 Y2.3426
G1 F9.0 X1.8374
G1 Y2.126
G2 X1.6541 Y1.6711 I-0.6563 J0.0
G1 Y1.4456
G1 X3.0309 Y1.4443
G1 Y1.6711
G2 X2.8477 Y2.126 I0.473 J0.4549
G1 Y2.3427
G1 X2.2587 Y2.3426
G1 F5.0 X2.2586 Y2.3895
G1 F9.0 X1.7905
G1 Y2.126
G2 X1.6072 Y1.6904 I-0.6094 J0.0
G1 Y1.3988
G1 X3.0778 Y1.3974
G1 Y1.6904
G2 X2.8946 Y2.126 I0.4261 J0.4356
G1 Y2.3895
G1 X2.2586
G1 F5.0 Y2.4364
G1 F9.0 X1.7436
G1 Y2.126
G2 X1.5604 Y1.7106 I-0.5625 J0.0
G1 Y1.3519
G1 X3.1247 Y1.3504
G1 Y1.7106
G2 X2.9414 Y2.126 I0.3793 J0.4154
G1 Y2.4364
G1 X2.2586
G1 F5.0 Y2.4833
G1 F9.0 X1.6967 Y2.4832
G1 Y2.126
G2 X1.5135 Y1.7318 I-0.5156 J0.0
G1 Y1.3051
G1 X3.1715 Y1.3035
G1 Y1.7318
G2 X2.9883 Y2.126 I0.3324 J0.3942
G1 Y2.4833
G1 X2.2586
G1 F5.0 Y2.5301
G1 F9.0 X1.6499
G1 Y2.126
G2 X1.4666 Y1.7542 I-0.4688 J0.0
G1 Y1.2583
G1 X3.2184 Y1.2566
G1 Y1.7542
G2 X3.0352 Y2.126 I0.2855 J0.3718
G1 Y2.5302
G1 X2.2586 Y2.5301
G1 F5.0 Y2.577
G1 F9.0 X1.603
G1 Y2.126
G2 X1.4197 Y1.7781 I-0.4219 J0.0
G1 Y1.2115
G1 X3.2653 Y1.2097
G1 Y1.7781
G2 X3.0821 Y2.126 I0.2386 J0.3479
G1 Y2.5771
G1 X2.2586 Y2.577
G1 F5.0 Y2.6239
G1 F9.0 X1.5561
G1 Y2.126
G2 X1.3729 Y1.8037 I-0.375 J0.0
G1 Y1.1646
G1 X3.3122 Y1.1628
G1 Y1.8037
G2 X3.1289 Y2.126 I0.1918 J0.3223
G1 Y2.6239
G1 X2.2586
G1 F5.0 Y2.6708
G1 F9.0 X1.5092 Y2.6707
G1 Y2.126
G2 X1.326 Y1.8316 I-0.3281 J0.0
G1 Y1.1178
G1 X3.359 Y1.1158
G1 Y1.8316
G2 X3.1758 Y2.126 I0.1449 J0.2944
G1 Y2.6708
G1 X2.2586
G1 F5.0 Y2.7176
G1 F9.0 X1.4624
G1 Y2.126
G2 X1.2791 Y1.8624 I-0.2813 J0.0
G1 Y1.071
G1 X3.4059 Y1.0689
G1 Y1.8624
G2 X3.2227 Y2.126 I0.098 J0.2636
G1 Y2.7177
G1 X2.2586 Y2.7176
G1 F5.0 Y2.7645
G1 F9.0 X1.4155
G1 Y2.126
G2 X1.2322 Y1.8973 I-0.2344 J0.0
G1 Y1.0241
G1 X3.4528 Y1.022
G1 Y1.8973
G2 X3.2696 Y2.126 I0.0511 J0.2287
G1 Y2.7646
G1 X2.2586 Y2.7645
G1 F5.0 Y2.8114
G1 F9.0 X1.3686 Y2.8113
G1 Y2.126
G2 X1.1854 Y1.9385 I-0.1875 J0.0
G1 Y0.9773
G1 X3.4997 Y0.9751
G1 Y1.9385
G2 X3.3164 Y2.126 I0.0043 J0.1875
G1 Y2.8114
G1 X2.2586
( Pocket5 )
G64
S4000
( Pocket4 )
S4000
G0 Z0.05
G0 X1.1944 Y1.2296
G0 Z-0.9075
G1 F4.0 Z-0.97
G1 F5.0 Y1.9385 Z-1.095
G1 F9.0 X1.1854
G1 Y0.9733
G1 X1.1944
G1 Y1.9385
G0 Z0.05
G0 Y1.2296
G0 Z-1.0325
G1 F4.0 Z-1.095
G1 F5.0 Y1.9385 Z-1.22
G1 F9.0 X1.1854
G1 Y0.9733
G1 X1.1944
G1 Y1.9385
G0 Z0.05
G0 Y1.2296
G0 Z-1.1575
G1 F4.0 Z-1.22
G1 F5.0 Y1.9385 Z-1.345
G1 F9.0 X1.1854
G1 Y0.9733
G1 X1.1944
G1 Y1.9385
G1 F4.0 Y1.7116
G1 F5.0 Y1.9385 Z-1.385
G1 F9.0 X1.1854
G1 Y0.9733
G1 X1.1944
G1 Y1.9385
( Pocket3 )
S4000
G0 Z0.05
G0 X3.4997 Y1.2402
G0 Z-0.7275
G1 F4.0 Z-0.79
G1 F5.0 Y1.9401 Z-0.9134
G1 X3.4906 Z-0.915
G1 F9.0 Y0.9749
G1 X3.4997
G1 Y1.9401
G1 X3.4906
G0 Z0.05
G0 X3.4997 Y1.2402
G0 Z-0.8525
G1 F4.0 Z-0.915
G1 F5.0 Y1.9401 Z-1.0384
G1 X3.4906 Z-1.04
G1 F9.0 Y0.9749
G1 X3.4997
G1 Y1.9401
G1 X3.4906
G0 Z0.05
G0 X3.4997 Y1.2402
G0 Z-0.9775
G1 F4.0 Z-1.04
G1 F5.0 Y1.9401 Z-1.1634
G1 X3.4906 Z-1.165
G1 F9.0 Y0.9749
G1 X3.4997
G1 Y1.9401
G1 X3.4906
G0 Z0.05
G0 X3.4997 Y1.2402
G0 Z-1.1025
G1 F4.0 Z-1.165
G1 F5.0 Y1.9401 Z-1.2884
G1 X3.4906 Z-1.29
G1 F9.0 Y0.9749
G1 X3.4997
G1 Y1.9401
G1 X3.4906
G0 Z0.05
G0 X3.4997 Y1.4103
G0 Z-1.2275
G1 F4.0 Z-1.29
G1 F5.0 Y1.9401 Z-1.3834
G1 X3.4906 Z-1.385
G1 F9.0 Y0.9749
G1 X3.4997
G1 Y1.9401
G1 X3.4906
( Pocket6 )
S4000
( Drill1 )
G0 Z0.1
( T12 : 0.219 )
T12 M6
M3 S4000
G0 X0.4 Y2.5
G98
G83 X0.4 Y2.5 Z-0.1 Q0.25 R0.05 F10.0
G80
( Drill3 )
S4000
G0 Z0.1
G0 Y0.4
G98
G83 X0.4 Y0.4 Z-0.1 Q0.25 R0.05 F10.0
G80
( Drill5 )
S4000
G0 Z0.1
G0 X4.25
G98
G83 X4.25 Y0.4 Z-0.1 Q0.25 R0.05 F10.0
G80
( Drill7 )
S4000
G0 Z0.1
G0 Y2.5
G98
G83 X4.25 Y2.5 Z-0.1 Q0.25 R0.05 F10.0
G80
( Drill2 )
G0 Z0.1
( T13 : 0.219 )
T13 M6
M3 S4000
G0 X0.4
G98
G83 X0.4 Y2.5 Z-1.4 Q0.18 R0.1 F8.0
G80
( Drill4 )
S4000
G0 Z0.1
G0 Y0.4
G98
G83 X0.4 Y0.4 Z-1.4 Q0.18 R0.1 F8.0
G80
( Drill6 )
S4000
G0 Z0.1
G0 X4.25
G98
G83 X4.25 Y0.4 Z-1.4 Q0.18 R0.1 F8.0
G80
( Drill8 )
S4000
G0 Z0.1
G0 Y2.5
G98
G83 X4.25 Y2.5 Z-1.4 Q0.18 R0.1 F8.0
G80
G0 Z0.1
M5
M30
