( Made using CamBam - http://www.cambam.co.uk )
( TrackV2.Master.Mold.6.breakdown.short 5/12/2014 9:10:50 AM )
( T20 : 0.125 )
G20 G90 G61 G40
G0 Z1.5
( T20 : 0.125 )
T20 M6
( Profile1 )
G17
M3 S4000
G0 X28.1875 Y7.7989
G0 Z0.0625
G1 F4.0 Z0.0
G1 Y8.0257 Z-0.04
G1 F9.0 Y7.5257
G2 X28.125 Y7.4632 I-0.0625 J0.0
G1 X28.0
G2 X27.9375 Y7.5257 I0.0 J0.0625
G1 Y8.5257
G2 X28.0 Y8.5882 I0.0625 J0.0
G1 X33.0
G2 X33.0625 Y8.5257 I0.0 J-0.0625
G1 Y7.5257
G2 X33.0 Y7.4632 I-0.0625 J0.0
G1 X32.875
G2 X32.8125 Y7.5257 I0.0 J0.0625
G1 Y8.0257
G0 Z1.5
G0 X32.6213 Y7.4632
G0 Z0.0625
G1 F4.0 Z0.0
G1 X32.75 Z-0.0227
G3 X32.8125 Y7.5257 Z-0.04 I0.0 J0.0625
G2 F9.0 X32.75 Y7.4632 I-0.0625 J0.0
G1 X31.65
G2 X31.588 Y7.5176 I0.0 J0.0625
G1 X31.5859 Y7.5337
G1 X31.5828 Y7.5411
G1 X31.578 Y7.5474
G1 X31.5716 Y7.5523
G1 X31.5642 Y7.5554
G1 X31.5562 Y7.5564
G1 X31.5483 Y7.5554
G1 X31.5409 Y7.5523
G1 X31.5345 Y7.5474
G1 X31.5297 Y7.5411
G1 X31.5266 Y7.5337
G1 X31.5245 Y7.5176
G2 X31.4625 Y7.4632 I-0.062 J0.0082
G1 X30.5625
G2 X30.5 Y7.5257 I0.0 J0.0625
G1 Y8.0257
G0 Z1.5
G0 X30.3088 Y7.4632
G0 Z0.0625
G1 F4.0 Z0.0
G1 X30.4375 Z-0.0227
G3 X30.5 Y7.5257 Z-0.04 I0.0 J0.0625
G2 F9.0 X30.4375 Y7.4632 I-0.0625 J0.0
G1 X29.4375
G2 X29.3755 Y7.5176 I0.0 J0.0625
G1 X29.3734 Y7.5337
G1 X29.3703 Y7.5411
G1 X29.3655 Y7.5474
G1 X29.3591 Y7.5523
G1 X29.3517 Y7.5554
G1 X29.3437 Y7.5564
G1 X29.3358 Y7.5554
G1 X29.3284 Y7.5523
G1 X29.322 Y7.5474
G1 X29.3172 Y7.5411
G1 X29.3141 Y7.5337
G1 X29.312 Y7.5176
G2 X29.25 Y7.4632 I-0.062 J0.0082
G1 X28.25
G2 X28.1875 Y7.5257 I0.0 J0.0625
G0 Z1.5
G0 Y7.7989
G0 Z0.0225
G1 F4.0 Z-0.04
G1 Y8.0257 Z-0.08
G1 F9.0 Y7.5257
G2 X28.125 Y7.4632 I-0.0625 J0.0
G1 X28.0
G2 X27.9375 Y7.5257 I0.0 J0.0625
G1 Y8.5257
G2 X28.0 Y8.5882 I0.0625 J0.0
G1 X33.0
G2 X33.0625 Y8.5257 I0.0 J-0.0625
G1 Y7.5257
G2 X33.0 Y7.4632 I-0.0625 J0.0
G1 X32.875
G2 X32.8125 Y7.5257 I0.0 J0.0625
G1 Y8.0257
G0 Z1.5
G0 X32.6213 Y7.4632
G0 Z0.0225
G1 F4.0 Z-0.04
G1 X32.75 Z-0.0627
G3 X32.8125 Y7.5257 Z-0.08 I0.0 J0.0625
G2 F9.0 X32.75 Y7.4632 I-0.0625 J0.0
G1 X31.65
G2 X31.588 Y7.5176 I0.0 J0.0625
G1 X31.5859 Y7.5337
G1 X31.5828 Y7.5411
G1 X31.578 Y7.5474
G1 X31.5716 Y7.5523
G1 X31.5642 Y7.5554
G1 X31.5562 Y7.5564
G1 X31.5483 Y7.5554
G1 X31.5409 Y7.5523
G1 X31.5345 Y7.5474
G1 X31.5297 Y7.5411
G1 X31.5266 Y7.5337
G1 X31.5245 Y7.5176
G2 X31.4625 Y7.4632 I-0.062 J0.0082
G1 X30.5625
G2 X30.5 Y7.5257 I0.0 J0.0625
G1 Y8.0257
G0 Z1.5
G0 X30.3088 Y7.4632
G0 Z0.0225
G1 F4.0 Z-0.04
G1 X30.4375 Z-0.0627
G3 X30.5 Y7.5257 Z-0.08 I0.0 J0.0625
G2 F9.0 X30.4375 Y7.4632 I-0.0625 J0.0
G1 X29.4375
G2 X29.3755 Y7.5176 I0.0 J0.0625
G1 X29.3734 Y7.5337
G1 X29.3703 Y7.5411
G1 X29.3655 Y7.5474
G1 X29.3591 Y7.5523
G1 X29.3517 Y7.5554
G1 X29.3437 Y7.5564
G1 X29.3358 Y7.5554
G1 X29.3284 Y7.5523
G1 X29.322 Y7.5474
G1 X29.3172 Y7.5411
G1 X29.3141 Y7.5337
G1 X29.312 Y7.5176
G2 X29.25 Y7.4632 I-0.062 J0.0082
G1 X28.25
G2 X28.1875 Y7.5257 I0.0 J0.0625
G0 Z1.5
G0 Y7.7989
G0 Z-0.0175
G1 F4.0 Z-0.08
G1 Y8.0257 Z-0.12
G1 F9.0 Y7.5257
G2 X28.125 Y7.4632 I-0.0625 J0.0
G1 X28.0
G2 X27.9375 Y7.5257 I0.0 J0.0625
G1 Y8.5257
G2 X28.0 Y8.5882 I0.0625 J0.0
G1 X33.0
G2 X33.0625 Y8.5257 I0.0 J-0.0625
G1 Y7.5257
G2 X33.0 Y7.4632 I-0.0625 J0.0
G1 X32.875
G2 X32.8125 Y7.5257 I0.0 J0.0625
G1 Y8.0257
G0 Z1.5
G0 X32.6213 Y7.4632
G0 Z-0.0175
G1 F4.0 Z-0.08
G1 X32.75 Z-0.1027
G3 X32.8125 Y7.5257 Z-0.12 I0.0 J0.0625
G2 F9.0 X32.75 Y7.4632 I-0.0625 J0.0
G1 X31.65
G2 X31.588 Y7.5176 I0.0 J0.0625
G1 X31.5859 Y7.5337
G1 X31.5828 Y7.5411
G1 X31.578 Y7.5474
G1 X31.5716 Y7.5523
G1 X31.5642 Y7.5554
G1 X31.5562 Y7.5564
G1 X31.5483 Y7.5554
G1 X31.5409 Y7.5523
G1 X31.5345 Y7.5474
G1 X31.5297 Y7.5411
G1 X31.5266 Y7.5337
G1 X31.5245 Y7.5176
G2 X31.4625 Y7.4632 I-0.062 J0.0082
G1 X30.5625
G2 X30.5 Y7.5257 I0.0 J0.0625
G1 Y8.0257
G0 Z1.5
G0 X30.3088 Y7.4632
G0 Z-0.0175
G1 F4.0 Z-0.08
G1 X30.4375 Z-0.1027
G3 X30.5 Y7.5257 Z-0.12 I0.0 J0.0625
G2 F9.0 X30.4375 Y7.4632 I-0.0625 J0.0
G1 X29.4375
G2 X29.3755 Y7.5176 I0.0 J0.0625
G1 X29.3734 Y7.5337
G1 X29.3703 Y7.5411
G1 X29.3655 Y7.5474
G1 X29.3591 Y7.5523
G1 X29.3517 Y7.5554
G1 X29.3437 Y7.5564
G1 X29.3358 Y7.5554
G1 X29.3284 Y7.5523
G1 X29.322 Y7.5474
G1 X29.3172 Y7.5411
G1 X29.3141 Y7.5337
G1 X29.312 Y7.5176
G2 X29.25 Y7.4632 I-0.062 J0.0082
G1 X28.25
G2 X28.1875 Y7.5257 I0.0 J0.0625
G0 Z1.5
G0 Y7.7989
G0 Z-0.0575
G1 F4.0 Z-0.12
G1 Y8.0257 Z-0.16
G1 F9.0 Y7.5257
G2 X28.125 Y7.4632 I-0.0625 J0.0
G1 X28.0
G2 X27.9375 Y7.5257 I0.0 J0.0625
G1 Y8.5257
G2 X28.0 Y8.5882 I0.0625 J0.0
G1 X33.0
G2 X33.0625 Y8.5257 I0.0 J-0.0625
G1 Y7.5257
G2 X33.0 Y7.4632 I-0.0625 J0.0
G1 X32.875
G2 X32.8125 Y7.5257 I0.0 J0.0625
G1 Y8.0257
G0 Z1.5
G0 X32.6213 Y7.4632
G0 Z-0.0575
G1 F4.0 Z-0.12
G1 X32.75 Z-0.1427
G3 X32.8125 Y7.5257 Z-0.16 I0.0 J0.0625
G2 F9.0 X32.75 Y7.4632 I-0.0625 J0.0
G1 X31.65
G2 X31.588 Y7.5176 I0.0 J0.0625
G1 X31.5859 Y7.5337
G1 X31.5828 Y7.5411
G1 X31.578 Y7.5474
G1 X31.5716 Y7.5523
G1 X31.5642 Y7.5554
G1 X31.5562 Y7.5564
G1 X31.5483 Y7.5554
G1 X31.5409 Y7.5523
G1 X31.5345 Y7.5474
G1 X31.5297 Y7.5411
G1 X31.5266 Y7.5337
G1 X31.5245 Y7.5176
G2 X31.4625 Y7.4632 I-0.062 J0.0082
G1 X30.5625
G2 X30.5 Y7.5257 I0.0 J0.0625
G1 Y8.0257
G0 Z1.5
G0 X30.3088 Y7.4632
G0 Z-0.0575
G1 F4.0 Z-0.12
G1 X30.4375 Z-0.1427
G3 X30.5 Y7.5257 Z-0.16 I0.0 J0.0625
G2 F9.0 X30.4375 Y7.4632 I-0.0625 J0.0
G1 X29.4375
G2 X29.3755 Y7.5176 I0.0 J0.0625
G1 X29.3734 Y7.5337
G1 X29.3703 Y7.5411
G1 X29.3655 Y7.5474
G1 X29.3591 Y7.5523
G1 X29.3517 Y7.5554
G1 X29.3437 Y7.5564
G1 X29.3358 Y7.5554
G1 X29.3284 Y7.5523
G1 X29.322 Y7.5474
G1 X29.3172 Y7.5411
G1 X29.3141 Y7.5337
G1 X29.312 Y7.5176
G2 X29.25 Y7.4632 I-0.062 J0.0082
G1 X28.25
G2 X28.1875 Y7.5257 I0.0 J0.0625
G0 Z1.5
G0 Y7.7989
G0 Z-0.0975
G1 F4.0 Z-0.16
G1 Y8.0257 Z-0.2
G1 F9.0 Y7.5257
G2 X28.125 Y7.4632 I-0.0625 J0.0
G1 X28.0
G2 X27.9375 Y7.5257 I0.0 J0.0625
G1 Y8.5257
G2 X28.0 Y8.5882 I0.0625 J0.0
G1 X33.0
G2 X33.0625 Y8.5257 I0.0 J-0.0625
G1 Y7.5257
G2 X33.0 Y7.4632 I-0.0625 J0.0
G1 X32.875
G2 X32.8125 Y7.5257 I0.0 J0.0625
G1 Y8.0257
G0 Z1.5
G0 X32.6213 Y7.4632
G0 Z-0.0975
G1 F4.0 Z-0.16
G1 X32.75 Z-0.1827
G3 X32.8125 Y7.5257 Z-0.2 I0.0 J0.0625
G2 F9.0 X32.75 Y7.4632 I-0.0625 J0.0
G1 X31.65
G2 X31.588 Y7.5176 I0.0 J0.0625
G1 X31.5859 Y7.5337
G1 X31.5828 Y7.5411
G1 X31.578 Y7.5474
G1 X31.5716 Y7.5523
G1 X31.5642 Y7.5554
G1 X31.5562 Y7.5564
G1 X31.5483 Y7.5554
G1 X31.5409 Y7.5523
G1 X31.5345 Y7.5474
G1 X31.5297 Y7.5411
G1 X31.5266 Y7.5337
G1 X31.5245 Y7.5176
G2 X31.4625 Y7.4632 I-0.062 J0.0082
G1 X30.5625
G2 X30.5 Y7.5257 I0.0 J0.0625
G1 Y8.0257
G0 Z1.5
G0 X30.3088 Y7.4632
G0 Z-0.0975
G1 F4.0 Z-0.16
G1 X30.4375 Z-0.1827
G3 X30.5 Y7.5257 Z-0.2 I0.0 J0.0625
G2 F9.0 X30.4375 Y7.4632 I-0.0625 J0.0
G1 X29.4375
G2 X29.3755 Y7.5176 I0.0 J0.0625
G1 X29.3734 Y7.5337
G1 X29.3703 Y7.5411
G1 X29.3655 Y7.5474
G1 X29.3591 Y7.5523
G1 X29.3517 Y7.5554
G1 X29.3437 Y7.5564
G1 X29.3358 Y7.5554
G1 X29.3284 Y7.5523
G1 X29.322 Y7.5474
G1 X29.3172 Y7.5411
G1 X29.3141 Y7.5337
G1 X29.312 Y7.5176
G2 X29.25 Y7.4632 I-0.062 J0.0082
G1 X28.25
G2 X28.1875 Y7.5257 I0.0 J0.0625
G0 Z1.5
G0 Y7.7989
G0 Z-0.1375
G1 F4.0 Z-0.2
G1 Y8.0257 Z-0.24
G1 F9.0 Y7.5257
G2 X28.125 Y7.4632 I-0.0625 J0.0
G1 X28.0
G2 X27.9375 Y7.5257 I0.0 J0.0625
G1 Y8.5257
G2 X28.0 Y8.5882 I0.0625 J0.0
G1 X33.0
G2 X33.0625 Y8.5257 I0.0 J-0.0625
G1 Y7.5257
G2 X33.0 Y7.4632 I-0.0625 J0.0
G1 X32.875
G2 X32.8125 Y7.5257 I0.0 J0.0625
G1 Y8.0257
G0 Z1.5
G0 X32.6213 Y7.4632
G0 Z-0.1375
G1 F4.0 Z-0.2
G1 X32.75 Z-0.2227
G3 X32.8125 Y7.5257 Z-0.24 I0.0 J0.0625
G2 F9.0 X32.75 Y7.4632 I-0.0625 J0.0
G1 X31.65
G2 X31.588 Y7.5176 I0.0 J0.0625
G1 X31.5859 Y7.5337
G1 X31.5828 Y7.5411
G1 X31.578 Y7.5474
G1 X31.5716 Y7.5523
G1 X31.5642 Y7.5554
G1 X31.5562 Y7.5564
G1 X31.5483 Y7.5554
G1 X31.5409 Y7.5523
G1 X31.5345 Y7.5474
G1 X31.5297 Y7.5411
G1 X31.5266 Y7.5337
G1 X31.5245 Y7.5176
G2 X31.4625 Y7.4632 I-0.062 J0.0082
G1 X30.5625
G2 X30.5 Y7.5257 I0.0 J0.0625
G1 Y8.0257
G0 Z1.5
G0 X30.3088 Y7.4632
G0 Z-0.1375
G1 F4.0 Z-0.2
G1 X30.4375 Z-0.2227
G3 X30.5 Y7.5257 Z-0.24 I0.0 J0.0625
G2 F9.0 X30.4375 Y7.4632 I-0.0625 J0.0
G1 X29.4375
G2 X29.3755 Y7.5176 I0.0 J0.0625
G1 X29.3734 Y7.5337
G1 X29.3703 Y7.5411
G1 X29.3655 Y7.5474
G1 X29.3591 Y7.5523
G1 X29.3517 Y7.5554
G1 X29.3437 Y7.5564
G1 X29.3358 Y7.5554
G1 X29.3284 Y7.5523
G1 X29.322 Y7.5474
G1 X29.3172 Y7.5411
G1 X29.3141 Y7.5337
G1 X29.312 Y7.5176
G2 X29.25 Y7.4632 I-0.062 J0.0082
G1 X28.25
G2 X28.1875 Y7.5257 I0.0 J0.0625
G0 Z1.5
G0 Y7.9123
G0 Z-0.1775
G1 F4.0 Z-0.24
G1 Y8.0257 Z-0.26
G1 F9.0 Y7.5257
G2 X28.125 Y7.4632 I-0.0625 J0.0
G1 X28.0
G2 X27.9375 Y7.5257 I0.0 J0.0625
G1 Y8.5257
G2 X28.0 Y8.5882 I0.0625 J0.0
G1 X33.0
G2 X33.0625 Y8.5257 I0.0 J-0.0625
G1 Y7.5257
G2 X33.0 Y7.4632 I-0.0625 J0.0
G1 X32.875
G2 X32.8125 Y7.5257 I0.0 J0.0625
G1 Y8.0257
G0 Z1.5
G0 X32.7347 Y7.4632
G0 Z-0.1775
G1 F4.0 Z-0.24
G1 X32.75 Z-0.2427
G3 X32.8125 Y7.5257 Z-0.26 I0.0 J0.0625
G2 F9.0 X32.75 Y7.4632 I-0.0625 J0.0
G1 X31.65
G2 X31.588 Y7.5176 I0.0 J0.0625
G1 X31.5859 Y7.5337
G1 X31.5828 Y7.5411
G1 X31.578 Y7.5474
G1 X31.5716 Y7.5523
G1 X31.5642 Y7.5554
G1 X31.5562 Y7.5564
G1 X31.5483 Y7.5554
G1 X31.5409 Y7.5523
G1 X31.5345 Y7.5474
G1 X31.5297 Y7.5411
G1 X31.5266 Y7.5337
G1 X31.5245 Y7.5176
G2 X31.4625 Y7.4632 I-0.062 J0.0082
G1 X30.5625
G2 X30.5 Y7.5257 I0.0 J0.0625
G1 Y8.0257
G0 Z1.5
G0 X30.4222 Y7.4632
G0 Z-0.1775
G1 F4.0 Z-0.24
G1 X30.4375 Z-0.2427
G3 X30.5 Y7.5257 Z-0.26 I0.0 J0.0625
G2 F9.0 X30.4375 Y7.4632 I-0.0625 J0.0
G1 X29.4375
G2 X29.3755 Y7.5176 I0.0 J0.0625
G1 X29.3734 Y7.5337
G1 X29.3703 Y7.5411
G1 X29.3655 Y7.5474
G1 X29.3591 Y7.5523
G1 X29.3517 Y7.5554
G1 X29.3437 Y7.5564
G1 X29.3358 Y7.5554
G1 X29.3284 Y7.5523
G1 X29.322 Y7.5474
G1 X29.3172 Y7.5411
G1 X29.3141 Y7.5337
G1 X29.312 Y7.5176
G2 X29.25 Y7.4632 I-0.062 J0.0082
G1 X28.25
G2 X28.1875 Y7.5257 I0.0 J0.0625
G0 Z1.5
M5
M30
