( Made using CamBam - http://www.cambam.co.uk )
( TrackV2.Master.Mold.6.breakdown.long 5/10/2014 6:59:08 PM )
( T20 : 0.125 )
G20 G90 G61 G40
G0 Z2.0
( T20 : 0.125 )
T20 M6
( Profile1 )
G17
M3 S4000
G0 X14.8125 Y1.7269
G0 Z0.0625
G1 F5.0 Z0.0
G1 Y1.5 Z-0.04
G1 F9.0 Y2.0
G3 X14.75 Y2.0625 I-0.0625 J0.0
G1 X10.0
G3 X9.9375 Y2.0 I0.0 J-0.0625
G0 Z2.0
G0 X9.7463 Y-0.0625
G0 Z0.0625
G1 F5.0 Z0.0
G1 X9.875 Z-0.0227
G3 X9.9375 Y0.0 Z-0.04 I0.0 J0.0625
G2 F9.0 X9.875 Y-0.0625 I-0.0625 J0.0
G1 X5.125
G2 X5.0625 Y0.0 I0.0 J0.0625
G1 Y0.5
G0 Z2.0
G0 X4.8713 Y-0.0625
G0 Z0.0625
G1 F5.0 Z0.0
G1 X5.0 Z-0.0227
G3 X5.0625 Y0.0 Z-0.04 I0.0 J0.0625
G2 F9.0 X5.0 Y-0.0625 I-0.0625 J0.0
G1 X0.25
G2 X0.1875 Y0.0 I0.0 J0.0625
G1 Y0.5
G0 Z2.0
G0 X-0.0037 Y-0.0624
G0 Z0.0625
G1 F5.0 Z0.0
G3 X0.0 Y-0.0625 Z-0.0006 I0.0037 J0.0624
G1 X0.125 Z-0.0227
G3 X0.1875 Y0.0 Z-0.04 I0.0 J0.0625
G2 F9.0 X0.125 Y-0.0625 I-0.0625 J0.0
G1 X0.0
G2 X-0.0625 Y0.0 I0.0 J0.0625
G1 Y2.0
G2 X0.0 Y2.0625 I0.0625 J0.0
G1 X0.125
G2 X0.1875 Y2.0 I0.0 J-0.0625
G1 Y1.5
G0 Z2.0
G0 X0.3787 Y2.0625
G0 Z0.0625
G1 F5.0 Z0.0
G1 X0.25 Z-0.0227
G3 X0.1875 Y2.0 Z-0.04 I0.0 J-0.0625
G2 F9.0 X0.25 Y2.0625 I0.0625 J0.0
G1 X5.0
G2 X5.0625 Y2.0 I0.0 J-0.0625
G1 Y1.5
G0 Z2.0
G0 X5.2537 Y2.0625
G0 Z0.0625
G1 F5.0 Z0.0
G1 X5.125 Z-0.0227
G3 X5.0625 Y2.0 Z-0.04 I0.0 J-0.0625
G2 F9.0 X5.125 Y2.0625 I0.0625 J0.0
G1 X9.875
G2 X9.9375 Y2.0 I0.0 J-0.0625
G1 Y1.5
G0 Z2.0
G0 X15.0037 Y2.0624
G0 Z0.0625
G1 F5.0 Z0.0
G3 X15.0 Y2.0625 Z-0.0006 I-0.0037 J-0.0624
G1 X14.875 Z-0.0227
G3 X14.8125 Y2.0 Z-0.04 I0.0 J-0.0625
G2 F9.0 X14.875 Y2.0625 I0.0625 J0.0
G1 X15.0
G2 X15.0625 Y2.0 I0.0 J-0.0625
G1 Y0.0
G2 X15.0 Y-0.0625 I-0.0625 J0.0
G1 X14.875
G2 X14.8125 Y0.0 I0.0 J0.0625
G1 Y0.5
G0 Z2.0
G0 X14.6213 Y-0.0625
G0 Z0.0625
G1 F5.0 Z0.0
G1 X14.75 Z-0.0227
G3 X14.8125 Y0.0 Z-0.04 I0.0 J0.0625
G2 F9.0 X14.75 Y-0.0625 I-0.0625 J0.0
G1 X10.0
G2 X9.9375 Y0.0 I0.0 J0.0625
G1 Y0.5
G0 Z2.0
G0 X9.7463 Y-0.0625
G0 Z0.0225
G1 F5.0 Z-0.04
G1 X9.875 Z-0.0627
G3 X9.9375 Y0.0 Z-0.08 I0.0 J0.0625
G2 F9.0 X9.875 Y-0.0625 I-0.0625 J0.0
G1 X5.125
G2 X5.0625 Y0.0 I0.0 J0.0625
G1 Y0.5
G0 Z2.0
G0 X4.8713 Y-0.0625
G0 Z0.0225
G1 F5.0 Z-0.04
G1 X5.0 Z-0.0627
G3 X5.0625 Y0.0 Z-0.08 I0.0 J0.0625
G2 F9.0 X5.0 Y-0.0625 I-0.0625 J0.0
G1 X0.25
G2 X0.1875 Y0.0 I0.0 J0.0625
G1 Y0.5
G0 Z2.0
G0 X-0.0037 Y-0.0624
G0 Z0.0225
G1 F5.0 Z-0.04
G3 X0.0 Y-0.0625 Z-0.0406 I0.0037 J0.0624
G1 X0.125 Z-0.0627
G3 X0.1875 Y0.0 Z-0.08 I0.0 J0.0625
G2 F9.0 X0.125 Y-0.0625 I-0.0625 J0.0
G1 X0.0
G2 X-0.0625 Y0.0 I0.0 J0.0625
G1 Y2.0
G2 X0.0 Y2.0625 I0.0625 J0.0
G1 X0.125
G2 X0.1875 Y2.0 I0.0 J-0.0625
G1 Y1.5
G0 Z2.0
G0 X0.3787 Y2.0625
G0 Z0.0225
G1 F5.0 Z-0.04
G1 X0.25 Z-0.0627
G3 X0.1875 Y2.0 Z-0.08 I0.0 J-0.0625
G2 F9.0 X0.25 Y2.0625 I0.0625 J0.0
G1 X5.0
G2 X5.0625 Y2.0 I0.0 J-0.0625
G1 Y1.5
G0 Z2.0
G0 X5.2537 Y2.0625
G0 Z0.0225
G1 F5.0 Z-0.04
G1 X5.125 Z-0.0627
G3 X5.0625 Y2.0 Z-0.08 I0.0 J-0.0625
G2 F9.0 X5.125 Y2.0625 I0.0625 J0.0
G1 X9.875
G2 X9.9375 Y2.0 I0.0 J-0.0625
G1 Y1.5
G0 Z2.0
G0 X14.8125 Y1.7269
G0 Z0.0225
G1 F5.0 Z-0.04
G1 Y1.5 Z-0.08
G1 F9.0 Y2.0
G3 X14.75 Y2.0625 I-0.0625 J0.0
G1 X10.0
G3 X9.9375 Y2.0 I0.0 J-0.0625
G0 Z2.0
G0 X15.0037 Y2.0624
G0 Z0.0225
G1 F5.0 Z-0.04
G3 X15.0 Y2.0625 Z-0.0406 I-0.0037 J-0.0624
G1 X14.875 Z-0.0627
G3 X14.8125 Y2.0 Z-0.08 I0.0 J-0.0625
G2 F9.0 X14.875 Y2.0625 I0.0625 J0.0
G1 X15.0
G2 X15.0625 Y2.0 I0.0 J-0.0625
G1 Y0.0
G2 X15.0 Y-0.0625 I-0.0625 J0.0
G1 X14.875
G2 X14.8125 Y0.0 I0.0 J0.0625
G1 Y0.5
G0 Z2.0
G0 X14.6213 Y-0.0625
G0 Z0.0225
G1 F5.0 Z-0.04
G1 X14.75 Z-0.0627
G3 X14.8125 Y0.0 Z-0.08 I0.0 J0.0625
G2 F9.0 X14.75 Y-0.0625 I-0.0625 J0.0
G1 X10.0
G2 X9.9375 Y0.0 I0.0 J0.0625
G1 Y0.5
G0 Z2.0
G0 X9.7463 Y-0.0625
G0 Z-0.0175
G1 F5.0 Z-0.08
G1 X9.875 Z-0.1027
G3 X9.9375 Y0.0 Z-0.12 I0.0 J0.0625
G2 F9.0 X9.875 Y-0.0625 I-0.0625 J0.0
G1 X5.125
G2 X5.0625 Y0.0 I0.0 J0.0625
G1 Y0.5
G0 Z2.0
G0 X4.8713 Y-0.0625
G0 Z-0.0175
G1 F5.0 Z-0.08
G1 X5.0 Z-0.1027
G3 X5.0625 Y0.0 Z-0.12 I0.0 J0.0625
G2 F9.0 X5.0 Y-0.0625 I-0.0625 J0.0
G1 X0.25
G2 X0.1875 Y0.0 I0.0 J0.0625
G1 Y0.5
G0 Z2.0
G0 X-0.0037 Y-0.0624
G0 Z-0.0175
G1 F5.0 Z-0.08
G3 X0.0 Y-0.0625 Z-0.0806 I0.0037 J0.0624
G1 X0.125 Z-0.1027
G3 X0.1875 Y0.0 Z-0.12 I0.0 J0.0625
G2 F9.0 X0.125 Y-0.0625 I-0.0625 J0.0
G1 X0.0
G2 X-0.0625 Y0.0 I0.0 J0.0625
G1 Y2.0
G2 X0.0 Y2.0625 I0.0625 J0.0
G1 X0.125
G2 X0.1875 Y2.0 I0.0 J-0.0625
G1 Y1.5
G0 Z2.0
G0 X0.3787 Y2.0625
G0 Z-0.0175
G1 F5.0 Z-0.08
G1 X0.25 Z-0.1027
G3 X0.1875 Y2.0 Z-0.12 I0.0 J-0.0625
G2 F9.0 X0.25 Y2.0625 I0.0625 J0.0
G1 X5.0
G2 X5.0625 Y2.0 I0.0 J-0.0625
G1 Y1.5
G0 Z2.0
G0 X5.2537 Y2.0625
G0 Z-0.0175
G1 F5.0 Z-0.08
G1 X5.125 Z-0.1027
G3 X5.0625 Y2.0 Z-0.12 I0.0 J-0.0625
G2 F9.0 X5.125 Y2.0625 I0.0625 J0.0
G1 X9.875
G2 X9.9375 Y2.0 I0.0 J-0.0625
G1 Y1.5
G0 Z2.0
G0 X14.8125 Y1.7269
G0 Z-0.0175
G1 F5.0 Z-0.08
G1 Y1.5 Z-0.12
G1 F9.0 Y2.0
G3 X14.75 Y2.0625 I-0.0625 J0.0
G1 X10.0
G3 X9.9375 Y2.0 I0.0 J-0.0625
G0 Z2.0
G0 X15.0037 Y2.0624
G0 Z-0.0175
G1 F5.0 Z-0.08
G3 X15.0 Y2.0625 Z-0.0806 I-0.0037 J-0.0624
G1 X14.875 Z-0.1027
G3 X14.8125 Y2.0 Z-0.12 I0.0 J-0.0625
G2 F9.0 X14.875 Y2.0625 I0.0625 J0.0
G1 X15.0
G2 X15.0625 Y2.0 I0.0 J-0.0625
G1 Y0.0
G2 X15.0 Y-0.0625 I-0.0625 J0.0
G1 X14.875
G2 X14.8125 Y0.0 I0.0 J0.0625
G1 Y0.5
G0 Z2.0
G0 X14.6213 Y-0.0625
G0 Z-0.0175
G1 F5.0 Z-0.08
G1 X14.75 Z-0.1027
G3 X14.8125 Y0.0 Z-0.12 I0.0 J0.0625
G2 F9.0 X14.75 Y-0.0625 I-0.0625 J0.0
G1 X10.0
G2 X9.9375 Y0.0 I0.0 J0.0625
G1 Y0.5
G0 Z2.0
G0 X9.7463 Y-0.0625
G0 Z-0.0575
G1 F5.0 Z-0.12
G1 X9.875 Z-0.1427
G3 X9.9375 Y0.0 Z-0.16 I0.0 J0.0625
G2 F9.0 X9.875 Y-0.0625 I-0.0625 J0.0
G1 X5.125
G2 X5.0625 Y0.0 I0.0 J0.0625
G1 Y0.5
G0 Z2.0
G0 X4.8713 Y-0.0625
G0 Z-0.0575
G1 F5.0 Z-0.12
G1 X5.0 Z-0.1427
G3 X5.0625 Y0.0 Z-0.16 I0.0 J0.0625
G2 F9.0 X5.0 Y-0.0625 I-0.0625 J0.0
G1 X0.25
G2 X0.1875 Y0.0 I0.0 J0.0625
G1 Y0.5
G0 Z2.0
G0 X-0.0037 Y-0.0624
G0 Z-0.0575
G1 F5.0 Z-0.12
G3 X0.0 Y-0.0625 Z-0.1206 I0.0037 J0.0624
G1 X0.125 Z-0.1427
G3 X0.1875 Y0.0 Z-0.16 I0.0 J0.0625
G2 F9.0 X0.125 Y-0.0625 I-0.0625 J0.0
G1 X0.0
G2 X-0.0625 Y0.0 I0.0 J0.0625
G1 Y2.0
G2 X0.0 Y2.0625 I0.0625 J0.0
G1 X0.125
G2 X0.1875 Y2.0 I0.0 J-0.0625
G1 Y1.5
G0 Z2.0
G0 X0.3787 Y2.0625
G0 Z-0.0575
G1 F5.0 Z-0.12
G1 X0.25 Z-0.1427
G3 X0.1875 Y2.0 Z-0.16 I0.0 J-0.0625
G2 F9.0 X0.25 Y2.0625 I0.0625 J0.0
G1 X5.0
G2 X5.0625 Y2.0 I0.0 J-0.0625
G1 Y1.5
G0 Z2.0
G0 X5.2537 Y2.0625
G0 Z-0.0575
G1 F5.0 Z-0.12
G1 X5.125 Z-0.1427
G3 X5.0625 Y2.0 Z-0.16 I0.0 J-0.0625
G2 F9.0 X5.125 Y2.0625 I0.0625 J0.0
G1 X9.875
G2 X9.9375 Y2.0 I0.0 J-0.0625
G1 Y1.5
G0 Z2.0
G0 X14.8125 Y1.7269
G0 Z-0.0575
G1 F5.0 Z-0.12
G1 Y1.5 Z-0.16
G1 F9.0 Y2.0
G3 X14.75 Y2.0625 I-0.0625 J0.0
G1 X10.0
G3 X9.9375 Y2.0 I0.0 J-0.0625
G0 Z2.0
G0 X15.0037 Y2.0624
G0 Z-0.0575
G1 F5.0 Z-0.12
G3 X15.0 Y2.0625 Z-0.1206 I-0.0037 J-0.0624
G1 X14.875 Z-0.1427
G3 X14.8125 Y2.0 Z-0.16 I0.0 J-0.0625
G2 F9.0 X14.875 Y2.0625 I0.0625 J0.0
G1 X15.0
G2 X15.0625 Y2.0 I0.0 J-0.0625
G1 Y0.0
G2 X15.0 Y-0.0625 I-0.0625 J0.0
G1 X14.875
G2 X14.8125 Y0.0 I0.0 J0.0625
G1 Y0.5
G0 Z2.0
G0 X14.6213 Y-0.0625
G0 Z-0.0575
G1 F5.0 Z-0.12
G1 X14.75 Z-0.1427
G3 X14.8125 Y0.0 Z-0.16 I0.0 J0.0625
G2 F9.0 X14.75 Y-0.0625 I-0.0625 J0.0
G1 X10.0
G2 X9.9375 Y0.0 I0.0 J0.0625
G1 Y0.5
G0 Z2.0
G0 X9.7463 Y-0.0625
G0 Z-0.0975
G1 F5.0 Z-0.16
G1 X9.875 Z-0.1827
G3 X9.9375 Y0.0 Z-0.2 I0.0 J0.0625
G2 F9.0 X9.875 Y-0.0625 I-0.0625 J0.0
G1 X5.125
G2 X5.0625 Y0.0 I0.0 J0.0625
G1 Y0.5
G0 Z2.0
G0 X4.8713 Y-0.0625
G0 Z-0.0975
G1 F5.0 Z-0.16
G1 X5.0 Z-0.1827
G3 X5.0625 Y0.0 Z-0.2 I0.0 J0.0625
G2 F9.0 X5.0 Y-0.0625 I-0.0625 J0.0
G1 X0.25
G2 X0.1875 Y0.0 I0.0 J0.0625
G1 Y0.5
G0 Z2.0
G0 X-0.0037 Y-0.0624
G0 Z-0.0975
G1 F5.0 Z-0.16
G3 X0.0 Y-0.0625 Z-0.1606 I0.0037 J0.0624
G1 X0.125 Z-0.1827
G3 X0.1875 Y0.0 Z-0.2 I0.0 J0.0625
G2 F9.0 X0.125 Y-0.0625 I-0.0625 J0.0
G1 X0.0
G2 X-0.0625 Y0.0 I0.0 J0.0625
G1 Y2.0
G2 X0.0 Y2.0625 I0.0625 J0.0
G1 X0.125
G2 X0.1875 Y2.0 I0.0 J-0.0625
G1 Y1.5
G0 Z2.0
G0 X0.3787 Y2.0625
G0 Z-0.0975
G1 F5.0 Z-0.16
G1 X0.25 Z-0.1827
G3 X0.1875 Y2.0 Z-0.2 I0.0 J-0.0625
G2 F9.0 X0.25 Y2.0625 I0.0625 J0.0
G1 X5.0
G2 X5.0625 Y2.0 I0.0 J-0.0625
G1 Y1.5
G0 Z2.0
G0 X5.2537 Y2.0625
G0 Z-0.0975
G1 F5.0 Z-0.16
G1 X5.125 Z-0.1827
G3 X5.0625 Y2.0 Z-0.2 I0.0 J-0.0625
G2 F9.0 X5.125 Y2.0625 I0.0625 J0.0
G1 X9.875
G2 X9.9375 Y2.0 I0.0 J-0.0625
G1 Y1.5
G0 Z2.0
G0 X14.8125 Y1.7269
G0 Z-0.0975
G1 F5.0 Z-0.16
G1 Y1.5 Z-0.2
G1 F9.0 Y2.0
G3 X14.75 Y2.0625 I-0.0625 J0.0
G1 X10.0
G3 X9.9375 Y2.0 I0.0 J-0.0625
G0 Z2.0
G0 X15.0037 Y2.0624
G0 Z-0.0975
G1 F5.0 Z-0.16
G3 X15.0 Y2.0625 Z-0.1606 I-0.0037 J-0.0624
G1 X14.875 Z-0.1827
G3 X14.8125 Y2.0 Z-0.2 I0.0 J-0.0625
G2 F9.0 X14.875 Y2.0625 I0.0625 J0.0
G1 X15.0
G2 X15.0625 Y2.0 I0.0 J-0.0625
G1 Y0.0
G2 X15.0 Y-0.0625 I-0.0625 J0.0
G1 X14.875
G2 X14.8125 Y0.0 I0.0 J0.0625
G1 Y0.5
G0 Z2.0
G0 X14.6213 Y-0.0625
G0 Z-0.0975
G1 F5.0 Z-0.16
G1 X14.75 Z-0.1827
G3 X14.8125 Y0.0 Z-0.2 I0.0 J0.0625
G2 F9.0 X14.75 Y-0.0625 I-0.0625 J0.0
G1 X10.0
G2 X9.9375 Y0.0 I0.0 J0.0625
G1 Y0.5
G0 Z2.0
G0 X9.7463 Y-0.0625
G0 Z-0.1375
G1 F5.0 Z-0.2
G1 X9.875 Z-0.2227
G3 X9.9375 Y0.0 Z-0.24 I0.0 J0.0625
G2 F9.0 X9.875 Y-0.0625 I-0.0625 J0.0
G1 X5.125
G2 X5.0625 Y0.0 I0.0 J0.0625
G1 Y0.5
G0 Z2.0
G0 X4.8713 Y-0.0625
G0 Z-0.1375
G1 F5.0 Z-0.2
G1 X5.0 Z-0.2227
G3 X5.0625 Y0.0 Z-0.24 I0.0 J0.0625
G2 F9.0 X5.0 Y-0.0625 I-0.0625 J0.0
G1 X0.25
G2 X0.1875 Y0.0 I0.0 J0.0625
G1 Y0.5
G0 Z2.0
G0 X-0.0037 Y-0.0624
G0 Z-0.1375
G1 F5.0 Z-0.2
G3 X0.0 Y-0.0625 Z-0.2006 I0.0037 J0.0624
G1 X0.125 Z-0.2227
G3 X0.1875 Y0.0 Z-0.24 I0.0 J0.0625
G2 F9.0 X0.125 Y-0.0625 I-0.0625 J0.0
G1 X0.0
G2 X-0.0625 Y0.0 I0.0 J0.0625
G1 Y2.0
G2 X0.0 Y2.0625 I0.0625 J0.0
G1 X0.125
G2 X0.1875 Y2.0 I0.0 J-0.0625
G1 Y1.5
G0 Z2.0
G0 X0.3787 Y2.0625
G0 Z-0.1375
G1 F5.0 Z-0.2
G1 X0.25 Z-0.2227
G3 X0.1875 Y2.0 Z-0.24 I0.0 J-0.0625
G2 F9.0 X0.25 Y2.0625 I0.0625 J0.0
G1 X5.0
G2 X5.0625 Y2.0 I0.0 J-0.0625
G1 Y1.5
G0 Z2.0
G0 X5.2537 Y2.0625
G0 Z-0.1375
G1 F5.0 Z-0.2
G1 X5.125 Z-0.2227
G3 X5.0625 Y2.0 Z-0.24 I0.0 J-0.0625
G2 F9.0 X5.125 Y2.0625 I0.0625 J0.0
G1 X9.875
G2 X9.9375 Y2.0 I0.0 J-0.0625
G1 Y1.5
G0 Z2.0
G0 X14.8125 Y1.7269
G0 Z-0.1375
G1 F5.0 Z-0.2
G1 Y1.5 Z-0.24
G1 F9.0 Y2.0
G3 X14.75 Y2.0625 I-0.0625 J0.0
G1 X10.0
G3 X9.9375 Y2.0 I0.0 J-0.0625
G0 Z2.0
G0 X15.0037 Y2.0624
G0 Z-0.1375
G1 F5.0 Z-0.2
G3 X15.0 Y2.0625 Z-0.2006 I-0.0037 J-0.0624
G1 X14.875 Z-0.2227
G3 X14.8125 Y2.0 Z-0.24 I0.0 J-0.0625
G2 F9.0 X14.875 Y2.0625 I0.0625 J0.0
G1 X15.0
G2 X15.0625 Y2.0 I0.0 J-0.0625
G1 Y0.0
G2 X15.0 Y-0.0625 I-0.0625 J0.0
G1 X14.875
G2 X14.8125 Y0.0 I0.0 J0.0625
G1 Y0.5
G0 Z2.0
G0 X14.6213 Y-0.0625
G0 Z-0.1375
G1 F5.0 Z-0.2
G1 X14.75 Z-0.2227
G3 X14.8125 Y0.0 Z-0.24 I0.0 J0.0625
G2 F9.0 X14.75 Y-0.0625 I-0.0625 J0.0
G1 X10.0
G2 X9.9375 Y0.0 I0.0 J0.0625
G1 Y0.5
G0 Z2.0
G0 X9.8597 Y-0.0625
G0 Z-0.1775
G1 F5.0 Z-0.24
G1 X9.875 Z-0.2427
G3 X9.9375 Y0.0 Z-0.26 I0.0 J0.0625
G2 F9.0 X9.875 Y-0.0625 I-0.0625 J0.0
G1 X5.125
G2 X5.0625 Y0.0 I0.0 J0.0625
G1 Y0.5
G0 Z2.0
G0 X4.9847 Y-0.0625
G0 Z-0.1775
G1 F5.0 Z-0.24
G1 X5.0 Z-0.2427
G3 X5.0625 Y0.0 Z-0.26 I0.0 J0.0625
G2 F9.0 X5.0 Y-0.0625 I-0.0625 J0.0
G1 X0.25
G2 X0.1875 Y0.0 I0.0 J0.0625
G1 Y0.5
G0 Z2.0
G0 X0.1097 Y-0.0625
G0 Z-0.1775
G1 F5.0 Z-0.24
G1 X0.125 Z-0.2427
G3 X0.1875 Y0.0 Z-0.26 I0.0 J0.0625
G2 F9.0 X0.125 Y-0.0625 I-0.0625 J0.0
G1 X0.0
G2 X-0.0625 Y0.0 I0.0 J0.0625
G1 Y2.0
G2 X0.0 Y2.0625 I0.0625 J0.0
G1 X0.125
G2 X0.1875 Y2.0 I0.0 J-0.0625
G1 Y1.5
G0 Z2.0
G0 X0.2653 Y2.0625
G0 Z-0.1775
G1 F5.0 Z-0.24
G1 X0.25 Z-0.2427
G3 X0.1875 Y2.0 Z-0.26 I0.0 J-0.0625
G2 F9.0 X0.25 Y2.0625 I0.0625 J0.0
G1 X5.0
G2 X5.0625 Y2.0 I0.0 J-0.0625
G1 Y1.5
G0 Z2.0
G0 X5.1403 Y2.0625
G0 Z-0.1775
G1 F5.0 Z-0.24
G1 X5.125 Z-0.2427
G3 X5.0625 Y2.0 Z-0.26 I0.0 J-0.0625
G2 F9.0 X5.125 Y2.0625 I0.0625 J0.0
G1 X9.875
G2 X9.9375 Y2.0 I0.0 J-0.0625
G1 Y1.5
G0 Z2.0
G0 X14.8125 Y1.6134
G0 Z-0.1775
G1 F5.0 Z-0.24
G1 Y1.5 Z-0.26
G1 F9.0 Y2.0
G3 X14.75 Y2.0625 I-0.0625 J0.0
G1 X10.0
G3 X9.9375 Y2.0 I0.0 J-0.0625
G0 Z2.0
G0 X14.8903 Y2.0625
G0 Z-0.1775
G1 F5.0 Z-0.24
G1 X14.875 Z-0.2427
G3 X14.8125 Y2.0 Z-0.26 I0.0 J-0.0625
G2 F9.0 X14.875 Y2.0625 I0.0625 J0.0
G1 X15.0
G2 X15.0625 Y2.0 I0.0 J-0.0625
G1 Y0.0
G2 X15.0 Y-0.0625 I-0.0625 J0.0
G1 X14.875
G2 X14.8125 Y0.0 I0.0 J0.0625
G1 Y0.5
G0 Z2.0
G0 X14.7347 Y-0.0625
G0 Z-0.1775
G1 F5.0 Z-0.24
G1 X14.75 Z-0.2427
G3 X14.8125 Y0.0 Z-0.26 I0.0 J0.0625
G2 F9.0 X14.75 Y-0.0625 I-0.0625 J0.0
G1 X10.0
G2 X9.9375 Y0.0 I0.0 J0.0625
G1 Y0.5
G0 Z2.0
M5
M30
