( Made using CamBam - http://www.cambam.co.uk )
( TrackV2.Master.Mold.6.breakdown.Bottom 5/2/2014 2:45:44 PM )
( T20 : 0.125 )
G20 G90 G61 G40
G0 Z0.05
( T20 : 0.125 )
T20 M6
( Pocket1 )
G17
M3 S4000
G0 X0.1875 Y0.1076
G1 F10.0 Z0.0
G1 F5.0 Y-0.0625 Z-0.03
G1 F9.0 Y5.0625
G0 Z0.05
G0 Y0.1076
G0 Z0.0325
G1 F10.0 Z-0.03
G1 F5.0 Y-0.0625 Z-0.06
G1 F9.0 Y5.0625
G0 Z0.05
G0 Y0.1076
G0 Z0.0025
G1 F10.0 Z-0.06
G1 F5.0 Y-0.0625 Z-0.09
G1 F9.0 Y5.0625
G0 Z0.05
G0 Y0.1076
G0 Z-0.0275
G1 F10.0 Z-0.09
G1 F5.0 Y-0.0625 Z-0.12
G1 F9.0 Y5.0625
G0 Z0.05
G0 Y0.0509
G0 Z-0.0575
G1 F10.0 Z-0.12
G1 F5.0 Y-0.0625 Z-0.14
G1 F9.0 Y5.0625
G0 Z0.05
G0 Y-0.0058
G0 Z-0.0775
G1 F10.0 Z-0.14
G1 F5.0 Y-0.0625 Z-0.15
G1 F9.0 Y5.0625
( Pocket2 )
S4000
G0 Z0.05
G0 X5.0625 Y0.1076
G1 F10.0 Z0.0
G1 F5.0 Y-0.0625 Z-0.03
G1 F9.0 Y5.0625
G0 Z0.05
G0 Y0.1076
G0 Z0.0325
G1 F10.0 Z-0.03
G1 F5.0 Y-0.0625 Z-0.06
G1 F9.0 Y5.0625
G0 Z0.05
G0 Y0.1076
G0 Z0.0025
G1 F10.0 Z-0.06
G1 F5.0 Y-0.0625 Z-0.09
G1 F9.0 Y5.0625
G0 Z0.05
G0 Y0.1076
G0 Z-0.0275
G1 F10.0 Z-0.09
G1 F5.0 Y-0.0625 Z-0.12
G1 F9.0 Y5.0625
G0 Z0.05
G0 Y0.0509
G0 Z-0.0575
G1 F10.0 Z-0.12
G1 F5.0 Y-0.0625 Z-0.14
G1 F9.0 Y5.0625
G0 Z0.05
G0 Y-0.0058
G0 Z-0.0775
G1 F10.0 Z-0.14
G1 F5.0 Y-0.0625 Z-0.15
G1 F9.0 Y5.0625
( Pocket3 )
S4000
G0 Z0.05
G0 X9.9375 Y0.1076
G1 F10.0 Z0.0
G1 F5.0 Y-0.0625 Z-0.03
G1 F9.0 Y5.0625
G0 Z0.05
G0 Y0.1076
G0 Z0.0325
G1 F10.0 Z-0.03
G1 F5.0 Y-0.0625 Z-0.06
G1 F9.0 Y5.0625
G0 Z0.05
G0 Y0.1076
G0 Z0.0025
G1 F10.0 Z-0.06
G1 F5.0 Y-0.0625 Z-0.09
G1 F9.0 Y5.0625
G0 Z0.05
G0 Y0.1076
G0 Z-0.0275
G1 F10.0 Z-0.09
G1 F5.0 Y-0.0625 Z-0.12
G1 F9.0 Y5.0625
G0 Z0.05
G0 Y0.0509
G0 Z-0.0575
G1 F10.0 Z-0.12
G1 F5.0 Y-0.0625 Z-0.14
G1 F9.0 Y5.0625
G0 Z0.05
G0 Y-0.0058
G0 Z-0.0775
G1 F10.0 Z-0.14
G1 F5.0 Y-0.0625 Z-0.15
G1 F9.0 Y5.0625
( Pocket4 )
S4000
G0 Z0.05
G0 X14.8125 Y0.1076
G1 F10.0 Z0.0
G1 F5.0 Y-0.0625 Z-0.03
G1 F9.0 Y5.0625
G0 Z0.05
G0 Y0.1076
G0 Z0.0325
G1 F10.0 Z-0.03
G1 F5.0 Y-0.0625 Z-0.06
G1 F9.0 Y5.0625
G0 Z0.05
G0 Y0.1076
G0 Z0.0025
G1 F10.0 Z-0.06
G1 F5.0 Y-0.0625 Z-0.09
G1 F9.0 Y5.0625
G0 Z0.05
G0 Y0.1076
G0 Z-0.0275
G1 F10.0 Z-0.09
G1 F5.0 Y-0.0625 Z-0.12
G1 F9.0 Y5.0625
G0 Z0.05
G0 Y0.0509
G0 Z-0.0575
G1 F10.0 Z-0.12
G1 F5.0 Y-0.0625 Z-0.14
G1 F9.0 Y5.0625
G0 Z0.05
G0 Y-0.0058
G0 Z-0.0775
G1 F10.0 Z-0.14
G1 F5.0 Y-0.0625 Z-0.15
G1 F9.0 Y5.0625
( Pocket5 )
S4000
G0 Z0.05
G0 X0.1076 Y0.1875
G1 F10.0 Z0.0
G1 F5.0 X-0.0625 Z-0.03
G1 F9.0 X15.0625
G0 Z0.05
G0 X0.1076
G0 Z0.0325
G1 F10.0 Z-0.03
G1 F5.0 X-0.0625 Z-0.06
G1 F9.0 X15.0625
G0 Z0.05
G0 X0.1076
G0 Z0.0025
G1 F10.0 Z-0.06
G1 F5.0 X-0.0625 Z-0.09
G1 F9.0 X15.0625
G0 Z0.05
G0 X0.1076
G0 Z-0.0275
G1 F10.0 Z-0.09
G1 F5.0 X-0.0625 Z-0.12
G1 F9.0 X15.0625
G0 Z0.05
G0 X0.0509
G0 Z-0.0575
G1 F10.0 Z-0.12
G1 F5.0 X-0.0625 Z-0.14
G1 F9.0 X15.0625
G0 Z0.05
G0 X-0.0058
G0 Z-0.0775
G1 F10.0 Z-0.14
G1 F5.0 X-0.0625 Z-0.15
G1 F9.0 X15.0625
( Pocket6 )
S4000
G0 Z0.05
G0 X0.1076 Y2.5
G1 F10.0 Z0.0
G1 F5.0 X-0.0625 Z-0.03
G1 F9.0 X15.0625
G0 Z0.05
G0 X0.1076
G0 Z0.0325
G1 F10.0 Z-0.03
G1 F5.0 X-0.0625 Z-0.06
G1 F9.0 X15.0625
G0 Z0.05
G0 X0.1076
G0 Z0.0025
G1 F10.0 Z-0.06
G1 F5.0 X-0.0625 Z-0.09
G1 F9.0 X15.0625
G0 Z0.05
G0 X0.1076
G0 Z-0.0275
G1 F10.0 Z-0.09
G1 F5.0 X-0.0625 Z-0.12
G1 F9.0 X15.0625
G0 Z0.05
G0 X0.0509
G0 Z-0.0575
G1 F10.0 Z-0.12
G1 F5.0 X-0.0625 Z-0.14
G1 F9.0 X15.0625
G0 Z0.05
G0 X-0.0058
G0 Z-0.0775
G1 F10.0 Z-0.14
G1 F5.0 X-0.0625 Z-0.15
G1 F9.0 X15.0625
( Pocket7 )
S4000
G0 Z0.05
G0 X0.1076 Y4.8125
G1 F10.0 Z0.0
G1 F5.0 X-0.0625 Z-0.03
G1 F9.0 X15.0625
G0 Z0.05
G0 X0.1076
G0 Z0.0325
G1 F10.0 Z-0.03
G1 F5.0 X-0.0625 Z-0.06
G1 F9.0 X15.0625
G0 Z0.05
G0 X0.1076
G0 Z0.0025
G1 F10.0 Z-0.06
G1 F5.0 X-0.0625 Z-0.09
G1 F9.0 X15.0625
G0 Z0.05
G0 X0.1076
G0 Z-0.0275
G1 F10.0 Z-0.09
G1 F5.0 X-0.0625 Z-0.12
G1 F9.0 X15.0625
G0 Z0.05
G0 X0.0509
G0 Z-0.0575
G1 F10.0 Z-0.12
G1 F5.0 X-0.0625 Z-0.14
G1 F9.0 X15.0625
G0 Z0.05
G0 X-0.0058
G0 Z-0.0775
G1 F10.0 Z-0.14
G1 F5.0 X-0.0625 Z-0.15
G1 F9.0 X15.0625
G0 Z0.05
M5
M30
