( Made using CamBam - http://www.cambam.co.uk )
( TrackV2.Master.Mold.6.breakdown.top 5/6/2014 10:02:51 AM )
( T21 : 0.75 )
G20 G90 G61 G40
G0 Z0.05
( T21 : 0.75 )
T21 M6
( Pocket1 )
G17
M3 S4000
G0 X1.9568 Y1.2245
G1 F5.0 Z0.0
G1 X1.9558 Y1.228 Z-0.0006
G1 X1.9529 Y1.2356 Z-0.0021
G1 X1.9495 Y1.243 Z-0.0035
G1 X1.9457 Y1.2502 Z-0.005
G1 X1.9414 Y1.2572 Z-0.0064
G1 X1.9366 Y1.2638 Z-0.0078
G1 X1.9314 Y1.2701 Z-0.0093
G1 X1.9258 Y1.2761 Z-0.0107
G1 X1.9199 Y1.2817 Z-0.0122
G1 X1.9136 Y1.2869 Z-0.0136
G1 X1.9069 Y1.2916 Z-0.015
G1 X1.9 Y1.2959 Z-0.0165
G1 X1.8928 Y1.2998 Z-0.0179
G1 X1.8854 Y1.3031 Z-0.0194
G1 X1.8777 Y1.306 Z-0.0208
G1 X1.8699 Y1.3084 Z-0.0222
G1 X1.8619 Y1.3102 Z-0.0237
G1 X1.8539 Y1.3116 Z-0.0251
G1 X1.8458 Y1.3124 Z-0.0266
G1 X1.8376 Y1.3126 Z-0.028
G1 X1.8294 Y1.3124 Z-0.0294
G1 X1.8213 Y1.3116 Z-0.0309
G1 X1.8133 Y1.3102 Z-0.0323
G1 X1.8053 Y1.3084 Z-0.0338
G1 X1.7975 Y1.306 Z-0.0352
G1 X1.7898 Y1.3031 Z-0.0366
G1 X1.7824 Y1.2998 Z-0.0381
G1 X1.7752 Y1.2959 Z-0.0395
G1 X1.7683 Y1.2916 Z-0.041
G1 X1.7616 Y1.2869 Z-0.0424
G1 X1.7553 Y1.2817 Z-0.0438
G1 X1.7494 Y1.2761 Z-0.0453
G1 X1.7438 Y1.2701 Z-0.0467
G1 X1.7386 Y1.2638 Z-0.0482
G1 X1.7338 Y1.2572 Z-0.0496
G1 X1.7295 Y1.2502 Z-0.051
G1 X1.7257 Y1.243 Z-0.0525
G1 X1.7223 Y1.2356 Z-0.0539
G1 X1.7194 Y1.228 Z-0.0554
G1 X1.7171 Y1.2201 Z-0.0568
G1 X1.7152 Y1.2122 Z-0.0582
G1 X1.7139 Y1.2041 Z-0.0597
G1 X1.7131 Y1.196 Z-0.0611
G1 X1.7128 Y1.1878 Z-0.0626
G1 X1.7131 Y1.1797 Z-0.064
G1 X1.7139 Y1.1716 Z-0.0654
G1 X1.7152 Y1.1635 Z-0.0669
G1 X1.7171 Y1.1555 Z-0.0683
G1 X1.7194 Y1.1477 Z-0.0698
G1 X1.7223 Y1.1401 Z-0.0712
G1 X1.7257 Y1.1326 Z-0.0726
G1 X1.7295 Y1.1254 Z-0.0741
G1 X1.7338 Y1.1185 Z-0.0755
G1 X1.7386 Y1.1119 Z-0.077
G1 X1.7438 Y1.1056 Z-0.0784
G1 X1.7494 Y1.0996 Z-0.0798
G1 X1.7553 Y1.094 Z-0.0813
G1 X1.7616 Y1.0888 Z-0.0827
G1 X1.7683 Y1.0841 Z-0.0842
G1 X1.7752 Y1.0798 Z-0.0856
G1 X1.7824 Y1.0759 Z-0.087
G1 X1.7898 Y1.0725 Z-0.0885
G1 X1.7975 Y1.0697 Z-0.0899
G1 X1.8053 Y1.0673 Z-0.0914
G1 X1.8133 Y1.0654 Z-0.0928
G1 X1.8213 Y1.0641 Z-0.0942
G1 X1.8294 Y1.0633 Z-0.0957
G1 X1.8376 Y1.063 Z-0.0971
G1 X1.8458 Y1.0633 Z-0.0986
G1 X1.8539 Y1.0641 Z-0.1
G1 F9.0 X1.8619 Y1.0654
G1 X1.8699 Y1.0673
G1 X1.8777 Y1.0697
G1 X1.8854 Y1.0725
G1 X1.8928 Y1.0759
G1 X1.9 Y1.0798
G1 X1.9069 Y1.0841
G1 X1.9136 Y1.0888
G1 X1.9199 Y1.094
G1 X1.9258 Y1.0996
G1 X1.9314 Y1.1056
G1 X1.9366 Y1.1119
G1 X1.9414 Y1.1185
G1 X1.9457 Y1.1254
G1 X1.9495 Y1.1326
G1 X1.9529 Y1.1401
G1 X1.9558 Y1.1477
G1 X1.9581 Y1.1555
G1 X1.96 Y1.1635
G1 X1.9613 Y1.1716
G1 X1.9621 Y1.1797
G1 X1.9624 Y1.1878
G1 X1.9621 Y1.196
G1 X1.9613 Y1.2041
G1 X1.96 Y1.2122
G1 X1.9581 Y1.2201
G1 X1.9558 Y1.228
G1 X1.9529 Y1.2356
G1 X1.9495 Y1.243
G1 X1.9457 Y1.2502
G1 X1.9414 Y1.2572
G1 X1.9366 Y1.2638
G1 X1.9314 Y1.2701
G1 X1.9258 Y1.2761
G1 X1.9199 Y1.2817
G1 X1.9136 Y1.2869
G1 X1.9069 Y1.2916
G1 X1.9 Y1.2959
G1 X1.8928 Y1.2998
G1 X1.8854 Y1.3031
G1 X1.8777 Y1.306
G1 X1.8699 Y1.3084
G1 X1.8619 Y1.3102
G1 X1.8539 Y1.3116
G1 X1.8458 Y1.3124
G1 X1.8376 Y1.3126
G1 X1.8294 Y1.3124
G1 X1.8213 Y1.3116
G1 X1.8133 Y1.3102
G1 X1.8053 Y1.3084
G1 X1.7975 Y1.306
G1 X1.7898 Y1.3031
G1 X1.7824 Y1.2998
G1 X1.7752 Y1.2959
G1 X1.7683 Y1.2916
G1 X1.7616 Y1.2869
G1 X1.7553 Y1.2817
G1 X1.7494 Y1.2761
G1 X1.7438 Y1.2701
G1 X1.7386 Y1.2638
G1 X1.7338 Y1.2572
G1 X1.7295 Y1.2502
G1 X1.7257 Y1.243
G1 X1.7223 Y1.2356
G1 X1.7194 Y1.228
G1 X1.7171 Y1.2201
G1 X1.7152 Y1.2122
G1 X1.7139 Y1.2041
G1 X1.7131 Y1.196
G1 X1.7128 Y1.1878
G1 X1.7131 Y1.1797
G1 X1.7139 Y1.1716
G1 X1.7152 Y1.1635
G1 X1.7171 Y1.1555
G1 X1.7194 Y1.1477
G1 X1.7223 Y1.1401
G1 X1.7257 Y1.1326
G1 X1.7295 Y1.1254
G1 X1.7338 Y1.1185
G1 X1.7386 Y1.1119
G1 X1.7438 Y1.1056
G1 X1.7494 Y1.0996
G1 X1.7553 Y1.094
G1 X1.7616 Y1.0888
G1 X1.7683 Y1.0841
G1 X1.7752 Y1.0798
G1 X1.7824 Y1.0759
G1 X1.7898 Y1.0725
G1 X1.7975 Y1.0697
G1 X1.8053 Y1.0673
G1 X1.8133 Y1.0654
G1 X1.8213 Y1.0641
G1 X1.8294 Y1.0633
G1 X1.8376 Y1.063
G1 X1.8458 Y1.0633
G1 X1.8539 Y1.0641
G1 F5.0 X1.9568 Y1.2245
G1 X1.9558 Y1.228 Z-0.1006
G1 X1.9529 Y1.2356 Z-0.1021
G1 X1.9495 Y1.243 Z-0.1035
G1 X1.9457 Y1.2502 Z-0.105
G1 X1.9414 Y1.2572 Z-0.1064
G1 X1.9366 Y1.2638 Z-0.1078
G1 X1.9314 Y1.2701 Z-0.1093
G1 X1.9258 Y1.2761 Z-0.1107
G1 X1.9199 Y1.2817 Z-0.1122
G1 X1.9136 Y1.2869 Z-0.1136
G1 X1.9069 Y1.2916 Z-0.115
G1 X1.9 Y1.2959 Z-0.1165
G1 X1.8928 Y1.2998 Z-0.1179
G1 X1.8854 Y1.3031 Z-0.1194
G1 X1.8777 Y1.306 Z-0.1208
G1 X1.8699 Y1.3084 Z-0.1222
G1 X1.8619 Y1.3102 Z-0.1237
G1 X1.8539 Y1.3116 Z-0.1251
G1 X1.8458 Y1.3124 Z-0.1266
G1 X1.8376 Y1.3126 Z-0.128
G1 X1.8294 Y1.3124 Z-0.1294
G1 X1.8213 Y1.3116 Z-0.1309
G1 X1.8133 Y1.3102 Z-0.1323
G1 X1.8053 Y1.3084 Z-0.1338
G1 X1.7975 Y1.306 Z-0.1352
G1 X1.7898 Y1.3031 Z-0.1366
G1 X1.7824 Y1.2998 Z-0.1381
G1 X1.7752 Y1.2959 Z-0.1395
G1 X1.7683 Y1.2916 Z-0.141
G1 X1.7616 Y1.2869 Z-0.1424
G1 X1.7553 Y1.2817 Z-0.1438
G1 X1.7494 Y1.2761 Z-0.1453
G1 X1.7438 Y1.2701 Z-0.1467
G1 X1.7386 Y1.2638 Z-0.1482
G1 X1.7338 Y1.2572 Z-0.1496
G1 X1.7295 Y1.2502 Z-0.151
G1 X1.7257 Y1.243 Z-0.1525
G1 X1.7223 Y1.2356 Z-0.1539
G1 X1.7194 Y1.228 Z-0.1554
G1 X1.7171 Y1.2201 Z-0.1568
G1 X1.7152 Y1.2122 Z-0.1582
G1 X1.7139 Y1.2041 Z-0.1597
G1 X1.7131 Y1.196 Z-0.1611
G1 X1.7128 Y1.1878 Z-0.1626
G1 X1.7131 Y1.1797 Z-0.164
G1 X1.7139 Y1.1716 Z-0.1654
G1 X1.7152 Y1.1635 Z-0.1669
G1 X1.7171 Y1.1555 Z-0.1683
G1 X1.7194 Y1.1477 Z-0.1698
G1 X1.7223 Y1.1401 Z-0.1712
G1 X1.7257 Y1.1326 Z-0.1726
G1 X1.7295 Y1.1254 Z-0.1741
G1 X1.7338 Y1.1185 Z-0.1755
G1 X1.7386 Y1.1119 Z-0.177
G1 X1.7438 Y1.1056 Z-0.1784
G1 X1.7494 Y1.0996 Z-0.1798
G1 X1.7553 Y1.094 Z-0.1813
G1 X1.7616 Y1.0888 Z-0.1827
G1 X1.7683 Y1.0841 Z-0.1842
G1 X1.7752 Y1.0798 Z-0.1856
G1 X1.7824 Y1.0759 Z-0.187
G1 X1.7898 Y1.0725 Z-0.1885
G1 X1.7975 Y1.0697 Z-0.1899
G1 X1.8053 Y1.0673 Z-0.1914
G1 X1.8133 Y1.0654 Z-0.1928
G1 X1.8213 Y1.0641 Z-0.1942
G1 X1.8294 Y1.0633 Z-0.1957
G1 X1.8376 Y1.063 Z-0.1971
G1 X1.8458 Y1.0633 Z-0.1986
G1 X1.8539 Y1.0641 Z-0.2
G1 F9.0 X1.8619 Y1.0654
G1 X1.8699 Y1.0673
G1 X1.8777 Y1.0697
G1 X1.8854 Y1.0725
G1 X1.8928 Y1.0759
G1 X1.9 Y1.0798
G1 X1.9069 Y1.0841
G1 X1.9136 Y1.0888
G1 X1.9199 Y1.094
G1 X1.9258 Y1.0996
G1 X1.9314 Y1.1056
G1 X1.9366 Y1.1119
G1 X1.9414 Y1.1185
G1 X1.9457 Y1.1254
G1 X1.9495 Y1.1326
G1 X1.9529 Y1.1401
G1 X1.9558 Y1.1477
G1 X1.9581 Y1.1555
G1 X1.96 Y1.1635
G1 X1.9613 Y1.1716
G1 X1.9621 Y1.1797
G1 X1.9624 Y1.1878
G1 X1.9621 Y1.196
G1 X1.9613 Y1.2041
G1 X1.96 Y1.2122
G1 X1.9581 Y1.2201
G1 X1.9558 Y1.228
G1 X1.9529 Y1.2356
G1 X1.9495 Y1.243
G1 X1.9457 Y1.2502
G1 X1.9414 Y1.2572
G1 X1.9366 Y1.2638
G1 X1.9314 Y1.2701
G1 X1.9258 Y1.2761
G1 X1.9199 Y1.2817
G1 X1.9136 Y1.2869
G1 X1.9069 Y1.2916
G1 X1.9 Y1.2959
G1 X1.8928 Y1.2998
G1 X1.8854 Y1.3031
G1 X1.8777 Y1.306
G1 X1.8699 Y1.3084
G1 X1.8619 Y1.3102
G1 X1.8539 Y1.3116
G1 X1.8458 Y1.3124
G1 X1.8376 Y1.3126
G1 X1.8294 Y1.3124
G1 X1.8213 Y1.3116
G1 X1.8133 Y1.3102
G1 X1.8053 Y1.3084
G1 X1.7975 Y1.306
G1 X1.7898 Y1.3031
G1 X1.7824 Y1.2998
G1 X1.7752 Y1.2959
G1 X1.7683 Y1.2916
G1 X1.7616 Y1.2869
G1 X1.7553 Y1.2817
G1 X1.7494 Y1.2761
G1 X1.7438 Y1.2701
G1 X1.7386 Y1.2638
G1 X1.7338 Y1.2572
G1 X1.7295 Y1.2502
G1 X1.7257 Y1.243
G1 X1.7223 Y1.2356
G1 X1.7194 Y1.228
G1 X1.7171 Y1.2201
G1 X1.7152 Y1.2122
G1 X1.7139 Y1.2041
G1 X1.7131 Y1.196
G1 X1.7128 Y1.1878
G1 X1.7131 Y1.1797
G1 X1.7139 Y1.1716
G1 X1.7152 Y1.1635
G1 X1.7171 Y1.1555
G1 X1.7194 Y1.1477
G1 X1.7223 Y1.1401
G1 X1.7257 Y1.1326
G1 X1.7295 Y1.1254
G1 X1.7338 Y1.1185
G1 X1.7386 Y1.1119
G1 X1.7438 Y1.1056
G1 X1.7494 Y1.0996
G1 X1.7553 Y1.094
G1 X1.7616 Y1.0888
G1 X1.7683 Y1.0841
G1 X1.7752 Y1.0798
G1 X1.7824 Y1.0759
G1 X1.7898 Y1.0725
G1 X1.7975 Y1.0697
G1 X1.8053 Y1.0673
G1 X1.8133 Y1.0654
G1 X1.8213 Y1.0641
G1 X1.8294 Y1.0633
G1 X1.8376 Y1.063
G1 X1.8458 Y1.0633
G1 X1.8539 Y1.0641
G1 F5.0 X1.7729 Y1.2945
G1 X1.7683 Y1.2916 Z-0.201
G1 X1.7616 Y1.2869 Z-0.2024
G1 X1.7553 Y1.2817 Z-0.2038
G1 X1.7494 Y1.2761 Z-0.2053
G1 X1.7438 Y1.2701 Z-0.2067
G1 X1.7386 Y1.2638 Z-0.2082
G1 X1.7338 Y1.2572 Z-0.2096
G1 X1.7295 Y1.2502 Z-0.211
G1 X1.7257 Y1.243 Z-0.2125
G1 X1.7223 Y1.2356 Z-0.2139
G1 X1.7194 Y1.228 Z-0.2154
G1 X1.7171 Y1.2201 Z-0.2168
G1 X1.7152 Y1.2122 Z-0.2182
G1 X1.7139 Y1.2041 Z-0.2197
G1 X1.7131 Y1.196 Z-0.2211
G1 X1.7128 Y1.1878 Z-0.2226
G1 X1.7131 Y1.1797 Z-0.224
G1 X1.7139 Y1.1716 Z-0.2254
G1 X1.7152 Y1.1635 Z-0.2269
G1 X1.7171 Y1.1555 Z-0.2283
G1 X1.7194 Y1.1477 Z-0.2298
G1 X1.7223 Y1.1401 Z-0.2312
G1 X1.7257 Y1.1326 Z-0.2326
G1 X1.7295 Y1.1254 Z-0.2341
G1 X1.7338 Y1.1185 Z-0.2355
G1 X1.7386 Y1.1119 Z-0.237
G1 X1.7438 Y1.1056 Z-0.2384
G1 X1.7494 Y1.0996 Z-0.2398
G1 X1.7553 Y1.094 Z-0.2413
G1 X1.7616 Y1.0888 Z-0.2427
G1 X1.7683 Y1.0841 Z-0.2442
G1 X1.7752 Y1.0798 Z-0.2456
G1 X1.7824 Y1.0759 Z-0.247
G1 X1.7898 Y1.0725 Z-0.2485
G1 X1.7975 Y1.0697 Z-0.2499
G1 X1.8053 Y1.0673 Z-0.2514
G1 X1.8133 Y1.0654 Z-0.2528
G1 X1.8213 Y1.0641 Z-0.2542
G1 X1.8294 Y1.0633 Z-0.2557
G1 X1.8376 Y1.063 Z-0.2571
G1 X1.8458 Y1.0633 Z-0.2586
G1 X1.8539 Y1.0641 Z-0.26
G1 F9.0 X1.8619 Y1.0654
G1 X1.8699 Y1.0673
G1 X1.8777 Y1.0697
G1 X1.8854 Y1.0725
G1 X1.8928 Y1.0759
G1 X1.9 Y1.0798
G1 X1.9069 Y1.0841
G1 X1.9136 Y1.0888
G1 X1.9199 Y1.094
G1 X1.9258 Y1.0996
G1 X1.9314 Y1.1056
G1 X1.9366 Y1.1119
G1 X1.9414 Y1.1185
G1 X1.9457 Y1.1254
G1 X1.9495 Y1.1326
G1 X1.9529 Y1.1401
G1 X1.9558 Y1.1477
G1 X1.9581 Y1.1555
G1 X1.96 Y1.1635
G1 X1.9613 Y1.1716
G1 X1.9621 Y1.1797
G1 X1.9624 Y1.1878
G1 X1.9621 Y1.196
G1 X1.9613 Y1.2041
G1 X1.96 Y1.2122
G1 X1.9581 Y1.2201
G1 X1.9558 Y1.228
G1 X1.9529 Y1.2356
G1 X1.9495 Y1.243
G1 X1.9457 Y1.2502
G1 X1.9414 Y1.2572
G1 X1.9366 Y1.2638
G1 X1.9314 Y1.2701
G1 X1.9258 Y1.2761
G1 X1.9199 Y1.2817
G1 X1.9136 Y1.2869
G1 X1.9069 Y1.2916
G1 X1.9 Y1.2959
G1 X1.8928 Y1.2998
G1 X1.8854 Y1.3031
G1 X1.8777 Y1.306
G1 X1.8699 Y1.3084
G1 X1.8619 Y1.3102
G1 X1.8539 Y1.3116
G1 X1.8458 Y1.3124
G1 X1.8376 Y1.3126
G1 X1.8294 Y1.3124
G1 X1.8213 Y1.3116
G1 X1.8133 Y1.3102
G1 X1.8053 Y1.3084
G1 X1.7975 Y1.306
G1 X1.7898 Y1.3031
G1 X1.7824 Y1.2998
G1 X1.7752 Y1.2959
G1 X1.7683 Y1.2916
G1 X1.7616 Y1.2869
G1 X1.7553 Y1.2817
G1 X1.7494 Y1.2761
G1 X1.7438 Y1.2701
G1 X1.7386 Y1.2638
G1 X1.7338 Y1.2572
G1 X1.7295 Y1.2502
G1 X1.7257 Y1.243
G1 X1.7223 Y1.2356
G1 X1.7194 Y1.228
G1 X1.7171 Y1.2201
G1 X1.7152 Y1.2122
G1 X1.7139 Y1.2041
G1 X1.7131 Y1.196
G1 X1.7128 Y1.1878
G1 X1.7131 Y1.1797
G1 X1.7139 Y1.1716
G1 X1.7152 Y1.1635
G1 X1.7171 Y1.1555
G1 X1.7194 Y1.1477
G1 X1.7223 Y1.1401
G1 X1.7257 Y1.1326
G1 X1.7295 Y1.1254
G1 X1.7338 Y1.1185
G1 X1.7386 Y1.1119
G1 X1.7438 Y1.1056
G1 X1.7494 Y1.0996
G1 X1.7553 Y1.094
G1 X1.7616 Y1.0888
G1 X1.7683 Y1.0841
G1 X1.7752 Y1.0798
G1 X1.7824 Y1.0759
G1 X1.7898 Y1.0725
G1 X1.7975 Y1.0697
G1 X1.8053 Y1.0673
G1 X1.8133 Y1.0654
G1 X1.8213 Y1.0641
G1 X1.8294 Y1.0633
G1 X1.8376 Y1.063
G1 X1.8458 Y1.0633
G1 X1.8539 Y1.0641
( Pocket2 )
S4000
G0 Z0.05
G0 X3.449 Y1.0686
G1 F5.0 Z0.0
G1 X3.4525 Y1.0697 Z-0.0006
G1 X3.4602 Y1.0725 Z-0.0021
G1 X3.4676 Y1.0759 Z-0.0035
G1 X3.4748 Y1.0798 Z-0.005
G1 X3.4817 Y1.0841 Z-0.0064
G1 X3.4884 Y1.0888 Z-0.0078
G1 X3.4947 Y1.094 Z-0.0093
G1 X3.5006 Y1.0996 Z-0.0107
G1 X3.5062 Y1.1056 Z-0.0122
G1 X3.5114 Y1.1119 Z-0.0136
G1 X3.5162 Y1.1185 Z-0.015
G1 X3.5205 Y1.1254 Z-0.0165
G1 X3.5243 Y1.1326 Z-0.0179
G1 X3.5277 Y1.1401 Z-0.0194
G1 X3.5306 Y1.1477 Z-0.0208
G1 X3.5329 Y1.1555 Z-0.0222
G1 X3.5348 Y1.1635 Z-0.0237
G1 X3.5361 Y1.1716 Z-0.0251
G1 X3.5369 Y1.1797 Z-0.0266
G1 X3.5372 Y1.1878 Z-0.028
G1 X3.5369 Y1.196 Z-0.0294
G1 X3.5361 Y1.2041 Z-0.0309
G1 X3.5348 Y1.2122 Z-0.0323
G1 X3.5329 Y1.2201 Z-0.0338
G1 X3.5306 Y1.228 Z-0.0352
G1 X3.5277 Y1.2356 Z-0.0366
G1 X3.5243 Y1.243 Z-0.0381
G1 X3.5205 Y1.2502 Z-0.0395
G1 X3.5162 Y1.2572 Z-0.041
G1 X3.5114 Y1.2638 Z-0.0424
G1 X3.5062 Y1.2701 Z-0.0438
G1 X3.5006 Y1.2761 Z-0.0453
G1 X3.4947 Y1.2817 Z-0.0467
G1 X3.4884 Y1.2869 Z-0.0482
G1 X3.4817 Y1.2916 Z-0.0496
G1 X3.4748 Y1.2959 Z-0.051
G1 X3.4676 Y1.2998 Z-0.0525
G1 X3.4602 Y1.3031 Z-0.0539
G1 X3.4525 Y1.306 Z-0.0554
G1 X3.4447 Y1.3084 Z-0.0568
G1 X3.4367 Y1.3102 Z-0.0582
G1 X3.4287 Y1.3116 Z-0.0597
G1 X3.4206 Y1.3124 Z-0.0611
G1 X3.4124 Y1.3126 Z-0.0626
G1 X3.4042 Y1.3124 Z-0.064
G1 X3.3961 Y1.3116 Z-0.0654
G1 X3.3881 Y1.3102 Z-0.0669
G1 X3.3801 Y1.3084 Z-0.0683
G1 X3.3723 Y1.306 Z-0.0698
G1 X3.3646 Y1.3031 Z-0.0712
G1 X3.3572 Y1.2998 Z-0.0726
G1 X3.35 Y1.2959 Z-0.0741
G1 X3.3431 Y1.2916 Z-0.0755
G1 X3.3364 Y1.2869 Z-0.077
G1 X3.3301 Y1.2817 Z-0.0784
G1 X3.3242 Y1.2761 Z-0.0798
G1 X3.3186 Y1.2701 Z-0.0813
G1 X3.3134 Y1.2638 Z-0.0827
G1 X3.3086 Y1.2572 Z-0.0842
G1 X3.3043 Y1.2502 Z-0.0856
G1 X3.3005 Y1.243 Z-0.087
G1 X3.2971 Y1.2356 Z-0.0885
G1 X3.2942 Y1.228 Z-0.0899
G1 X3.2919 Y1.2201 Z-0.0914
G1 X3.29 Y1.2122 Z-0.0928
G1 X3.2887 Y1.2041 Z-0.0942
G1 X3.2879 Y1.196 Z-0.0957
G1 X3.2876 Y1.1878 Z-0.0971
G1 X3.2879 Y1.1797 Z-0.0986
G1 X3.2887 Y1.1716 Z-0.1
G1 F9.0 X3.29 Y1.1635
G1 X3.2919 Y1.1555
G1 X3.2942 Y1.1477
G1 X3.2971 Y1.1401
G1 X3.3005 Y1.1326
G1 X3.3043 Y1.1254
G1 X3.3086 Y1.1185
G1 X3.3134 Y1.1119
G1 X3.3186 Y1.1056
G1 X3.3242 Y1.0996
G1 X3.3301 Y1.094
G1 X3.3364 Y1.0888
G1 X3.3431 Y1.0841
G1 X3.35 Y1.0798
G1 X3.3572 Y1.0759
G1 X3.3646 Y1.0725
G1 X3.3723 Y1.0697
G1 X3.3801 Y1.0673
G1 X3.3881 Y1.0654
G1 X3.3961 Y1.0641
G1 X3.4042 Y1.0633
G1 X3.4124 Y1.063
G1 X3.4206 Y1.0633
G1 X3.4287 Y1.0641
G1 X3.4367 Y1.0654
G1 X3.4447 Y1.0673
G1 X3.4525 Y1.0697
G1 X3.4602 Y1.0725
G1 X3.4676 Y1.0759
G1 X3.4748 Y1.0798
G1 X3.4817 Y1.0841
G1 X3.4884 Y1.0888
G1 X3.4947 Y1.094
G1 X3.5006 Y1.0996
G1 X3.5062 Y1.1056
G1 X3.5114 Y1.1119
G1 X3.5162 Y1.1185
G1 X3.5205 Y1.1254
G1 X3.5243 Y1.1326
G1 X3.5277 Y1.1401
G1 X3.5306 Y1.1477
G1 X3.5329 Y1.1555
G1 X3.5348 Y1.1635
G1 X3.5361 Y1.1716
G1 X3.5369 Y1.1797
G1 X3.5372 Y1.1878
G1 X3.5369 Y1.196
G1 X3.5361 Y1.2041
G1 X3.5348 Y1.2122
G1 X3.5329 Y1.2201
G1 X3.5306 Y1.228
G1 X3.5277 Y1.2356
G1 X3.5243 Y1.243
G1 X3.5205 Y1.2502
G1 X3.5162 Y1.2572
G1 X3.5114 Y1.2638
G1 X3.5062 Y1.2701
G1 X3.5006 Y1.2761
G1 X3.4947 Y1.2817
G1 X3.4884 Y1.2869
G1 X3.4817 Y1.2916
G1 X3.4748 Y1.2959
G1 X3.4676 Y1.2998
G1 X3.4602 Y1.3031
G1 X3.4525 Y1.306
G1 X3.4447 Y1.3084
G1 X3.4367 Y1.3102
G1 X3.4287 Y1.3116
G1 X3.4206 Y1.3124
G1 X3.4124 Y1.3126
G1 X3.4042 Y1.3124
G1 X3.3961 Y1.3116
G1 X3.3881 Y1.3102
G1 X3.3801 Y1.3084
G1 X3.3723 Y1.306
G1 X3.3646 Y1.3031
G1 X3.3572 Y1.2998
G1 X3.35 Y1.2959
G1 X3.3431 Y1.2916
G1 X3.3364 Y1.2869
G1 X3.3301 Y1.2817
G1 X3.3242 Y1.2761
G1 X3.3186 Y1.2701
G1 X3.3134 Y1.2638
G1 X3.3086 Y1.2572
G1 X3.3043 Y1.2502
G1 X3.3005 Y1.243
G1 X3.2971 Y1.2356
G1 X3.2942 Y1.228
G1 X3.2919 Y1.2201
G1 X3.29 Y1.2122
G1 X3.2887 Y1.2041
G1 X3.2879 Y1.196
G1 X3.2876 Y1.1878
G1 X3.2879 Y1.1797
G1 X3.2887 Y1.1716
G1 F5.0 X3.449 Y1.0686
G1 X3.4525 Y1.0697 Z-0.1006
G1 X3.4602 Y1.0725 Z-0.1021
G1 X3.4676 Y1.0759 Z-0.1035
G1 X3.4748 Y1.0798 Z-0.105
G1 X3.4817 Y1.0841 Z-0.1064
G1 X3.4884 Y1.0888 Z-0.1078
G1 X3.4947 Y1.094 Z-0.1093
G1 X3.5006 Y1.0996 Z-0.1107
G1 X3.5062 Y1.1056 Z-0.1122
G1 X3.5114 Y1.1119 Z-0.1136
G1 X3.5162 Y1.1185 Z-0.115
G1 X3.5205 Y1.1254 Z-0.1165
G1 X3.5243 Y1.1326 Z-0.1179
G1 X3.5277 Y1.1401 Z-0.1194
G1 X3.5306 Y1.1477 Z-0.1208
G1 X3.5329 Y1.1555 Z-0.1222
G1 X3.5348 Y1.1635 Z-0.1237
G1 X3.5361 Y1.1716 Z-0.1251
G1 X3.5369 Y1.1797 Z-0.1266
G1 X3.5372 Y1.1878 Z-0.128
G1 X3.5369 Y1.196 Z-0.1294
G1 X3.5361 Y1.2041 Z-0.1309
G1 X3.5348 Y1.2122 Z-0.1323
G1 X3.5329 Y1.2201 Z-0.1338
G1 X3.5306 Y1.228 Z-0.1352
G1 X3.5277 Y1.2356 Z-0.1366
G1 X3.5243 Y1.243 Z-0.1381
G1 X3.5205 Y1.2502 Z-0.1395
G1 X3.5162 Y1.2572 Z-0.141
G1 X3.5114 Y1.2638 Z-0.1424
G1 X3.5062 Y1.2701 Z-0.1438
G1 X3.5006 Y1.2761 Z-0.1453
G1 X3.4947 Y1.2817 Z-0.1467
G1 X3.4884 Y1.2869 Z-0.1482
G1 X3.4817 Y1.2916 Z-0.1496
G1 X3.4748 Y1.2959 Z-0.151
G1 X3.4676 Y1.2998 Z-0.1525
G1 X3.4602 Y1.3031 Z-0.1539
G1 X3.4525 Y1.306 Z-0.1554
G1 X3.4447 Y1.3084 Z-0.1568
G1 X3.4367 Y1.3102 Z-0.1582
G1 X3.4287 Y1.3116 Z-0.1597
G1 X3.4206 Y1.3124 Z-0.1611
G1 X3.4124 Y1.3126 Z-0.1626
G1 X3.4042 Y1.3124 Z-0.164
G1 X3.3961 Y1.3116 Z-0.1654
G1 X3.3881 Y1.3102 Z-0.1669
G1 X3.3801 Y1.3084 Z-0.1683
G1 X3.3723 Y1.306 Z-0.1698
G1 X3.3646 Y1.3031 Z-0.1712
G1 X3.3572 Y1.2998 Z-0.1726
G1 X3.35 Y1.2959 Z-0.1741
G1 X3.3431 Y1.2916 Z-0.1755
G1 X3.3364 Y1.2869 Z-0.177
G1 X3.3301 Y1.2817 Z-0.1784
G1 X3.3242 Y1.2761 Z-0.1798
G1 X3.3186 Y1.2701 Z-0.1813
G1 X3.3134 Y1.2638 Z-0.1827
G1 X3.3086 Y1.2572 Z-0.1842
G1 X3.3043 Y1.2502 Z-0.1856
G1 X3.3005 Y1.243 Z-0.187
G1 X3.2971 Y1.2356 Z-0.1885
G1 X3.2942 Y1.228 Z-0.1899
G1 X3.2919 Y1.2201 Z-0.1914
G1 X3.29 Y1.2122 Z-0.1928
G1 X3.2887 Y1.2041 Z-0.1942
G1 X3.2879 Y1.196 Z-0.1957
G1 X3.2876 Y1.1878 Z-0.1971
G1 X3.2879 Y1.1797 Z-0.1986
G1 X3.2887 Y1.1716 Z-0.2
G1 F9.0 X3.29 Y1.1635
G1 X3.2919 Y1.1555
G1 X3.2942 Y1.1477
G1 X3.2971 Y1.1401
G1 X3.3005 Y1.1326
G1 X3.3043 Y1.1254
G1 X3.3086 Y1.1185
G1 X3.3134 Y1.1119
G1 X3.3186 Y1.1056
G1 X3.3242 Y1.0996
G1 X3.3301 Y1.094
G1 X3.3364 Y1.0888
G1 X3.3431 Y1.0841
G1 X3.35 Y1.0798
G1 X3.3572 Y1.0759
G1 X3.3646 Y1.0725
G1 X3.3723 Y1.0697
G1 X3.3801 Y1.0673
G1 X3.3881 Y1.0654
G1 X3.3961 Y1.0641
G1 X3.4042 Y1.0633
G1 X3.4124 Y1.063
G1 X3.4206 Y1.0633
G1 X3.4287 Y1.0641
G1 X3.4367 Y1.0654
G1 X3.4447 Y1.0673
G1 X3.4525 Y1.0697
G1 X3.4602 Y1.0725
G1 X3.4676 Y1.0759
G1 X3.4748 Y1.0798
G1 X3.4817 Y1.0841
G1 X3.4884 Y1.0888
G1 X3.4947 Y1.094
G1 X3.5006 Y1.0996
G1 X3.5062 Y1.1056
G1 X3.5114 Y1.1119
G1 X3.5162 Y1.1185
G1 X3.5205 Y1.1254
G1 X3.5243 Y1.1326
G1 X3.5277 Y1.1401
G1 X3.5306 Y1.1477
G1 X3.5329 Y1.1555
G1 X3.5348 Y1.1635
G1 X3.5361 Y1.1716
G1 X3.5369 Y1.1797
G1 X3.5372 Y1.1878
G1 X3.5369 Y1.196
G1 X3.5361 Y1.2041
G1 X3.5348 Y1.2122
G1 X3.5329 Y1.2201
G1 X3.5306 Y1.228
G1 X3.5277 Y1.2356
G1 X3.5243 Y1.243
G1 X3.5205 Y1.2502
G1 X3.5162 Y1.2572
G1 X3.5114 Y1.2638
G1 X3.5062 Y1.2701
G1 X3.5006 Y1.2761
G1 X3.4947 Y1.2817
G1 X3.4884 Y1.2869
G1 X3.4817 Y1.2916
G1 X3.4748 Y1.2959
G1 X3.4676 Y1.2998
G1 X3.4602 Y1.3031
G1 X3.4525 Y1.306
G1 X3.4447 Y1.3084
G1 X3.4367 Y1.3102
G1 X3.4287 Y1.3116
G1 X3.4206 Y1.3124
G1 X3.4124 Y1.3126
G1 X3.4042 Y1.3124
G1 X3.3961 Y1.3116
G1 X3.3881 Y1.3102
G1 X3.3801 Y1.3084
G1 X3.3723 Y1.306
G1 X3.3646 Y1.3031
G1 X3.3572 Y1.2998
G1 X3.35 Y1.2959
G1 X3.3431 Y1.2916
G1 X3.3364 Y1.2869
G1 X3.3301 Y1.2817
G1 X3.3242 Y1.2761
G1 X3.3186 Y1.2701
G1 X3.3134 Y1.2638
G1 X3.3086 Y1.2572
G1 X3.3043 Y1.2502
G1 X3.3005 Y1.243
G1 X3.2971 Y1.2356
G1 X3.2942 Y1.228
G1 X3.2919 Y1.2201
G1 X3.29 Y1.2122
G1 X3.2887 Y1.2041
G1 X3.2879 Y1.196
G1 X3.2876 Y1.1878
G1 X3.2879 Y1.1797
G1 X3.2887 Y1.1716
G1 F5.0 X3.519 Y1.2526
G1 X3.5162 Y1.2572 Z-0.201
G1 X3.5114 Y1.2638 Z-0.2024
G1 X3.5062 Y1.2701 Z-0.2038
G1 X3.5006 Y1.2761 Z-0.2053
G1 X3.4947 Y1.2817 Z-0.2067
G1 X3.4884 Y1.2869 Z-0.2082
G1 X3.4817 Y1.2916 Z-0.2096
G1 X3.4748 Y1.2959 Z-0.211
G1 X3.4676 Y1.2998 Z-0.2125
G1 X3.4602 Y1.3031 Z-0.2139
G1 X3.4525 Y1.306 Z-0.2154
G1 X3.4447 Y1.3084 Z-0.2168
G1 X3.4367 Y1.3102 Z-0.2182
G1 X3.4287 Y1.3116 Z-0.2197
G1 X3.4206 Y1.3124 Z-0.2211
G1 X3.4124 Y1.3126 Z-0.2226
G1 X3.4042 Y1.3124 Z-0.224
G1 X3.3961 Y1.3116 Z-0.2254
G1 X3.3881 Y1.3102 Z-0.2269
G1 X3.3801 Y1.3084 Z-0.2283
G1 X3.3723 Y1.306 Z-0.2298
G1 X3.3646 Y1.3031 Z-0.2312
G1 X3.3572 Y1.2998 Z-0.2326
G1 X3.35 Y1.2959 Z-0.2341
G1 X3.3431 Y1.2916 Z-0.2355
G1 X3.3364 Y1.2869 Z-0.237
G1 X3.3301 Y1.2817 Z-0.2384
G1 X3.3242 Y1.2761 Z-0.2398
G1 X3.3186 Y1.2701 Z-0.2413
G1 X3.3134 Y1.2638 Z-0.2427
G1 X3.3086 Y1.2572 Z-0.2442
G1 X3.3043 Y1.2502 Z-0.2456
G1 X3.3005 Y1.243 Z-0.247
G1 X3.2971 Y1.2356 Z-0.2485
G1 X3.2942 Y1.228 Z-0.2499
G1 X3.2919 Y1.2201 Z-0.2514
G1 X3.29 Y1.2122 Z-0.2528
G1 X3.2887 Y1.2041 Z-0.2542
G1 X3.2879 Y1.196 Z-0.2557
G1 X3.2876 Y1.1878 Z-0.2571
G1 X3.2879 Y1.1797 Z-0.2586
G1 X3.2887 Y1.1716 Z-0.26
G1 F9.0 X3.29 Y1.1635
G1 X3.2919 Y1.1555
G1 X3.2942 Y1.1477
G1 X3.2971 Y1.1401
G1 X3.3005 Y1.1326
G1 X3.3043 Y1.1254
G1 X3.3086 Y1.1185
G1 X3.3134 Y1.1119
G1 X3.3186 Y1.1056
G1 X3.3242 Y1.0996
G1 X3.3301 Y1.094
G1 X3.3364 Y1.0888
G1 X3.3431 Y1.0841
G1 X3.35 Y1.0798
G1 X3.3572 Y1.0759
G1 X3.3646 Y1.0725
G1 X3.3723 Y1.0697
G1 X3.3801 Y1.0673
G1 X3.3881 Y1.0654
G1 X3.3961 Y1.0641
G1 X3.4042 Y1.0633
G1 X3.4124 Y1.063
G1 X3.4206 Y1.0633
G1 X3.4287 Y1.0641
G1 X3.4367 Y1.0654
G1 X3.4447 Y1.0673
G1 X3.4525 Y1.0697
G1 X3.4602 Y1.0725
G1 X3.4676 Y1.0759
G1 X3.4748 Y1.0798
G1 X3.4817 Y1.0841
G1 X3.4884 Y1.0888
G1 X3.4947 Y1.094
G1 X3.5006 Y1.0996
G1 X3.5062 Y1.1056
G1 X3.5114 Y1.1119
G1 X3.5162 Y1.1185
G1 X3.5205 Y1.1254
G1 X3.5243 Y1.1326
G1 X3.5277 Y1.1401
G1 X3.5306 Y1.1477
G1 X3.5329 Y1.1555
G1 X3.5348 Y1.1635
G1 X3.5361 Y1.1716
G1 X3.5369 Y1.1797
G1 X3.5372 Y1.1878
G1 X3.5369 Y1.196
G1 X3.5361 Y1.2041
G1 X3.5348 Y1.2122
G1 X3.5329 Y1.2201
G1 X3.5306 Y1.228
G1 X3.5277 Y1.2356
G1 X3.5243 Y1.243
G1 X3.5205 Y1.2502
G1 X3.5162 Y1.2572
G1 X3.5114 Y1.2638
G1 X3.5062 Y1.2701
G1 X3.5006 Y1.2761
G1 X3.4947 Y1.2817
G1 X3.4884 Y1.2869
G1 X3.4817 Y1.2916
G1 X3.4748 Y1.2959
G1 X3.4676 Y1.2998
G1 X3.4602 Y1.3031
G1 X3.4525 Y1.306
G1 X3.4447 Y1.3084
G1 X3.4367 Y1.3102
G1 X3.4287 Y1.3116
G1 X3.4206 Y1.3124
G1 X3.4124 Y1.3126
G1 X3.4042 Y1.3124
G1 X3.3961 Y1.3116
G1 X3.3881 Y1.3102
G1 X3.3801 Y1.3084
G1 X3.3723 Y1.306
G1 X3.3646 Y1.3031
G1 X3.3572 Y1.2998
G1 X3.35 Y1.2959
G1 X3.3431 Y1.2916
G1 X3.3364 Y1.2869
G1 X3.3301 Y1.2817
G1 X3.3242 Y1.2761
G1 X3.3186 Y1.2701
G1 X3.3134 Y1.2638
G1 X3.3086 Y1.2572
G1 X3.3043 Y1.2502
G1 X3.3005 Y1.243
G1 X3.2971 Y1.2356
G1 X3.2942 Y1.228
G1 X3.2919 Y1.2201
G1 X3.29 Y1.2122
G1 X3.2887 Y1.2041
G1 X3.2879 Y1.196
G1 X3.2876 Y1.1878
G1 X3.2879 Y1.1797
G1 X3.2887 Y1.1716
( Pocket3 )
S4000
G0 Z0.05
G0 X1.8584 Y3.3774
G1 F5.0 Z0.0
G1 X1.8619 Y3.3779 Z-0.0006
G1 X1.8699 Y3.3798 Z-0.0021
G1 X1.8777 Y3.3822 Z-0.0035
G1 X1.8854 Y3.385 Z-0.005
G1 X1.8928 Y3.3884 Z-0.0064
G1 X1.9 Y3.3923 Z-0.0078
G1 X1.9069 Y3.3966 Z-0.0093
G1 X1.9136 Y3.4013 Z-0.0107
G1 X1.9199 Y3.4065 Z-0.0122
G1 X1.9258 Y3.4121 Z-0.0136
G1 X1.9314 Y3.4181 Z-0.015
G1 X1.9366 Y3.4244 Z-0.0165
G1 X1.9414 Y3.431 Z-0.0179
G1 X1.9457 Y3.4379 Z-0.0194
G1 X1.9495 Y3.4451 Z-0.0208
G1 X1.9529 Y3.4526 Z-0.0222
G1 X1.9558 Y3.4602 Z-0.0237
G1 X1.9581 Y3.468 Z-0.0251
G1 X1.96 Y3.476 Z-0.0266
G1 X1.9613 Y3.4841 Z-0.028
G1 X1.9621 Y3.4922 Z-0.0294
G1 X1.9624 Y3.5003 Z-0.0309
G1 X1.9621 Y3.5085 Z-0.0323
G1 X1.9613 Y3.5166 Z-0.0338
G1 X1.96 Y3.5247 Z-0.0352
G1 X1.9581 Y3.5326 Z-0.0366
G1 X1.9558 Y3.5405 Z-0.0381
G1 X1.9529 Y3.5481 Z-0.0395
G1 X1.9495 Y3.5555 Z-0.041
G1 X1.9457 Y3.5627 Z-0.0424
G1 X1.9414 Y3.5697 Z-0.0438
G1 X1.9366 Y3.5763 Z-0.0453
G1 X1.9314 Y3.5826 Z-0.0467
G1 X1.9258 Y3.5886 Z-0.0482
G1 X1.9199 Y3.5942 Z-0.0496
G1 X1.9136 Y3.5994 Z-0.051
G1 X1.9069 Y3.6041 Z-0.0525
G1 X1.9 Y3.6084 Z-0.0539
G1 X1.8928 Y3.6123 Z-0.0554
G1 X1.8854 Y3.6156 Z-0.0568
G1 X1.8777 Y3.6185 Z-0.0582
G1 X1.8699 Y3.6209 Z-0.0597
G1 X1.8619 Y3.6227 Z-0.0611
G1 X1.8539 Y3.6241 Z-0.0626
G1 X1.8458 Y3.6249 Z-0.064
G1 X1.8376 Y3.6251 Z-0.0654
G1 X1.8294 Y3.6249 Z-0.0669
G1 X1.8213 Y3.6241 Z-0.0683
G1 X1.8133 Y3.6227 Z-0.0698
G1 X1.8053 Y3.6209 Z-0.0712
G1 X1.7975 Y3.6185 Z-0.0726
G1 X1.7898 Y3.6156 Z-0.0741
G1 X1.7824 Y3.6123 Z-0.0755
G1 X1.7752 Y3.6084 Z-0.077
G1 X1.7683 Y3.6041 Z-0.0784
G1 X1.7616 Y3.5994 Z-0.0798
G1 X1.7553 Y3.5942 Z-0.0813
G1 X1.7494 Y3.5886 Z-0.0827
G1 X1.7438 Y3.5826 Z-0.0842
G1 X1.7386 Y3.5763 Z-0.0856
G1 X1.7338 Y3.5697 Z-0.087
G1 X1.7295 Y3.5627 Z-0.0885
G1 X1.7257 Y3.5555 Z-0.0899
G1 X1.7223 Y3.5481 Z-0.0914
G1 X1.7194 Y3.5405 Z-0.0928
G1 X1.7171 Y3.5326 Z-0.0942
G1 X1.7152 Y3.5247 Z-0.0957
G1 X1.7139 Y3.5166 Z-0.0971
G1 X1.7131 Y3.5085 Z-0.0986
G1 X1.7128 Y3.5003 Z-0.1
G1 F9.0 X1.7131 Y3.4922
G1 X1.7139 Y3.4841
G1 X1.7152 Y3.476
G1 X1.7171 Y3.468
G1 X1.7194 Y3.4602
G1 X1.7223 Y3.4526
G1 X1.7257 Y3.4451
G1 X1.7295 Y3.4379
G1 X1.7338 Y3.431
G1 X1.7386 Y3.4244
G1 X1.7438 Y3.4181
G1 X1.7494 Y3.4121
G1 X1.7553 Y3.4065
G1 X1.7616 Y3.4013
G1 X1.7683 Y3.3966
G1 X1.7752 Y3.3923
G1 X1.7824 Y3.3884
G1 X1.7898 Y3.385
G1 X1.7975 Y3.3822
G1 X1.8053 Y3.3798
G1 X1.8133 Y3.3779
G1 X1.8213 Y3.3766
G1 X1.8294 Y3.3758
G1 X1.8376 Y3.3755
G1 X1.8458 Y3.3758
G1 X1.8539 Y3.3766
G1 X1.8619 Y3.3779
G1 X1.8699 Y3.3798
G1 X1.8777 Y3.3822
G1 X1.8854 Y3.385
G1 X1.8928 Y3.3884
G1 X1.9 Y3.3923
G1 X1.9069 Y3.3966
G1 X1.9136 Y3.4013
G1 X1.9199 Y3.4065
G1 X1.9258 Y3.4121
G1 X1.9314 Y3.4181
G1 X1.9366 Y3.4244
G1 X1.9414 Y3.431
G1 X1.9457 Y3.4379
G1 X1.9495 Y3.4451
G1 X1.9529 Y3.4526
G1 X1.9558 Y3.4602
G1 X1.9581 Y3.468
G1 X1.96 Y3.476
G1 X1.9613 Y3.4841
G1 X1.9621 Y3.4922
G1 X1.9624 Y3.5003
G1 X1.9621 Y3.5085
G1 X1.9613 Y3.5166
G1 X1.96 Y3.5247
G1 X1.9581 Y3.5326
G1 X1.9558 Y3.5405
G1 X1.9529 Y3.5481
G1 X1.9495 Y3.5555
G1 X1.9457 Y3.5627
G1 X1.9414 Y3.5697
G1 X1.9366 Y3.5763
G1 X1.9314 Y3.5826
G1 X1.9258 Y3.5886
G1 X1.9199 Y3.5942
G1 X1.9136 Y3.5994
G1 X1.9069 Y3.6041
G1 X1.9 Y3.6084
G1 X1.8928 Y3.6123
G1 X1.8854 Y3.6156
G1 X1.8777 Y3.6185
G1 X1.8699 Y3.6209
G1 X1.8619 Y3.6227
G1 X1.8539 Y3.6241
G1 X1.8458 Y3.6249
G1 X1.8376 Y3.6251
G1 X1.8294 Y3.6249
G1 X1.8213 Y3.6241
G1 X1.8133 Y3.6227
G1 X1.8053 Y3.6209
G1 X1.7975 Y3.6185
G1 X1.7898 Y3.6156
G1 X1.7824 Y3.6123
G1 X1.7752 Y3.6084
G1 X1.7683 Y3.6041
G1 X1.7616 Y3.5994
G1 X1.7553 Y3.5942
G1 X1.7494 Y3.5886
G1 X1.7438 Y3.5826
G1 X1.7386 Y3.5763
G1 X1.7338 Y3.5697
G1 X1.7295 Y3.5627
G1 X1.7257 Y3.5555
G1 X1.7223 Y3.5481
G1 X1.7194 Y3.5405
G1 X1.7171 Y3.5326
G1 X1.7152 Y3.5247
G1 X1.7139 Y3.5166
G1 X1.7131 Y3.5085
G1 X1.7128 Y3.5003
G1 F5.0 X1.8584 Y3.3774
G1 X1.8619 Y3.3779 Z-0.1006
G1 X1.8699 Y3.3798 Z-0.1021
G1 X1.8777 Y3.3822 Z-0.1035
G1 X1.8854 Y3.385 Z-0.105
G1 X1.8928 Y3.3884 Z-0.1064
G1 X1.9 Y3.3923 Z-0.1078
G1 X1.9069 Y3.3966 Z-0.1093
G1 X1.9136 Y3.4013 Z-0.1107
G1 X1.9199 Y3.4065 Z-0.1122
G1 X1.9258 Y3.4121 Z-0.1136
G1 X1.9314 Y3.4181 Z-0.115
G1 X1.9366 Y3.4244 Z-0.1165
G1 X1.9414 Y3.431 Z-0.1179
G1 X1.9457 Y3.4379 Z-0.1194
G1 X1.9495 Y3.4451 Z-0.1208
G1 X1.9529 Y3.4526 Z-0.1222
G1 X1.9558 Y3.4602 Z-0.1237
G1 X1.9581 Y3.468 Z-0.1251
G1 X1.96 Y3.476 Z-0.1266
G1 X1.9613 Y3.4841 Z-0.128
G1 X1.9621 Y3.4922 Z-0.1294
G1 X1.9624 Y3.5003 Z-0.1309
G1 X1.9621 Y3.5085 Z-0.1323
G1 X1.9613 Y3.5166 Z-0.1338
G1 X1.96 Y3.5247 Z-0.1352
G1 X1.9581 Y3.5326 Z-0.1366
G1 X1.9558 Y3.5405 Z-0.1381
G1 X1.9529 Y3.5481 Z-0.1395
G1 X1.9495 Y3.5555 Z-0.141
G1 X1.9457 Y3.5627 Z-0.1424
G1 X1.9414 Y3.5697 Z-0.1438
G1 X1.9366 Y3.5763 Z-0.1453
G1 X1.9314 Y3.5826 Z-0.1467
G1 X1.9258 Y3.5886 Z-0.1482
G1 X1.9199 Y3.5942 Z-0.1496
G1 X1.9136 Y3.5994 Z-0.151
G1 X1.9069 Y3.6041 Z-0.1525
G1 X1.9 Y3.6084 Z-0.1539
G1 X1.8928 Y3.6123 Z-0.1554
G1 X1.8854 Y3.6156 Z-0.1568
G1 X1.8777 Y3.6185 Z-0.1582
G1 X1.8699 Y3.6209 Z-0.1597
G1 X1.8619 Y3.6227 Z-0.1611
G1 X1.8539 Y3.6241 Z-0.1626
G1 X1.8458 Y3.6249 Z-0.164
G1 X1.8376 Y3.6251 Z-0.1654
G1 X1.8294 Y3.6249 Z-0.1669
G1 X1.8213 Y3.6241 Z-0.1683
G1 X1.8133 Y3.6227 Z-0.1698
G1 X1.8053 Y3.6209 Z-0.1712
G1 X1.7975 Y3.6185 Z-0.1726
G1 X1.7898 Y3.6156 Z-0.1741
G1 X1.7824 Y3.6123 Z-0.1755
G1 X1.7752 Y3.6084 Z-0.177
G1 X1.7683 Y3.6041 Z-0.1784
G1 X1.7616 Y3.5994 Z-0.1798
G1 X1.7553 Y3.5942 Z-0.1813
G1 X1.7494 Y3.5886 Z-0.1827
G1 X1.7438 Y3.5826 Z-0.1842
G1 X1.7386 Y3.5763 Z-0.1856
G1 X1.7338 Y3.5697 Z-0.187
G1 X1.7295 Y3.5627 Z-0.1885
G1 X1.7257 Y3.5555 Z-0.1899
G1 X1.7223 Y3.5481 Z-0.1914
G1 X1.7194 Y3.5405 Z-0.1928
G1 X1.7171 Y3.5326 Z-0.1942
G1 X1.7152 Y3.5247 Z-0.1957
G1 X1.7139 Y3.5166 Z-0.1971
G1 X1.7131 Y3.5085 Z-0.1986
G1 X1.7128 Y3.5003 Z-0.2
G1 F9.0 X1.7131 Y3.4922
G1 X1.7139 Y3.4841
G1 X1.7152 Y3.476
G1 X1.7171 Y3.468
G1 X1.7194 Y3.4602
G1 X1.7223 Y3.4526
G1 X1.7257 Y3.4451
G1 X1.7295 Y3.4379
G1 X1.7338 Y3.431
G1 X1.7386 Y3.4244
G1 X1.7438 Y3.4181
G1 X1.7494 Y3.4121
G1 X1.7553 Y3.4065
G1 X1.7616 Y3.4013
G1 X1.7683 Y3.3966
G1 X1.7752 Y3.3923
G1 X1.7824 Y3.3884
G1 X1.7898 Y3.385
G1 X1.7975 Y3.3822
G1 X1.8053 Y3.3798
G1 X1.8133 Y3.3779
G1 X1.8213 Y3.3766
G1 X1.8294 Y3.3758
G1 X1.8376 Y3.3755
G1 X1.8458 Y3.3758
G1 X1.8539 Y3.3766
G1 X1.8619 Y3.3779
G1 X1.8699 Y3.3798
G1 X1.8777 Y3.3822
G1 X1.8854 Y3.385
G1 X1.8928 Y3.3884
G1 X1.9 Y3.3923
G1 X1.9069 Y3.3966
G1 X1.9136 Y3.4013
G1 X1.9199 Y3.4065
G1 X1.9258 Y3.4121
G1 X1.9314 Y3.4181
G1 X1.9366 Y3.4244
G1 X1.9414 Y3.431
G1 X1.9457 Y3.4379
G1 X1.9495 Y3.4451
G1 X1.9529 Y3.4526
G1 X1.9558 Y3.4602
G1 X1.9581 Y3.468
G1 X1.96 Y3.476
G1 X1.9613 Y3.4841
G1 X1.9621 Y3.4922
G1 X1.9624 Y3.5003
G1 X1.9621 Y3.5085
G1 X1.9613 Y3.5166
G1 X1.96 Y3.5247
G1 X1.9581 Y3.5326
G1 X1.9558 Y3.5405
G1 X1.9529 Y3.5481
G1 X1.9495 Y3.5555
G1 X1.9457 Y3.5627
G1 X1.9414 Y3.5697
G1 X1.9366 Y3.5763
G1 X1.9314 Y3.5826
G1 X1.9258 Y3.5886
G1 X1.9199 Y3.5942
G1 X1.9136 Y3.5994
G1 X1.9069 Y3.6041
G1 X1.9 Y3.6084
G1 X1.8928 Y3.6123
G1 X1.8854 Y3.6156
G1 X1.8777 Y3.6185
G1 X1.8699 Y3.6209
G1 X1.8619 Y3.6227
G1 X1.8539 Y3.6241
G1 X1.8458 Y3.6249
G1 X1.8376 Y3.6251
G1 X1.8294 Y3.6249
G1 X1.8213 Y3.6241
G1 X1.8133 Y3.6227
G1 X1.8053 Y3.6209
G1 X1.7975 Y3.6185
G1 X1.7898 Y3.6156
G1 X1.7824 Y3.6123
G1 X1.7752 Y3.6084
G1 X1.7683 Y3.6041
G1 X1.7616 Y3.5994
G1 X1.7553 Y3.5942
G1 X1.7494 Y3.5886
G1 X1.7438 Y3.5826
G1 X1.7386 Y3.5763
G1 X1.7338 Y3.5697
G1 X1.7295 Y3.5627
G1 X1.7257 Y3.5555
G1 X1.7223 Y3.5481
G1 X1.7194 Y3.5405
G1 X1.7171 Y3.5326
G1 X1.7152 Y3.5247
G1 X1.7139 Y3.5166
G1 X1.7131 Y3.5085
G1 X1.7128 Y3.5003
G1 F5.0 X1.9518 Y3.5506
G1 X1.9495 Y3.5555 Z-0.201
G1 X1.9457 Y3.5627 Z-0.2024
G1 X1.9414 Y3.5697 Z-0.2038
G1 X1.9366 Y3.5763 Z-0.2053
G1 X1.9314 Y3.5826 Z-0.2067
G1 X1.9258 Y3.5886 Z-0.2082
G1 X1.9199 Y3.5942 Z-0.2096
G1 X1.9136 Y3.5994 Z-0.211
G1 X1.9069 Y3.6041 Z-0.2125
G1 X1.9 Y3.6084 Z-0.2139
G1 X1.8928 Y3.6123 Z-0.2154
G1 X1.8854 Y3.6156 Z-0.2168
G1 X1.8777 Y3.6185 Z-0.2182
G1 X1.8699 Y3.6209 Z-0.2197
G1 X1.8619 Y3.6227 Z-0.2211
G1 X1.8539 Y3.6241 Z-0.2226
G1 X1.8458 Y3.6249 Z-0.224
G1 X1.8376 Y3.6251 Z-0.2254
G1 X1.8294 Y3.6249 Z-0.2269
G1 X1.8213 Y3.6241 Z-0.2283
G1 X1.8133 Y3.6227 Z-0.2298
G1 X1.8053 Y3.6209 Z-0.2312
G1 X1.7975 Y3.6185 Z-0.2326
G1 X1.7898 Y3.6156 Z-0.2341
G1 X1.7824 Y3.6123 Z-0.2355
G1 X1.7752 Y3.6084 Z-0.237
G1 X1.7683 Y3.6041 Z-0.2384
G1 X1.7616 Y3.5994 Z-0.2398
G1 X1.7553 Y3.5942 Z-0.2413
G1 X1.7494 Y3.5886 Z-0.2427
G1 X1.7438 Y3.5826 Z-0.2442
G1 X1.7386 Y3.5763 Z-0.2456
G1 X1.7338 Y3.5697 Z-0.247
G1 X1.7295 Y3.5627 Z-0.2485
G1 X1.7257 Y3.5555 Z-0.2499
G1 X1.7223 Y3.5481 Z-0.2514
G1 X1.7194 Y3.5405 Z-0.2528
G1 X1.7171 Y3.5326 Z-0.2542
G1 X1.7152 Y3.5247 Z-0.2557
G1 X1.7139 Y3.5166 Z-0.2571
G1 X1.7131 Y3.5085 Z-0.2586
G1 X1.7128 Y3.5003 Z-0.26
G1 F9.0 X1.7131 Y3.4922
G1 X1.7139 Y3.4841
G1 X1.7152 Y3.476
G1 X1.7171 Y3.468
G1 X1.7194 Y3.4602
G1 X1.7223 Y3.4526
G1 X1.7257 Y3.4451
G1 X1.7295 Y3.4379
G1 X1.7338 Y3.431
G1 X1.7386 Y3.4244
G1 X1.7438 Y3.4181
G1 X1.7494 Y3.4121
G1 X1.7553 Y3.4065
G1 X1.7616 Y3.4013
G1 X1.7683 Y3.3966
G1 X1.7752 Y3.3923
G1 X1.7824 Y3.3884
G1 X1.7898 Y3.385
G1 X1.7975 Y3.3822
G1 X1.8053 Y3.3798
G1 X1.8133 Y3.3779
G1 X1.8213 Y3.3766
G1 X1.8294 Y3.3758
G1 X1.8376 Y3.3755
G1 X1.8458 Y3.3758
G1 X1.8539 Y3.3766
G1 X1.8619 Y3.3779
G1 X1.8699 Y3.3798
G1 X1.8777 Y3.3822
G1 X1.8854 Y3.385
G1 X1.8928 Y3.3884
G1 X1.9 Y3.3923
G1 X1.9069 Y3.3966
G1 X1.9136 Y3.4013
G1 X1.9199 Y3.4065
G1 X1.9258 Y3.4121
G1 X1.9314 Y3.4181
G1 X1.9366 Y3.4244
G1 X1.9414 Y3.431
G1 X1.9457 Y3.4379
G1 X1.9495 Y3.4451
G1 X1.9529 Y3.4526
G1 X1.9558 Y3.4602
G1 X1.9581 Y3.468
G1 X1.96 Y3.476
G1 X1.9613 Y3.4841
G1 X1.9621 Y3.4922
G1 X1.9624 Y3.5003
G1 X1.9621 Y3.5085
G1 X1.9613 Y3.5166
G1 X1.96 Y3.5247
G1 X1.9581 Y3.5326
G1 X1.9558 Y3.5405
G1 X1.9529 Y3.5481
G1 X1.9495 Y3.5555
G1 X1.9457 Y3.5627
G1 X1.9414 Y3.5697
G1 X1.9366 Y3.5763
G1 X1.9314 Y3.5826
G1 X1.9258 Y3.5886
G1 X1.9199 Y3.5942
G1 X1.9136 Y3.5994
G1 X1.9069 Y3.6041
G1 X1.9 Y3.6084
G1 X1.8928 Y3.6123
G1 X1.8854 Y3.6156
G1 X1.8777 Y3.6185
G1 X1.8699 Y3.6209
G1 X1.8619 Y3.6227
G1 X1.8539 Y3.6241
G1 X1.8458 Y3.6249
G1 X1.8376 Y3.6251
G1 X1.8294 Y3.6249
G1 X1.8213 Y3.6241
G1 X1.8133 Y3.6227
G1 X1.8053 Y3.6209
G1 X1.7975 Y3.6185
G1 X1.7898 Y3.6156
G1 X1.7824 Y3.6123
G1 X1.7752 Y3.6084
G1 X1.7683 Y3.6041
G1 X1.7616 Y3.5994
G1 X1.7553 Y3.5942
G1 X1.7494 Y3.5886
G1 X1.7438 Y3.5826
G1 X1.7386 Y3.5763
G1 X1.7338 Y3.5697
G1 X1.7295 Y3.5627
G1 X1.7257 Y3.5555
G1 X1.7223 Y3.5481
G1 X1.7194 Y3.5405
G1 X1.7171 Y3.5326
G1 X1.7152 Y3.5247
G1 X1.7139 Y3.5166
G1 X1.7131 Y3.5085
G1 X1.7128 Y3.5003
( Pocket4 )
S4000
G0 Z0.05
G0 X3.4332 Y3.3774
G1 F5.0 Z0.0
G1 X3.4367 Y3.3779 Z-0.0006
G1 X3.4447 Y3.3798 Z-0.0021
G1 X3.4525 Y3.3822 Z-0.0035
G1 X3.4602 Y3.385 Z-0.005
G1 X3.4676 Y3.3884 Z-0.0064
G1 X3.4748 Y3.3923 Z-0.0078
G1 X3.4817 Y3.3966 Z-0.0093
G1 X3.4884 Y3.4013 Z-0.0107
G1 X3.4947 Y3.4065 Z-0.0122
G1 X3.5006 Y3.4121 Z-0.0136
G1 X3.5062 Y3.4181 Z-0.015
G1 X3.5114 Y3.4244 Z-0.0165
G1 X3.5162 Y3.431 Z-0.0179
G1 X3.5205 Y3.4379 Z-0.0194
G1 X3.5243 Y3.4451 Z-0.0208
G1 X3.5277 Y3.4526 Z-0.0222
G1 X3.5306 Y3.4602 Z-0.0237
G1 X3.5329 Y3.468 Z-0.0251
G1 X3.5348 Y3.476 Z-0.0266
G1 X3.5361 Y3.4841 Z-0.028
G1 X3.5369 Y3.4922 Z-0.0294
G1 X3.5372 Y3.5003 Z-0.0309
G1 X3.5369 Y3.5085 Z-0.0323
G1 X3.5361 Y3.5166 Z-0.0338
G1 X3.5348 Y3.5247 Z-0.0352
G1 X3.5329 Y3.5326 Z-0.0366
G1 X3.5306 Y3.5405 Z-0.0381
G1 X3.5277 Y3.5481 Z-0.0395
G1 X3.5243 Y3.5555 Z-0.041
G1 X3.5205 Y3.5627 Z-0.0424
G1 X3.5162 Y3.5697 Z-0.0438
G1 X3.5114 Y3.5763 Z-0.0453
G1 X3.5062 Y3.5826 Z-0.0467
G1 X3.5006 Y3.5886 Z-0.0482
G1 X3.4947 Y3.5942 Z-0.0496
G1 X3.4884 Y3.5994 Z-0.051
G1 X3.4817 Y3.6041 Z-0.0525
G1 X3.4748 Y3.6084 Z-0.0539
G1 X3.4676 Y3.6123 Z-0.0554
G1 X3.4602 Y3.6156 Z-0.0568
G1 X3.4525 Y3.6185 Z-0.0582
G1 X3.4447 Y3.6209 Z-0.0597
G1 X3.4367 Y3.6227 Z-0.0611
G1 X3.4287 Y3.6241 Z-0.0626
G1 X3.4206 Y3.6249 Z-0.064
G1 X3.4124 Y3.6251 Z-0.0654
G1 X3.4042 Y3.6249 Z-0.0669
G1 X3.3961 Y3.6241 Z-0.0683
G1 X3.3881 Y3.6227 Z-0.0698
G1 X3.3801 Y3.6209 Z-0.0712
G1 X3.3723 Y3.6185 Z-0.0726
G1 X3.3646 Y3.6156 Z-0.0741
G1 X3.3572 Y3.6123 Z-0.0755
G1 X3.35 Y3.6084 Z-0.077
G1 X3.3431 Y3.6041 Z-0.0784
G1 X3.3364 Y3.5994 Z-0.0798
G1 X3.3301 Y3.5942 Z-0.0813
G1 X3.3242 Y3.5886 Z-0.0827
G1 X3.3186 Y3.5826 Z-0.0842
G1 X3.3134 Y3.5763 Z-0.0856
G1 X3.3086 Y3.5697 Z-0.087
G1 X3.3043 Y3.5627 Z-0.0885
G1 X3.3005 Y3.5555 Z-0.0899
G1 X3.2971 Y3.5481 Z-0.0914
G1 X3.2942 Y3.5405 Z-0.0928
G1 X3.2919 Y3.5326 Z-0.0942
G1 X3.29 Y3.5247 Z-0.0957
G1 X3.2887 Y3.5166 Z-0.0971
G1 X3.2879 Y3.5085 Z-0.0986
G1 X3.2876 Y3.5003 Z-0.1
G1 F9.0 X3.2879 Y3.4922
G1 X3.2887 Y3.4841
G1 X3.29 Y3.476
G1 X3.2919 Y3.468
G1 X3.2942 Y3.4602
G1 X3.2971 Y3.4526
G1 X3.3005 Y3.4451
G1 X3.3043 Y3.4379
G1 X3.3086 Y3.431
G1 X3.3134 Y3.4244
G1 X3.3186 Y3.4181
G1 X3.3242 Y3.4121
G1 X3.3301 Y3.4065
G1 X3.3364 Y3.4013
G1 X3.3431 Y3.3966
G1 X3.35 Y3.3923
G1 X3.3572 Y3.3884
G1 X3.3646 Y3.385
G1 X3.3723 Y3.3822
G1 X3.3801 Y3.3798
G1 X3.3881 Y3.3779
G1 X3.3961 Y3.3766
G1 X3.4042 Y3.3758
G1 X3.4124 Y3.3755
G1 X3.4206 Y3.3758
G1 X3.4287 Y3.3766
G1 X3.4367 Y3.3779
G1 X3.4447 Y3.3798
G1 X3.4525 Y3.3822
G1 X3.4602 Y3.385
G1 X3.4676 Y3.3884
G1 X3.4748 Y3.3923
G1 X3.4817 Y3.3966
G1 X3.4884 Y3.4013
G1 X3.4947 Y3.4065
G1 X3.5006 Y3.4121
G1 X3.5062 Y3.4181
G1 X3.5114 Y3.4244
G1 X3.5162 Y3.431
G1 X3.5205 Y3.4379
G1 X3.5243 Y3.4451
G1 X3.5277 Y3.4526
G1 X3.5306 Y3.4602
G1 X3.5329 Y3.468
G1 X3.5348 Y3.476
G1 X3.5361 Y3.4841
G1 X3.5369 Y3.4922
G1 X3.5372 Y3.5003
G1 X3.5369 Y3.5085
G1 X3.5361 Y3.5166
G1 X3.5348 Y3.5247
G1 X3.5329 Y3.5326
G1 X3.5306 Y3.5405
G1 X3.5277 Y3.5481
G1 X3.5243 Y3.5555
G1 X3.5205 Y3.5627
G1 X3.5162 Y3.5697
G1 X3.5114 Y3.5763
G1 X3.5062 Y3.5826
G1 X3.5006 Y3.5886
G1 X3.4947 Y3.5942
G1 X3.4884 Y3.5994
G1 X3.4817 Y3.6041
G1 X3.4748 Y3.6084
G1 X3.4676 Y3.6123
G1 X3.4602 Y3.6156
G1 X3.4525 Y3.6185
G1 X3.4447 Y3.6209
G1 X3.4367 Y3.6227
G1 X3.4287 Y3.6241
G1 X3.4206 Y3.6249
G1 X3.4124 Y3.6251
G1 X3.4042 Y3.6249
G1 X3.3961 Y3.6241
G1 X3.3881 Y3.6227
G1 X3.3801 Y3.6209
G1 X3.3723 Y3.6185
G1 X3.3646 Y3.6156
G1 X3.3572 Y3.6123
G1 X3.35 Y3.6084
G1 X3.3431 Y3.6041
G1 X3.3364 Y3.5994
G1 X3.3301 Y3.5942
G1 X3.3242 Y3.5886
G1 X3.3186 Y3.5826
G1 X3.3134 Y3.5763
G1 X3.3086 Y3.5697
G1 X3.3043 Y3.5627
G1 X3.3005 Y3.5555
G1 X3.2971 Y3.5481
G1 X3.2942 Y3.5405
G1 X3.2919 Y3.5326
G1 X3.29 Y3.5247
G1 X3.2887 Y3.5166
G1 X3.2879 Y3.5085
G1 X3.2876 Y3.5003
G1 F5.0 X3.4332 Y3.3774
G1 X3.4367 Y3.3779 Z-0.1006
G1 X3.4447 Y3.3798 Z-0.1021
G1 X3.4525 Y3.3822 Z-0.1035
G1 X3.4602 Y3.385 Z-0.105
G1 X3.4676 Y3.3884 Z-0.1064
G1 X3.4748 Y3.3923 Z-0.1078
G1 X3.4817 Y3.3966 Z-0.1093
G1 X3.4884 Y3.4013 Z-0.1107
G1 X3.4947 Y3.4065 Z-0.1122
G1 X3.5006 Y3.4121 Z-0.1136
G1 X3.5062 Y3.4181 Z-0.115
G1 X3.5114 Y3.4244 Z-0.1165
G1 X3.5162 Y3.431 Z-0.1179
G1 X3.5205 Y3.4379 Z-0.1194
G1 X3.5243 Y3.4451 Z-0.1208
G1 X3.5277 Y3.4526 Z-0.1222
G1 X3.5306 Y3.4602 Z-0.1237
G1 X3.5329 Y3.468 Z-0.1251
G1 X3.5348 Y3.476 Z-0.1266
G1 X3.5361 Y3.4841 Z-0.128
G1 X3.5369 Y3.4922 Z-0.1294
G1 X3.5372 Y3.5003 Z-0.1309
G1 X3.5369 Y3.5085 Z-0.1323
G1 X3.5361 Y3.5166 Z-0.1338
G1 X3.5348 Y3.5247 Z-0.1352
G1 X3.5329 Y3.5326 Z-0.1366
G1 X3.5306 Y3.5405 Z-0.1381
G1 X3.5277 Y3.5481 Z-0.1395
G1 X3.5243 Y3.5555 Z-0.141
G1 X3.5205 Y3.5627 Z-0.1424
G1 X3.5162 Y3.5697 Z-0.1438
G1 X3.5114 Y3.5763 Z-0.1453
G1 X3.5062 Y3.5826 Z-0.1467
G1 X3.5006 Y3.5886 Z-0.1482
G1 X3.4947 Y3.5942 Z-0.1496
G1 X3.4884 Y3.5994 Z-0.151
G1 X3.4817 Y3.6041 Z-0.1525
G1 X3.4748 Y3.6084 Z-0.1539
G1 X3.4676 Y3.6123 Z-0.1554
G1 X3.4602 Y3.6156 Z-0.1568
G1 X3.4525 Y3.6185 Z-0.1582
G1 X3.4447 Y3.6209 Z-0.1597
G1 X3.4367 Y3.6227 Z-0.1611
G1 X3.4287 Y3.6241 Z-0.1626
G1 X3.4206 Y3.6249 Z-0.164
G1 X3.4124 Y3.6251 Z-0.1654
G1 X3.4042 Y3.6249 Z-0.1669
G1 X3.3961 Y3.6241 Z-0.1683
G1 X3.3881 Y3.6227 Z-0.1698
G1 X3.3801 Y3.6209 Z-0.1712
G1 X3.3723 Y3.6185 Z-0.1726
G1 X3.3646 Y3.6156 Z-0.1741
G1 X3.3572 Y3.6123 Z-0.1755
G1 X3.35 Y3.6084 Z-0.177
G1 X3.3431 Y3.6041 Z-0.1784
G1 X3.3364 Y3.5994 Z-0.1798
G1 X3.3301 Y3.5942 Z-0.1813
G1 X3.3242 Y3.5886 Z-0.1827
G1 X3.3186 Y3.5826 Z-0.1842
G1 X3.3134 Y3.5763 Z-0.1856
G1 X3.3086 Y3.5697 Z-0.187
G1 X3.3043 Y3.5627 Z-0.1885
G1 X3.3005 Y3.5555 Z-0.1899
G1 X3.2971 Y3.5481 Z-0.1914
G1 X3.2942 Y3.5405 Z-0.1928
G1 X3.2919 Y3.5326 Z-0.1942
G1 X3.29 Y3.5247 Z-0.1957
G1 X3.2887 Y3.5166 Z-0.1971
G1 X3.2879 Y3.5085 Z-0.1986
G1 X3.2876 Y3.5003 Z-0.2
G1 F9.0 X3.2879 Y3.4922
G1 X3.2887 Y3.4841
G1 X3.29 Y3.476
G1 X3.2919 Y3.468
G1 X3.2942 Y3.4602
G1 X3.2971 Y3.4526
G1 X3.3005 Y3.4451
G1 X3.3043 Y3.4379
G1 X3.3086 Y3.431
G1 X3.3134 Y3.4244
G1 X3.3186 Y3.4181
G1 X3.3242 Y3.4121
G1 X3.3301 Y3.4065
G1 X3.3364 Y3.4013
G1 X3.3431 Y3.3966
G1 X3.35 Y3.3923
G1 X3.3572 Y3.3884
G1 X3.3646 Y3.385
G1 X3.3723 Y3.3822
G1 X3.3801 Y3.3798
G1 X3.3881 Y3.3779
G1 X3.3961 Y3.3766
G1 X3.4042 Y3.3758
G1 X3.4124 Y3.3755
G1 X3.4206 Y3.3758
G1 X3.4287 Y3.3766
G1 X3.4367 Y3.3779
G1 X3.4447 Y3.3798
G1 X3.4525 Y3.3822
G1 X3.4602 Y3.385
G1 X3.4676 Y3.3884
G1 X3.4748 Y3.3923
G1 X3.4817 Y3.3966
G1 X3.4884 Y3.4013
G1 X3.4947 Y3.4065
G1 X3.5006 Y3.4121
G1 X3.5062 Y3.4181
G1 X3.5114 Y3.4244
G1 X3.5162 Y3.431
G1 X3.5205 Y3.4379
G1 X3.5243 Y3.4451
G1 X3.5277 Y3.4526
G1 X3.5306 Y3.4602
G1 X3.5329 Y3.468
G1 X3.5348 Y3.476
G1 X3.5361 Y3.4841
G1 X3.5369 Y3.4922
G1 X3.5372 Y3.5003
G1 X3.5369 Y3.5085
G1 X3.5361 Y3.5166
G1 X3.5348 Y3.5247
G1 X3.5329 Y3.5326
G1 X3.5306 Y3.5405
G1 X3.5277 Y3.5481
G1 X3.5243 Y3.5555
G1 X3.5205 Y3.5627
G1 X3.5162 Y3.5697
G1 X3.5114 Y3.5763
G1 X3.5062 Y3.5826
G1 X3.5006 Y3.5886
G1 X3.4947 Y3.5942
G1 X3.4884 Y3.5994
G1 X3.4817 Y3.6041
G1 X3.4748 Y3.6084
G1 X3.4676 Y3.6123
G1 X3.4602 Y3.6156
G1 X3.4525 Y3.6185
G1 X3.4447 Y3.6209
G1 X3.4367 Y3.6227
G1 X3.4287 Y3.6241
G1 X3.4206 Y3.6249
G1 X3.4124 Y3.6251
G1 X3.4042 Y3.6249
G1 X3.3961 Y3.6241
G1 X3.3881 Y3.6227
G1 X3.3801 Y3.6209
G1 X3.3723 Y3.6185
G1 X3.3646 Y3.6156
G1 X3.3572 Y3.6123
G1 X3.35 Y3.6084
G1 X3.3431 Y3.6041
G1 X3.3364 Y3.5994
G1 X3.3301 Y3.5942
G1 X3.3242 Y3.5886
G1 X3.3186 Y3.5826
G1 X3.3134 Y3.5763
G1 X3.3086 Y3.5697
G1 X3.3043 Y3.5627
G1 X3.3005 Y3.5555
G1 X3.2971 Y3.5481
G1 X3.2942 Y3.5405
G1 X3.2919 Y3.5326
G1 X3.29 Y3.5247
G1 X3.2887 Y3.5166
G1 X3.2879 Y3.5085
G1 X3.2876 Y3.5003
G1 F5.0 X3.5266 Y3.5506
G1 X3.5243 Y3.5555 Z-0.201
G1 X3.5205 Y3.5627 Z-0.2024
G1 X3.5162 Y3.5697 Z-0.2038
G1 X3.5114 Y3.5763 Z-0.2053
G1 X3.5062 Y3.5826 Z-0.2067
G1 X3.5006 Y3.5886 Z-0.2082
G1 X3.4947 Y3.5942 Z-0.2096
G1 X3.4884 Y3.5994 Z-0.211
G1 X3.4817 Y3.6041 Z-0.2125
G1 X3.4748 Y3.6084 Z-0.2139
G1 X3.4676 Y3.6123 Z-0.2154
G1 X3.4602 Y3.6156 Z-0.2168
G1 X3.4525 Y3.6185 Z-0.2182
G1 X3.4447 Y3.6209 Z-0.2197
G1 X3.4367 Y3.6227 Z-0.2211
G1 X3.4287 Y3.6241 Z-0.2226
G1 X3.4206 Y3.6249 Z-0.224
G1 X3.4124 Y3.6251 Z-0.2254
G1 X3.4042 Y3.6249 Z-0.2269
G1 X3.3961 Y3.6241 Z-0.2283
G1 X3.3881 Y3.6227 Z-0.2298
G1 X3.3801 Y3.6209 Z-0.2312
G1 X3.3723 Y3.6185 Z-0.2326
G1 X3.3646 Y3.6156 Z-0.2341
G1 X3.3572 Y3.6123 Z-0.2355
G1 X3.35 Y3.6084 Z-0.237
G1 X3.3431 Y3.6041 Z-0.2384
G1 X3.3364 Y3.5994 Z-0.2398
G1 X3.3301 Y3.5942 Z-0.2413
G1 X3.3242 Y3.5886 Z-0.2427
G1 X3.3186 Y3.5826 Z-0.2442
G1 X3.3134 Y3.5763 Z-0.2456
G1 X3.3086 Y3.5697 Z-0.247
G1 X3.3043 Y3.5627 Z-0.2485
G1 X3.3005 Y3.5555 Z-0.2499
G1 X3.2971 Y3.5481 Z-0.2514
G1 X3.2942 Y3.5405 Z-0.2528
G1 X3.2919 Y3.5326 Z-0.2542
G1 X3.29 Y3.5247 Z-0.2557
G1 X3.2887 Y3.5166 Z-0.2571
G1 X3.2879 Y3.5085 Z-0.2586
G1 X3.2876 Y3.5003 Z-0.26
G1 F9.0 X3.2879 Y3.4922
G1 X3.2887 Y3.4841
G1 X3.29 Y3.476
G1 X3.2919 Y3.468
G1 X3.2942 Y3.4602
G1 X3.2971 Y3.4526
G1 X3.3005 Y3.4451
G1 X3.3043 Y3.4379
G1 X3.3086 Y3.431
G1 X3.3134 Y3.4244
G1 X3.3186 Y3.4181
G1 X3.3242 Y3.4121
G1 X3.3301 Y3.4065
G1 X3.3364 Y3.4013
G1 X3.3431 Y3.3966
G1 X3.35 Y3.3923
G1 X3.3572 Y3.3884
G1 X3.3646 Y3.385
G1 X3.3723 Y3.3822
G1 X3.3801 Y3.3798
G1 X3.3881 Y3.3779
G1 X3.3961 Y3.3766
G1 X3.4042 Y3.3758
G1 X3.4124 Y3.3755
G1 X3.4206 Y3.3758
G1 X3.4287 Y3.3766
G1 X3.4367 Y3.3779
G1 X3.4447 Y3.3798
G1 X3.4525 Y3.3822
G1 X3.4602 Y3.385
G1 X3.4676 Y3.3884
G1 X3.4748 Y3.3923
G1 X3.4817 Y3.3966
G1 X3.4884 Y3.4013
G1 X3.4947 Y3.4065
G1 X3.5006 Y3.4121
G1 X3.5062 Y3.4181
G1 X3.5114 Y3.4244
G1 X3.5162 Y3.431
G1 X3.5205 Y3.4379
G1 X3.5243 Y3.4451
G1 X3.5277 Y3.4526
G1 X3.5306 Y3.4602
G1 X3.5329 Y3.468
G1 X3.5348 Y3.476
G1 X3.5361 Y3.4841
G1 X3.5369 Y3.4922
G1 X3.5372 Y3.5003
G1 X3.5369 Y3.5085
G1 X3.5361 Y3.5166
G1 X3.5348 Y3.5247
G1 X3.5329 Y3.5326
G1 X3.5306 Y3.5405
G1 X3.5277 Y3.5481
G1 X3.5243 Y3.5555
G1 X3.5205 Y3.5627
G1 X3.5162 Y3.5697
G1 X3.5114 Y3.5763
G1 X3.5062 Y3.5826
G1 X3.5006 Y3.5886
G1 X3.4947 Y3.5942
G1 X3.4884 Y3.5994
G1 X3.4817 Y3.6041
G1 X3.4748 Y3.6084
G1 X3.4676 Y3.6123
G1 X3.4602 Y3.6156
G1 X3.4525 Y3.6185
G1 X3.4447 Y3.6209
G1 X3.4367 Y3.6227
G1 X3.4287 Y3.6241
G1 X3.4206 Y3.6249
G1 X3.4124 Y3.6251
G1 X3.4042 Y3.6249
G1 X3.3961 Y3.6241
G1 X3.3881 Y3.6227
G1 X3.3801 Y3.6209
G1 X3.3723 Y3.6185
G1 X3.3646 Y3.6156
G1 X3.3572 Y3.6123
G1 X3.35 Y3.6084
G1 X3.3431 Y3.6041
G1 X3.3364 Y3.5994
G1 X3.3301 Y3.5942
G1 X3.3242 Y3.5886
G1 X3.3186 Y3.5826
G1 X3.3134 Y3.5763
G1 X3.3086 Y3.5697
G1 X3.3043 Y3.5627
G1 X3.3005 Y3.5555
G1 X3.2971 Y3.5481
G1 X3.2942 Y3.5405
G1 X3.2919 Y3.5326
G1 X3.29 Y3.5247
G1 X3.2887 Y3.5166
G1 X3.2879 Y3.5085
G1 X3.2876 Y3.5003
( Pocket5 )
S4000
G0 Z0.05
G0 X6.7334 Y1.0649
G1 F5.0 Z0.0
G1 X6.7369 Y1.0654 Z-0.0006
G1 X6.7449 Y1.0673 Z-0.0021
G1 X6.7527 Y1.0697 Z-0.0035
G1 X6.7604 Y1.0725 Z-0.005
G1 X6.7678 Y1.0759 Z-0.0064
G1 X6.775 Y1.0798 Z-0.0078
G1 X6.7819 Y1.0841 Z-0.0093
G1 X6.7886 Y1.0888 Z-0.0107
G1 X6.7949 Y1.094 Z-0.0122
G1 X6.8008 Y1.0996 Z-0.0136
G1 X6.8064 Y1.1056 Z-0.015
G1 X6.8116 Y1.1119 Z-0.0165
G1 X6.8164 Y1.1185 Z-0.0179
G1 X6.8207 Y1.1254 Z-0.0194
G1 X6.8245 Y1.1326 Z-0.0208
G1 X6.8279 Y1.1401 Z-0.0222
G1 X6.8308 Y1.1477 Z-0.0237
G1 X6.8331 Y1.1555 Z-0.0251
G1 X6.835 Y1.1635 Z-0.0266
G1 X6.8363 Y1.1716 Z-0.028
G1 X6.8371 Y1.1797 Z-0.0294
G1 X6.8374 Y1.1878 Z-0.0309
G1 X6.8371 Y1.196 Z-0.0323
G1 X6.8363 Y1.2041 Z-0.0338
G1 X6.835 Y1.2122 Z-0.0352
G1 X6.8331 Y1.2201 Z-0.0366
G1 X6.8308 Y1.228 Z-0.0381
G1 X6.8279 Y1.2356 Z-0.0395
G1 X6.8245 Y1.243 Z-0.041
G1 X6.8207 Y1.2502 Z-0.0424
G1 X6.8164 Y1.2572 Z-0.0438
G1 X6.8116 Y1.2638 Z-0.0453
G1 X6.8064 Y1.2701 Z-0.0467
G1 X6.8008 Y1.2761 Z-0.0482
G1 X6.7949 Y1.2817 Z-0.0496
G1 X6.7886 Y1.2869 Z-0.051
G1 X6.7819 Y1.2916 Z-0.0525
G1 X6.775 Y1.2959 Z-0.0539
G1 X6.7678 Y1.2998 Z-0.0554
G1 X6.7604 Y1.3031 Z-0.0568
G1 X6.7527 Y1.306 Z-0.0582
G1 X6.7449 Y1.3084 Z-0.0597
G1 X6.7369 Y1.3102 Z-0.0611
G1 X6.7289 Y1.3116 Z-0.0626
G1 X6.7208 Y1.3124 Z-0.064
G1 X6.7126 Y1.3126 Z-0.0654
G1 X6.7044 Y1.3124 Z-0.0669
G1 X6.6963 Y1.3116 Z-0.0683
G1 X6.6883 Y1.3102 Z-0.0698
G1 X6.6803 Y1.3084 Z-0.0712
G1 X6.6725 Y1.306 Z-0.0726
G1 X6.6648 Y1.3031 Z-0.0741
G1 X6.6574 Y1.2998 Z-0.0755
G1 X6.6502 Y1.2959 Z-0.077
G1 X6.6433 Y1.2916 Z-0.0784
G1 X6.6366 Y1.2869 Z-0.0798
G1 X6.6303 Y1.2817 Z-0.0813
G1 X6.6244 Y1.2761 Z-0.0827
G1 X6.6188 Y1.2701 Z-0.0842
G1 X6.6136 Y1.2638 Z-0.0856
G1 X6.6088 Y1.2572 Z-0.087
G1 X6.6045 Y1.2502 Z-0.0885
G1 X6.6007 Y1.243 Z-0.0899
G1 X6.5973 Y1.2356 Z-0.0914
G1 X6.5944 Y1.228 Z-0.0928
G1 X6.5921 Y1.2201 Z-0.0942
G1 X6.5902 Y1.2122 Z-0.0957
G1 X6.5889 Y1.2041 Z-0.0971
G1 X6.5881 Y1.196 Z-0.0986
G1 X6.5878 Y1.1878 Z-0.1
G1 F9.0 X6.5881 Y1.1797
G1 X6.5889 Y1.1716
G1 X6.5902 Y1.1635
G1 X6.5921 Y1.1555
G1 X6.5944 Y1.1477
G1 X6.5973 Y1.1401
G1 X6.6007 Y1.1326
G1 X6.6045 Y1.1254
G1 X6.6088 Y1.1185
G1 X6.6136 Y1.1119
G1 X6.6188 Y1.1056
G1 X6.6244 Y1.0996
G1 X6.6303 Y1.094
G1 X6.6366 Y1.0888
G1 X6.6433 Y1.0841
G1 X6.6502 Y1.0798
G1 X6.6574 Y1.0759
G1 X6.6648 Y1.0725
G1 X6.6725 Y1.0697
G1 X6.6803 Y1.0673
G1 X6.6883 Y1.0654
G1 X6.6963 Y1.0641
G1 X6.7044 Y1.0633
G1 X6.7126 Y1.063
G1 X6.7208 Y1.0633
G1 X6.7289 Y1.0641
G1 X6.7369 Y1.0654
G1 X6.7449 Y1.0673
G1 X6.7527 Y1.0697
G1 X6.7604 Y1.0725
G1 X6.7678 Y1.0759
G1 X6.775 Y1.0798
G1 X6.7819 Y1.0841
G1 X6.7886 Y1.0888
G1 X6.7949 Y1.094
G1 X6.8008 Y1.0996
G1 X6.8064 Y1.1056
G1 X6.8116 Y1.1119
G1 X6.8164 Y1.1185
G1 X6.8207 Y1.1254
G1 X6.8245 Y1.1326
G1 X6.8279 Y1.1401
G1 X6.8308 Y1.1477
G1 X6.8331 Y1.1555
G1 X6.835 Y1.1635
G1 X6.8363 Y1.1716
G1 X6.8371 Y1.1797
G1 X6.8374 Y1.1878
G1 X6.8371 Y1.196
G1 X6.8363 Y1.2041
G1 X6.835 Y1.2122
G1 X6.8331 Y1.2201
G1 X6.8308 Y1.228
G1 X6.8279 Y1.2356
G1 X6.8245 Y1.243
G1 X6.8207 Y1.2502
G1 X6.8164 Y1.2572
G1 X6.8116 Y1.2638
G1 X6.8064 Y1.2701
G1 X6.8008 Y1.2761
G1 X6.7949 Y1.2817
G1 X6.7886 Y1.2869
G1 X6.7819 Y1.2916
G1 X6.775 Y1.2959
G1 X6.7678 Y1.2998
G1 X6.7604 Y1.3031
G1 X6.7527 Y1.306
G1 X6.7449 Y1.3084
G1 X6.7369 Y1.3102
G1 X6.7289 Y1.3116
G1 X6.7208 Y1.3124
G1 X6.7126 Y1.3126
G1 X6.7044 Y1.3124
G1 X6.6963 Y1.3116
G1 X6.6883 Y1.3102
G1 X6.6803 Y1.3084
G1 X6.6725 Y1.306
G1 X6.6648 Y1.3031
G1 X6.6574 Y1.2998
G1 X6.6502 Y1.2959
G1 X6.6433 Y1.2916
G1 X6.6366 Y1.2869
G1 X6.6303 Y1.2817
G1 X6.6244 Y1.2761
G1 X6.6188 Y1.2701
G1 X6.6136 Y1.2638
G1 X6.6088 Y1.2572
G1 X6.6045 Y1.2502
G1 X6.6007 Y1.243
G1 X6.5973 Y1.2356
G1 X6.5944 Y1.228
G1 X6.5921 Y1.2201
G1 X6.5902 Y1.2122
G1 X6.5889 Y1.2041
G1 X6.5881 Y1.196
G1 X6.5878 Y1.1878
G1 F5.0 X6.7334 Y1.0649
G1 X6.7369 Y1.0654 Z-0.1006
G1 X6.7449 Y1.0673 Z-0.1021
G1 X6.7527 Y1.0697 Z-0.1035
G1 X6.7604 Y1.0725 Z-0.105
G1 X6.7678 Y1.0759 Z-0.1064
G1 X6.775 Y1.0798 Z-0.1078
G1 X6.7819 Y1.0841 Z-0.1093
G1 X6.7886 Y1.0888 Z-0.1107
G1 X6.7949 Y1.094 Z-0.1122
G1 X6.8008 Y1.0996 Z-0.1136
G1 X6.8064 Y1.1056 Z-0.115
G1 X6.8116 Y1.1119 Z-0.1165
G1 X6.8164 Y1.1185 Z-0.1179
G1 X6.8207 Y1.1254 Z-0.1194
G1 X6.8245 Y1.1326 Z-0.1208
G1 X6.8279 Y1.1401 Z-0.1222
G1 X6.8308 Y1.1477 Z-0.1237
G1 X6.8331 Y1.1555 Z-0.1251
G1 X6.835 Y1.1635 Z-0.1266
G1 X6.8363 Y1.1716 Z-0.128
G1 X6.8371 Y1.1797 Z-0.1294
G1 X6.8374 Y1.1878 Z-0.1309
G1 X6.8371 Y1.196 Z-0.1323
G1 X6.8363 Y1.2041 Z-0.1338
G1 X6.835 Y1.2122 Z-0.1352
G1 X6.8331 Y1.2201 Z-0.1366
G1 X6.8308 Y1.228 Z-0.1381
G1 X6.8279 Y1.2356 Z-0.1395
G1 X6.8245 Y1.243 Z-0.141
G1 X6.8207 Y1.2502 Z-0.1424
G1 X6.8164 Y1.2572 Z-0.1438
G1 X6.8116 Y1.2638 Z-0.1453
G1 X6.8064 Y1.2701 Z-0.1467
G1 X6.8008 Y1.2761 Z-0.1482
G1 X6.7949 Y1.2817 Z-0.1496
G1 X6.7886 Y1.2869 Z-0.151
G1 X6.7819 Y1.2916 Z-0.1525
G1 X6.775 Y1.2959 Z-0.1539
G1 X6.7678 Y1.2998 Z-0.1554
G1 X6.7604 Y1.3031 Z-0.1568
G1 X6.7527 Y1.306 Z-0.1582
G1 X6.7449 Y1.3084 Z-0.1597
G1 X6.7369 Y1.3102 Z-0.1611
G1 X6.7289 Y1.3116 Z-0.1626
G1 X6.7208 Y1.3124 Z-0.164
G1 X6.7126 Y1.3126 Z-0.1654
G1 X6.7044 Y1.3124 Z-0.1669
G1 X6.6963 Y1.3116 Z-0.1683
G1 X6.6883 Y1.3102 Z-0.1698
G1 X6.6803 Y1.3084 Z-0.1712
G1 X6.6725 Y1.306 Z-0.1726
G1 X6.6648 Y1.3031 Z-0.1741
G1 X6.6574 Y1.2998 Z-0.1755
G1 X6.6502 Y1.2959 Z-0.177
G1 X6.6433 Y1.2916 Z-0.1784
G1 X6.6366 Y1.2869 Z-0.1798
G1 X6.6303 Y1.2817 Z-0.1813
G1 X6.6244 Y1.2761 Z-0.1827
G1 X6.6188 Y1.2701 Z-0.1842
G1 X6.6136 Y1.2638 Z-0.1856
G1 X6.6088 Y1.2572 Z-0.187
G1 X6.6045 Y1.2502 Z-0.1885
G1 X6.6007 Y1.243 Z-0.1899
G1 X6.5973 Y1.2356 Z-0.1914
G1 X6.5944 Y1.228 Z-0.1928
G1 X6.5921 Y1.2201 Z-0.1942
G1 X6.5902 Y1.2122 Z-0.1957
G1 X6.5889 Y1.2041 Z-0.1971
G1 X6.5881 Y1.196 Z-0.1986
G1 X6.5878 Y1.1878 Z-0.2
G1 F9.0 X6.5881 Y1.1797
G1 X6.5889 Y1.1716
G1 X6.5902 Y1.1635
G1 X6.5921 Y1.1555
G1 X6.5944 Y1.1477
G1 X6.5973 Y1.1401
G1 X6.6007 Y1.1326
G1 X6.6045 Y1.1254
G1 X6.6088 Y1.1185
G1 X6.6136 Y1.1119
G1 X6.6188 Y1.1056
G1 X6.6244 Y1.0996
G1 X6.6303 Y1.094
G1 X6.6366 Y1.0888
G1 X6.6433 Y1.0841
G1 X6.6502 Y1.0798
G1 X6.6574 Y1.0759
G1 X6.6648 Y1.0725
G1 X6.6725 Y1.0697
G1 X6.6803 Y1.0673
G1 X6.6883 Y1.0654
G1 X6.6963 Y1.0641
G1 X6.7044 Y1.0633
G1 X6.7126 Y1.063
G1 X6.7208 Y1.0633
G1 X6.7289 Y1.0641
G1 X6.7369 Y1.0654
G1 X6.7449 Y1.0673
G1 X6.7527 Y1.0697
G1 X6.7604 Y1.0725
G1 X6.7678 Y1.0759
G1 X6.775 Y1.0798
G1 X6.7819 Y1.0841
G1 X6.7886 Y1.0888
G1 X6.7949 Y1.094
G1 X6.8008 Y1.0996
G1 X6.8064 Y1.1056
G1 X6.8116 Y1.1119
G1 X6.8164 Y1.1185
G1 X6.8207 Y1.1254
G1 X6.8245 Y1.1326
G1 X6.8279 Y1.1401
G1 X6.8308 Y1.1477
G1 X6.8331 Y1.1555
G1 X6.835 Y1.1635
G1 X6.8363 Y1.1716
G1 X6.8371 Y1.1797
G1 X6.8374 Y1.1878
G1 X6.8371 Y1.196
G1 X6.8363 Y1.2041
G1 X6.835 Y1.2122
G1 X6.8331 Y1.2201
G1 X6.8308 Y1.228
G1 X6.8279 Y1.2356
G1 X6.8245 Y1.243
G1 X6.8207 Y1.2502
G1 X6.8164 Y1.2572
G1 X6.8116 Y1.2638
G1 X6.8064 Y1.2701
G1 X6.8008 Y1.2761
G1 X6.7949 Y1.2817
G1 X6.7886 Y1.2869
G1 X6.7819 Y1.2916
G1 X6.775 Y1.2959
G1 X6.7678 Y1.2998
G1 X6.7604 Y1.3031
G1 X6.7527 Y1.306
G1 X6.7449 Y1.3084
G1 X6.7369 Y1.3102
G1 X6.7289 Y1.3116
G1 X6.7208 Y1.3124
G1 X6.7126 Y1.3126
G1 X6.7044 Y1.3124
G1 X6.6963 Y1.3116
G1 X6.6883 Y1.3102
G1 X6.6803 Y1.3084
G1 X6.6725 Y1.306
G1 X6.6648 Y1.3031
G1 X6.6574 Y1.2998
G1 X6.6502 Y1.2959
G1 X6.6433 Y1.2916
G1 X6.6366 Y1.2869
G1 X6.6303 Y1.2817
G1 X6.6244 Y1.2761
G1 X6.6188 Y1.2701
G1 X6.6136 Y1.2638
G1 X6.6088 Y1.2572
G1 X6.6045 Y1.2502
G1 X6.6007 Y1.243
G1 X6.5973 Y1.2356
G1 X6.5944 Y1.228
G1 X6.5921 Y1.2201
G1 X6.5902 Y1.2122
G1 X6.5889 Y1.2041
G1 X6.5881 Y1.196
G1 X6.5878 Y1.1878
G1 F5.0 X6.8268 Y1.2381
G1 X6.8245 Y1.243 Z-0.201
G1 X6.8207 Y1.2502 Z-0.2024
G1 X6.8164 Y1.2572 Z-0.2038
G1 X6.8116 Y1.2638 Z-0.2053
G1 X6.8064 Y1.2701 Z-0.2067
G1 X6.8008 Y1.2761 Z-0.2082
G1 X6.7949 Y1.2817 Z-0.2096
G1 X6.7886 Y1.2869 Z-0.211
G1 X6.7819 Y1.2916 Z-0.2125
G1 X6.775 Y1.2959 Z-0.2139
G1 X6.7678 Y1.2998 Z-0.2154
G1 X6.7604 Y1.3031 Z-0.2168
G1 X6.7527 Y1.306 Z-0.2182
G1 X6.7449 Y1.3084 Z-0.2197
G1 X6.7369 Y1.3102 Z-0.2211
G1 X6.7289 Y1.3116 Z-0.2226
G1 X6.7208 Y1.3124 Z-0.224
G1 X6.7126 Y1.3126 Z-0.2254
G1 X6.7044 Y1.3124 Z-0.2269
G1 X6.6963 Y1.3116 Z-0.2283
G1 X6.6883 Y1.3102 Z-0.2298
G1 X6.6803 Y1.3084 Z-0.2312
G1 X6.6725 Y1.306 Z-0.2326
G1 X6.6648 Y1.3031 Z-0.2341
G1 X6.6574 Y1.2998 Z-0.2355
G1 X6.6502 Y1.2959 Z-0.237
G1 X6.6433 Y1.2916 Z-0.2384
G1 X6.6366 Y1.2869 Z-0.2398
G1 X6.6303 Y1.2817 Z-0.2413
G1 X6.6244 Y1.2761 Z-0.2427
G1 X6.6188 Y1.2701 Z-0.2442
G1 X6.6136 Y1.2638 Z-0.2456
G1 X6.6088 Y1.2572 Z-0.247
G1 X6.6045 Y1.2502 Z-0.2485
G1 X6.6007 Y1.243 Z-0.2499
G1 X6.5973 Y1.2356 Z-0.2514
G1 X6.5944 Y1.228 Z-0.2528
G1 X6.5921 Y1.2201 Z-0.2542
G1 X6.5902 Y1.2122 Z-0.2557
G1 X6.5889 Y1.2041 Z-0.2571
G1 X6.5881 Y1.196 Z-0.2586
G1 X6.5878 Y1.1878 Z-0.26
G1 F9.0 X6.5881 Y1.1797
G1 X6.5889 Y1.1716
G1 X6.5902 Y1.1635
G1 X6.5921 Y1.1555
G1 X6.5944 Y1.1477
G1 X6.5973 Y1.1401
G1 X6.6007 Y1.1326
G1 X6.6045 Y1.1254
G1 X6.6088 Y1.1185
G1 X6.6136 Y1.1119
G1 X6.6188 Y1.1056
G1 X6.6244 Y1.0996
G1 X6.6303 Y1.094
G1 X6.6366 Y1.0888
G1 X6.6433 Y1.0841
G1 X6.6502 Y1.0798
G1 X6.6574 Y1.0759
G1 X6.6648 Y1.0725
G1 X6.6725 Y1.0697
G1 X6.6803 Y1.0673
G1 X6.6883 Y1.0654
G1 X6.6963 Y1.0641
G1 X6.7044 Y1.0633
G1 X6.7126 Y1.063
G1 X6.7208 Y1.0633
G1 X6.7289 Y1.0641
G1 X6.7369 Y1.0654
G1 X6.7449 Y1.0673
G1 X6.7527 Y1.0697
G1 X6.7604 Y1.0725
G1 X6.7678 Y1.0759
G1 X6.775 Y1.0798
G1 X6.7819 Y1.0841
G1 X6.7886 Y1.0888
G1 X6.7949 Y1.094
G1 X6.8008 Y1.0996
G1 X6.8064 Y1.1056
G1 X6.8116 Y1.1119
G1 X6.8164 Y1.1185
G1 X6.8207 Y1.1254
G1 X6.8245 Y1.1326
G1 X6.8279 Y1.1401
G1 X6.8308 Y1.1477
G1 X6.8331 Y1.1555
G1 X6.835 Y1.1635
G1 X6.8363 Y1.1716
G1 X6.8371 Y1.1797
G1 X6.8374 Y1.1878
G1 X6.8371 Y1.196
G1 X6.8363 Y1.2041
G1 X6.835 Y1.2122
G1 X6.8331 Y1.2201
G1 X6.8308 Y1.228
G1 X6.8279 Y1.2356
G1 X6.8245 Y1.243
G1 X6.8207 Y1.2502
G1 X6.8164 Y1.2572
G1 X6.8116 Y1.2638
G1 X6.8064 Y1.2701
G1 X6.8008 Y1.2761
G1 X6.7949 Y1.2817
G1 X6.7886 Y1.2869
G1 X6.7819 Y1.2916
G1 X6.775 Y1.2959
G1 X6.7678 Y1.2998
G1 X6.7604 Y1.3031
G1 X6.7527 Y1.306
G1 X6.7449 Y1.3084
G1 X6.7369 Y1.3102
G1 X6.7289 Y1.3116
G1 X6.7208 Y1.3124
G1 X6.7126 Y1.3126
G1 X6.7044 Y1.3124
G1 X6.6963 Y1.3116
G1 X6.6883 Y1.3102
G1 X6.6803 Y1.3084
G1 X6.6725 Y1.306
G1 X6.6648 Y1.3031
G1 X6.6574 Y1.2998
G1 X6.6502 Y1.2959
G1 X6.6433 Y1.2916
G1 X6.6366 Y1.2869
G1 X6.6303 Y1.2817
G1 X6.6244 Y1.2761
G1 X6.6188 Y1.2701
G1 X6.6136 Y1.2638
G1 X6.6088 Y1.2572
G1 X6.6045 Y1.2502
G1 X6.6007 Y1.243
G1 X6.5973 Y1.2356
G1 X6.5944 Y1.228
G1 X6.5921 Y1.2201
G1 X6.5902 Y1.2122
G1 X6.5889 Y1.2041
G1 X6.5881 Y1.196
G1 X6.5878 Y1.1878
( Pocket6 )
S4000
G0 Z0.05
G0 X8.3082 Y1.0649
G1 F5.0 Z0.0
G1 X8.3117 Y1.0654 Z-0.0006
G1 X8.3197 Y1.0673 Z-0.0021
G1 X8.3275 Y1.0697 Z-0.0035
G1 X8.3352 Y1.0725 Z-0.005
G1 X8.3426 Y1.0759 Z-0.0064
G1 X8.3498 Y1.0798 Z-0.0078
G1 X8.3567 Y1.0841 Z-0.0093
G1 X8.3634 Y1.0888 Z-0.0107
G1 X8.3697 Y1.094 Z-0.0122
G1 X8.3756 Y1.0996 Z-0.0136
G1 X8.3812 Y1.1056 Z-0.015
G1 X8.3864 Y1.1119 Z-0.0165
G1 X8.3912 Y1.1185 Z-0.0179
G1 X8.3955 Y1.1254 Z-0.0194
G1 X8.3993 Y1.1326 Z-0.0208
G1 X8.4027 Y1.1401 Z-0.0222
G1 X8.4056 Y1.1477 Z-0.0237
G1 X8.4079 Y1.1555 Z-0.0251
G1 X8.4098 Y1.1635 Z-0.0266
G1 X8.4111 Y1.1716 Z-0.028
G1 X8.4119 Y1.1797 Z-0.0294
G1 X8.4122 Y1.1878 Z-0.0309
G1 X8.4119 Y1.196 Z-0.0323
G1 X8.4111 Y1.2041 Z-0.0338
G1 X8.4098 Y1.2122 Z-0.0352
G1 X8.4079 Y1.2201 Z-0.0366
G1 X8.4056 Y1.228 Z-0.0381
G1 X8.4027 Y1.2356 Z-0.0395
G1 X8.3993 Y1.243 Z-0.041
G1 X8.3955 Y1.2502 Z-0.0424
G1 X8.3912 Y1.2572 Z-0.0438
G1 X8.3864 Y1.2638 Z-0.0453
G1 X8.3812 Y1.2701 Z-0.0467
G1 X8.3756 Y1.2761 Z-0.0482
G1 X8.3697 Y1.2817 Z-0.0496
G1 X8.3634 Y1.2869 Z-0.051
G1 X8.3567 Y1.2916 Z-0.0525
G1 X8.3498 Y1.2959 Z-0.0539
G1 X8.3426 Y1.2998 Z-0.0554
G1 X8.3352 Y1.3031 Z-0.0568
G1 X8.3275 Y1.306 Z-0.0582
G1 X8.3197 Y1.3084 Z-0.0597
G1 X8.3117 Y1.3102 Z-0.0611
G1 X8.3037 Y1.3116 Z-0.0626
G1 X8.2956 Y1.3124 Z-0.064
G1 X8.2874 Y1.3126 Z-0.0654
G1 X8.2792 Y1.3124 Z-0.0669
G1 X8.2711 Y1.3116 Z-0.0683
G1 X8.2631 Y1.3102 Z-0.0698
G1 X8.2551 Y1.3084 Z-0.0712
G1 X8.2473 Y1.306 Z-0.0726
G1 X8.2396 Y1.3031 Z-0.0741
G1 X8.2322 Y1.2998 Z-0.0755
G1 X8.225 Y1.2959 Z-0.077
G1 X8.2181 Y1.2916 Z-0.0784
G1 X8.2114 Y1.2869 Z-0.0798
G1 X8.2051 Y1.2817 Z-0.0813
G1 X8.1992 Y1.2761 Z-0.0827
G1 X8.1936 Y1.2701 Z-0.0842
G1 X8.1884 Y1.2638 Z-0.0856
G1 X8.1836 Y1.2572 Z-0.087
G1 X8.1793 Y1.2502 Z-0.0885
G1 X8.1755 Y1.243 Z-0.0899
G1 X8.1721 Y1.2356 Z-0.0914
G1 X8.1692 Y1.228 Z-0.0928
G1 X8.1669 Y1.2201 Z-0.0942
G1 X8.165 Y1.2122 Z-0.0957
G1 X8.1637 Y1.2041 Z-0.0971
G1 X8.1629 Y1.196 Z-0.0986
G1 X8.1626 Y1.1878 Z-0.1
G1 F9.0 X8.1629 Y1.1797
G1 X8.1637 Y1.1716
G1 X8.165 Y1.1635
G1 X8.1669 Y1.1555
G1 X8.1692 Y1.1477
G1 X8.1721 Y1.1401
G1 X8.1755 Y1.1326
G1 X8.1793 Y1.1254
G1 X8.1836 Y1.1185
G1 X8.1884 Y1.1119
G1 X8.1936 Y1.1056
G1 X8.1992 Y1.0996
G1 X8.2051 Y1.094
G1 X8.2114 Y1.0888
G1 X8.2181 Y1.0841
G1 X8.225 Y1.0798
G1 X8.2322 Y1.0759
G1 X8.2396 Y1.0725
G1 X8.2473 Y1.0697
G1 X8.2551 Y1.0673
G1 X8.2631 Y1.0654
G1 X8.2711 Y1.0641
G1 X8.2792 Y1.0633
G1 X8.2874 Y1.063
G1 X8.2956 Y1.0633
G1 X8.3037 Y1.0641
G1 X8.3117 Y1.0654
G1 X8.3197 Y1.0673
G1 X8.3275 Y1.0697
G1 X8.3352 Y1.0725
G1 X8.3426 Y1.0759
G1 X8.3498 Y1.0798
G1 X8.3567 Y1.0841
G1 X8.3634 Y1.0888
G1 X8.3697 Y1.094
G1 X8.3756 Y1.0996
G1 X8.3812 Y1.1056
G1 X8.3864 Y1.1119
G1 X8.3912 Y1.1185
G1 X8.3955 Y1.1254
G1 X8.3993 Y1.1326
G1 X8.4027 Y1.1401
G1 X8.4056 Y1.1477
G1 X8.4079 Y1.1555
G1 X8.4098 Y1.1635
G1 X8.4111 Y1.1716
G1 X8.4119 Y1.1797
G1 X8.4122 Y1.1878
G1 X8.4119 Y1.196
G1 X8.4111 Y1.2041
G1 X8.4098 Y1.2122
G1 X8.4079 Y1.2201
G1 X8.4056 Y1.228
G1 X8.4027 Y1.2356
G1 X8.3993 Y1.243
G1 X8.3955 Y1.2502
G1 X8.3912 Y1.2572
G1 X8.3864 Y1.2638
G1 X8.3812 Y1.2701
G1 X8.3756 Y1.2761
G1 X8.3697 Y1.2817
G1 X8.3634 Y1.2869
G1 X8.3567 Y1.2916
G1 X8.3498 Y1.2959
G1 X8.3426 Y1.2998
G1 X8.3352 Y1.3031
G1 X8.3275 Y1.306
G1 X8.3197 Y1.3084
G1 X8.3117 Y1.3102
G1 X8.3037 Y1.3116
G1 X8.2956 Y1.3124
G1 X8.2874 Y1.3126
G1 X8.2792 Y1.3124
G1 X8.2711 Y1.3116
G1 X8.2631 Y1.3102
G1 X8.2551 Y1.3084
G1 X8.2473 Y1.306
G1 X8.2396 Y1.3031
G1 X8.2322 Y1.2998
G1 X8.225 Y1.2959
G1 X8.2181 Y1.2916
G1 X8.2114 Y1.2869
G1 X8.2051 Y1.2817
G1 X8.1992 Y1.2761
G1 X8.1936 Y1.2701
G1 X8.1884 Y1.2638
G1 X8.1836 Y1.2572
G1 X8.1793 Y1.2502
G1 X8.1755 Y1.243
G1 X8.1721 Y1.2356
G1 X8.1692 Y1.228
G1 X8.1669 Y1.2201
G1 X8.165 Y1.2122
G1 X8.1637 Y1.2041
G1 X8.1629 Y1.196
G1 X8.1626 Y1.1878
G1 F5.0 X8.3082 Y1.0649
G1 X8.3117 Y1.0654 Z-0.1006
G1 X8.3197 Y1.0673 Z-0.1021
G1 X8.3275 Y1.0697 Z-0.1035
G1 X8.3352 Y1.0725 Z-0.105
G1 X8.3426 Y1.0759 Z-0.1064
G1 X8.3498 Y1.0798 Z-0.1078
G1 X8.3567 Y1.0841 Z-0.1093
G1 X8.3634 Y1.0888 Z-0.1107
G1 X8.3697 Y1.094 Z-0.1122
G1 X8.3756 Y1.0996 Z-0.1136
G1 X8.3812 Y1.1056 Z-0.115
G1 X8.3864 Y1.1119 Z-0.1165
G1 X8.3912 Y1.1185 Z-0.1179
G1 X8.3955 Y1.1254 Z-0.1194
G1 X8.3993 Y1.1326 Z-0.1208
G1 X8.4027 Y1.1401 Z-0.1222
G1 X8.4056 Y1.1477 Z-0.1237
G1 X8.4079 Y1.1555 Z-0.1251
G1 X8.4098 Y1.1635 Z-0.1266
G1 X8.4111 Y1.1716 Z-0.128
G1 X8.4119 Y1.1797 Z-0.1294
G1 X8.4122 Y1.1878 Z-0.1309
G1 X8.4119 Y1.196 Z-0.1323
G1 X8.4111 Y1.2041 Z-0.1338
G1 X8.4098 Y1.2122 Z-0.1352
G1 X8.4079 Y1.2201 Z-0.1366
G1 X8.4056 Y1.228 Z-0.1381
G1 X8.4027 Y1.2356 Z-0.1395
G1 X8.3993 Y1.243 Z-0.141
G1 X8.3955 Y1.2502 Z-0.1424
G1 X8.3912 Y1.2572 Z-0.1438
G1 X8.3864 Y1.2638 Z-0.1453
G1 X8.3812 Y1.2701 Z-0.1467
G1 X8.3756 Y1.2761 Z-0.1482
G1 X8.3697 Y1.2817 Z-0.1496
G1 X8.3634 Y1.2869 Z-0.151
G1 X8.3567 Y1.2916 Z-0.1525
G1 X8.3498 Y1.2959 Z-0.1539
G1 X8.3426 Y1.2998 Z-0.1554
G1 X8.3352 Y1.3031 Z-0.1568
G1 X8.3275 Y1.306 Z-0.1582
G1 X8.3197 Y1.3084 Z-0.1597
G1 X8.3117 Y1.3102 Z-0.1611
G1 X8.3037 Y1.3116 Z-0.1626
G1 X8.2956 Y1.3124 Z-0.164
G1 X8.2874 Y1.3126 Z-0.1654
G1 X8.2792 Y1.3124 Z-0.1669
G1 X8.2711 Y1.3116 Z-0.1683
G1 X8.2631 Y1.3102 Z-0.1698
G1 X8.2551 Y1.3084 Z-0.1712
G1 X8.2473 Y1.306 Z-0.1726
G1 X8.2396 Y1.3031 Z-0.1741
G1 X8.2322 Y1.2998 Z-0.1755
G1 X8.225 Y1.2959 Z-0.177
G1 X8.2181 Y1.2916 Z-0.1784
G1 X8.2114 Y1.2869 Z-0.1798
G1 X8.2051 Y1.2817 Z-0.1813
G1 X8.1992 Y1.2761 Z-0.1827
G1 X8.1936 Y1.2701 Z-0.1842
G1 X8.1884 Y1.2638 Z-0.1856
G1 X8.1836 Y1.2572 Z-0.187
G1 X8.1793 Y1.2502 Z-0.1885
G1 X8.1755 Y1.243 Z-0.1899
G1 X8.1721 Y1.2356 Z-0.1914
G1 X8.1692 Y1.228 Z-0.1928
G1 X8.1669 Y1.2201 Z-0.1942
G1 X8.165 Y1.2122 Z-0.1957
G1 X8.1637 Y1.2041 Z-0.1971
G1 X8.1629 Y1.196 Z-0.1986
G1 X8.1626 Y1.1878 Z-0.2
G1 F9.0 X8.1629 Y1.1797
G1 X8.1637 Y1.1716
G1 X8.165 Y1.1635
G1 X8.1669 Y1.1555
G1 X8.1692 Y1.1477
G1 X8.1721 Y1.1401
G1 X8.1755 Y1.1326
G1 X8.1793 Y1.1254
G1 X8.1836 Y1.1185
G1 X8.1884 Y1.1119
G1 X8.1936 Y1.1056
G1 X8.1992 Y1.0996
G1 X8.2051 Y1.094
G1 X8.2114 Y1.0888
G1 X8.2181 Y1.0841
G1 X8.225 Y1.0798
G1 X8.2322 Y1.0759
G1 X8.2396 Y1.0725
G1 X8.2473 Y1.0697
G1 X8.2551 Y1.0673
G1 X8.2631 Y1.0654
G1 X8.2711 Y1.0641
G1 X8.2792 Y1.0633
G1 X8.2874 Y1.063
G1 X8.2956 Y1.0633
G1 X8.3037 Y1.0641
G1 X8.3117 Y1.0654
G1 X8.3197 Y1.0673
G1 X8.3275 Y1.0697
G1 X8.3352 Y1.0725
G1 X8.3426 Y1.0759
G1 X8.3498 Y1.0798
G1 X8.3567 Y1.0841
G1 X8.3634 Y1.0888
G1 X8.3697 Y1.094
G1 X8.3756 Y1.0996
G1 X8.3812 Y1.1056
G1 X8.3864 Y1.1119
G1 X8.3912 Y1.1185
G1 X8.3955 Y1.1254
G1 X8.3993 Y1.1326
G1 X8.4027 Y1.1401
G1 X8.4056 Y1.1477
G1 X8.4079 Y1.1555
G1 X8.4098 Y1.1635
G1 X8.4111 Y1.1716
G1 X8.4119 Y1.1797
G1 X8.4122 Y1.1878
G1 X8.4119 Y1.196
G1 X8.4111 Y1.2041
G1 X8.4098 Y1.2122
G1 X8.4079 Y1.2201
G1 X8.4056 Y1.228
G1 X8.4027 Y1.2356
G1 X8.3993 Y1.243
G1 X8.3955 Y1.2502
G1 X8.3912 Y1.2572
G1 X8.3864 Y1.2638
G1 X8.3812 Y1.2701
G1 X8.3756 Y1.2761
G1 X8.3697 Y1.2817
G1 X8.3634 Y1.2869
G1 X8.3567 Y1.2916
G1 X8.3498 Y1.2959
G1 X8.3426 Y1.2998
G1 X8.3352 Y1.3031
G1 X8.3275 Y1.306
G1 X8.3197 Y1.3084
G1 X8.3117 Y1.3102
G1 X8.3037 Y1.3116
G1 X8.2956 Y1.3124
G1 X8.2874 Y1.3126
G1 X8.2792 Y1.3124
G1 X8.2711 Y1.3116
G1 X8.2631 Y1.3102
G1 X8.2551 Y1.3084
G1 X8.2473 Y1.306
G1 X8.2396 Y1.3031
G1 X8.2322 Y1.2998
G1 X8.225 Y1.2959
G1 X8.2181 Y1.2916
G1 X8.2114 Y1.2869
G1 X8.2051 Y1.2817
G1 X8.1992 Y1.2761
G1 X8.1936 Y1.2701
G1 X8.1884 Y1.2638
G1 X8.1836 Y1.2572
G1 X8.1793 Y1.2502
G1 X8.1755 Y1.243
G1 X8.1721 Y1.2356
G1 X8.1692 Y1.228
G1 X8.1669 Y1.2201
G1 X8.165 Y1.2122
G1 X8.1637 Y1.2041
G1 X8.1629 Y1.196
G1 X8.1626 Y1.1878
G1 F5.0 X8.4016 Y1.2381
G1 X8.3993 Y1.243 Z-0.201
G1 X8.3955 Y1.2502 Z-0.2024
G1 X8.3912 Y1.2572 Z-0.2038
G1 X8.3864 Y1.2638 Z-0.2053
G1 X8.3812 Y1.2701 Z-0.2067
G1 X8.3756 Y1.2761 Z-0.2082
G1 X8.3697 Y1.2817 Z-0.2096
G1 X8.3634 Y1.2869 Z-0.211
G1 X8.3567 Y1.2916 Z-0.2125
G1 X8.3498 Y1.2959 Z-0.2139
G1 X8.3426 Y1.2998 Z-0.2154
G1 X8.3352 Y1.3031 Z-0.2168
G1 X8.3275 Y1.306 Z-0.2182
G1 X8.3197 Y1.3084 Z-0.2197
G1 X8.3117 Y1.3102 Z-0.2211
G1 X8.3037 Y1.3116 Z-0.2226
G1 X8.2956 Y1.3124 Z-0.224
G1 X8.2874 Y1.3126 Z-0.2254
G1 X8.2792 Y1.3124 Z-0.2269
G1 X8.2711 Y1.3116 Z-0.2283
G1 X8.2631 Y1.3102 Z-0.2298
G1 X8.2551 Y1.3084 Z-0.2312
G1 X8.2473 Y1.306 Z-0.2326
G1 X8.2396 Y1.3031 Z-0.2341
G1 X8.2322 Y1.2998 Z-0.2355
G1 X8.225 Y1.2959 Z-0.237
G1 X8.2181 Y1.2916 Z-0.2384
G1 X8.2114 Y1.2869 Z-0.2398
G1 X8.2051 Y1.2817 Z-0.2413
G1 X8.1992 Y1.2761 Z-0.2427
G1 X8.1936 Y1.2701 Z-0.2442
G1 X8.1884 Y1.2638 Z-0.2456
G1 X8.1836 Y1.2572 Z-0.247
G1 X8.1793 Y1.2502 Z-0.2485
G1 X8.1755 Y1.243 Z-0.2499
G1 X8.1721 Y1.2356 Z-0.2514
G1 X8.1692 Y1.228 Z-0.2528
G1 X8.1669 Y1.2201 Z-0.2542
G1 X8.165 Y1.2122 Z-0.2557
G1 X8.1637 Y1.2041 Z-0.2571
G1 X8.1629 Y1.196 Z-0.2586
G1 X8.1626 Y1.1878 Z-0.26
G1 F9.0 X8.1629 Y1.1797
G1 X8.1637 Y1.1716
G1 X8.165 Y1.1635
G1 X8.1669 Y1.1555
G1 X8.1692 Y1.1477
G1 X8.1721 Y1.1401
G1 X8.1755 Y1.1326
G1 X8.1793 Y1.1254
G1 X8.1836 Y1.1185
G1 X8.1884 Y1.1119
G1 X8.1936 Y1.1056
G1 X8.1992 Y1.0996
G1 X8.2051 Y1.094
G1 X8.2114 Y1.0888
G1 X8.2181 Y1.0841
G1 X8.225 Y1.0798
G1 X8.2322 Y1.0759
G1 X8.2396 Y1.0725
G1 X8.2473 Y1.0697
G1 X8.2551 Y1.0673
G1 X8.2631 Y1.0654
G1 X8.2711 Y1.0641
G1 X8.2792 Y1.0633
G1 X8.2874 Y1.063
G1 X8.2956 Y1.0633
G1 X8.3037 Y1.0641
G1 X8.3117 Y1.0654
G1 X8.3197 Y1.0673
G1 X8.3275 Y1.0697
G1 X8.3352 Y1.0725
G1 X8.3426 Y1.0759
G1 X8.3498 Y1.0798
G1 X8.3567 Y1.0841
G1 X8.3634 Y1.0888
G1 X8.3697 Y1.094
G1 X8.3756 Y1.0996
G1 X8.3812 Y1.1056
G1 X8.3864 Y1.1119
G1 X8.3912 Y1.1185
G1 X8.3955 Y1.1254
G1 X8.3993 Y1.1326
G1 X8.4027 Y1.1401
G1 X8.4056 Y1.1477
G1 X8.4079 Y1.1555
G1 X8.4098 Y1.1635
G1 X8.4111 Y1.1716
G1 X8.4119 Y1.1797
G1 X8.4122 Y1.1878
G1 X8.4119 Y1.196
G1 X8.4111 Y1.2041
G1 X8.4098 Y1.2122
G1 X8.4079 Y1.2201
G1 X8.4056 Y1.228
G1 X8.4027 Y1.2356
G1 X8.3993 Y1.243
G1 X8.3955 Y1.2502
G1 X8.3912 Y1.2572
G1 X8.3864 Y1.2638
G1 X8.3812 Y1.2701
G1 X8.3756 Y1.2761
G1 X8.3697 Y1.2817
G1 X8.3634 Y1.2869
G1 X8.3567 Y1.2916
G1 X8.3498 Y1.2959
G1 X8.3426 Y1.2998
G1 X8.3352 Y1.3031
G1 X8.3275 Y1.306
G1 X8.3197 Y1.3084
G1 X8.3117 Y1.3102
G1 X8.3037 Y1.3116
G1 X8.2956 Y1.3124
G1 X8.2874 Y1.3126
G1 X8.2792 Y1.3124
G1 X8.2711 Y1.3116
G1 X8.2631 Y1.3102
G1 X8.2551 Y1.3084
G1 X8.2473 Y1.306
G1 X8.2396 Y1.3031
G1 X8.2322 Y1.2998
G1 X8.225 Y1.2959
G1 X8.2181 Y1.2916
G1 X8.2114 Y1.2869
G1 X8.2051 Y1.2817
G1 X8.1992 Y1.2761
G1 X8.1936 Y1.2701
G1 X8.1884 Y1.2638
G1 X8.1836 Y1.2572
G1 X8.1793 Y1.2502
G1 X8.1755 Y1.243
G1 X8.1721 Y1.2356
G1 X8.1692 Y1.228
G1 X8.1669 Y1.2201
G1 X8.165 Y1.2122
G1 X8.1637 Y1.2041
G1 X8.1629 Y1.196
G1 X8.1626 Y1.1878
( Pocket7 )
S4000
G0 Z0.05
G0 X6.6159 Y3.5791
G1 F5.0 Z0.0
G1 X6.6136 Y3.5763 Z-0.0006
G1 X6.6088 Y3.5697 Z-0.0021
G1 X6.6045 Y3.5627 Z-0.0035
G1 X6.6007 Y3.5555 Z-0.005
G1 X6.5973 Y3.5481 Z-0.0064
G1 X6.5944 Y3.5405 Z-0.0078
G1 X6.5921 Y3.5326 Z-0.0093
G1 X6.5902 Y3.5247 Z-0.0107
G1 X6.5889 Y3.5166 Z-0.0122
G1 X6.5881 Y3.5085 Z-0.0136
G1 X6.5878 Y3.5003 Z-0.015
G1 X6.5881 Y3.4922 Z-0.0165
G1 X6.5889 Y3.4841 Z-0.0179
G1 X6.5902 Y3.476 Z-0.0194
G1 X6.5921 Y3.468 Z-0.0208
G1 X6.5944 Y3.4602 Z-0.0222
G1 X6.5973 Y3.4526 Z-0.0237
G1 X6.6007 Y3.4451 Z-0.0251
G1 X6.6045 Y3.4379 Z-0.0266
G1 X6.6088 Y3.431 Z-0.028
G1 X6.6136 Y3.4244 Z-0.0294
G1 X6.6188 Y3.4181 Z-0.0309
G1 X6.6244 Y3.4121 Z-0.0323
G1 X6.6303 Y3.4065 Z-0.0338
G1 X6.6366 Y3.4013 Z-0.0352
G1 X6.6433 Y3.3966 Z-0.0366
G1 X6.6502 Y3.3923 Z-0.0381
G1 X6.6574 Y3.3884 Z-0.0395
G1 X6.6648 Y3.385 Z-0.041
G1 X6.6725 Y3.3822 Z-0.0424
G1 X6.6803 Y3.3798 Z-0.0438
G1 X6.6883 Y3.3779 Z-0.0453
G1 X6.6963 Y3.3766 Z-0.0467
G1 X6.7044 Y3.3758 Z-0.0482
G1 X6.7126 Y3.3755 Z-0.0496
G1 X6.7208 Y3.3758 Z-0.051
G1 X6.7289 Y3.3766 Z-0.0525
G1 X6.7369 Y3.3779 Z-0.0539
G1 X6.7449 Y3.3798 Z-0.0554
G1 X6.7527 Y3.3822 Z-0.0568
G1 X6.7604 Y3.385 Z-0.0582
G1 X6.7678 Y3.3884 Z-0.0597
G1 X6.775 Y3.3923 Z-0.0611
G1 X6.7819 Y3.3966 Z-0.0626
G1 X6.7886 Y3.4013 Z-0.064
G1 X6.7949 Y3.4065 Z-0.0654
G1 X6.8008 Y3.4121 Z-0.0669
G1 X6.8064 Y3.4181 Z-0.0683
G1 X6.8116 Y3.4244 Z-0.0698
G1 X6.8164 Y3.431 Z-0.0712
G1 X6.8207 Y3.4379 Z-0.0726
G1 X6.8245 Y3.4451 Z-0.0741
G1 X6.8279 Y3.4526 Z-0.0755
G1 X6.8308 Y3.4602 Z-0.077
G1 X6.8331 Y3.468 Z-0.0784
G1 X6.835 Y3.476 Z-0.0798
G1 X6.8363 Y3.4841 Z-0.0813
G1 X6.8371 Y3.4922 Z-0.0827
G1 X6.8374 Y3.5003 Z-0.0842
G1 X6.8371 Y3.5085 Z-0.0856
G1 X6.8363 Y3.5166 Z-0.087
G1 X6.835 Y3.5247 Z-0.0885
G1 X6.8331 Y3.5326 Z-0.0899
G1 X6.8308 Y3.5405 Z-0.0914
G1 X6.8279 Y3.5481 Z-0.0928
G1 X6.8245 Y3.5555 Z-0.0942
G1 X6.8207 Y3.5627 Z-0.0957
G1 X6.8164 Y3.5697 Z-0.0971
G1 X6.8116 Y3.5763 Z-0.0986
G1 X6.8064 Y3.5826 Z-0.1
G1 F9.0 X6.8008 Y3.5886
G1 X6.7949 Y3.5942
G1 X6.7886 Y3.5994
G1 X6.7819 Y3.6041
G1 X6.775 Y3.6084
G1 X6.7678 Y3.6123
G1 X6.7604 Y3.6156
G1 X6.7527 Y3.6185
G1 X6.7449 Y3.6209
G1 X6.7369 Y3.6227
G1 X6.7289 Y3.6241
G1 X6.7208 Y3.6249
G1 X6.7126 Y3.6251
G1 X6.7044 Y3.6249
G1 X6.6963 Y3.6241
G1 X6.6883 Y3.6227
G1 X6.6803 Y3.6209
G1 X6.6725 Y3.6185
G1 X6.6648 Y3.6156
G1 X6.6574 Y3.6123
G1 X6.6502 Y3.6084
G1 X6.6433 Y3.6041
G1 X6.6366 Y3.5994
G1 X6.6303 Y3.5942
G1 X6.6244 Y3.5886
G1 X6.6188 Y3.5826
G1 X6.6136 Y3.5763
G1 X6.6088 Y3.5697
G1 X6.6045 Y3.5627
G1 X6.6007 Y3.5555
G1 X6.5973 Y3.5481
G1 X6.5944 Y3.5405
G1 X6.5921 Y3.5326
G1 X6.5902 Y3.5247
G1 X6.5889 Y3.5166
G1 X6.5881 Y3.5085
G1 X6.5878 Y3.5003
G1 X6.5881 Y3.4922
G1 X6.5889 Y3.4841
G1 X6.5902 Y3.476
G1 X6.5921 Y3.468
G1 X6.5944 Y3.4602
G1 X6.5973 Y3.4526
G1 X6.6007 Y3.4451
G1 X6.6045 Y3.4379
G1 X6.6088 Y3.431
G1 X6.6136 Y3.4244
G1 X6.6188 Y3.4181
G1 X6.6244 Y3.4121
G1 X6.6303 Y3.4065
G1 X6.6366 Y3.4013
G1 X6.6433 Y3.3966
G1 X6.6502 Y3.3923
G1 X6.6574 Y3.3884
G1 X6.6648 Y3.385
G1 X6.6725 Y3.3822
G1 X6.6803 Y3.3798
G1 X6.6883 Y3.3779
G1 X6.6963 Y3.3766
G1 X6.7044 Y3.3758
G1 X6.7126 Y3.3755
G1 X6.7208 Y3.3758
G1 X6.7289 Y3.3766
G1 X6.7369 Y3.3779
G1 X6.7449 Y3.3798
G1 X6.7527 Y3.3822
G1 X6.7604 Y3.385
G1 X6.7678 Y3.3884
G1 X6.775 Y3.3923
G1 X6.7819 Y3.3966
G1 X6.7886 Y3.4013
G1 X6.7949 Y3.4065
G1 X6.8008 Y3.4121
G1 X6.8064 Y3.4181
G1 X6.8116 Y3.4244
G1 X6.8164 Y3.431
G1 X6.8207 Y3.4379
G1 X6.8245 Y3.4451
G1 X6.8279 Y3.4526
G1 X6.8308 Y3.4602
G1 X6.8331 Y3.468
G1 X6.835 Y3.476
G1 X6.8363 Y3.4841
G1 X6.8371 Y3.4922
G1 X6.8374 Y3.5003
G1 X6.8371 Y3.5085
G1 X6.8363 Y3.5166
G1 X6.835 Y3.5247
G1 X6.8331 Y3.5326
G1 X6.8308 Y3.5405
G1 X6.8279 Y3.5481
G1 X6.8245 Y3.5555
G1 X6.8207 Y3.5627
G1 X6.8164 Y3.5697
G1 X6.8116 Y3.5763
G1 X6.8064 Y3.5826
G1 F5.0 X6.6159 Y3.5791
G1 X6.6136 Y3.5763 Z-0.1006
G1 X6.6088 Y3.5697 Z-0.1021
G1 X6.6045 Y3.5627 Z-0.1035
G1 X6.6007 Y3.5555 Z-0.105
G1 X6.5973 Y3.5481 Z-0.1064
G1 X6.5944 Y3.5405 Z-0.1078
G1 X6.5921 Y3.5326 Z-0.1093
G1 X6.5902 Y3.5247 Z-0.1107
G1 X6.5889 Y3.5166 Z-0.1122
G1 X6.5881 Y3.5085 Z-0.1136
G1 X6.5878 Y3.5003 Z-0.115
G1 X6.5881 Y3.4922 Z-0.1165
G1 X6.5889 Y3.4841 Z-0.1179
G1 X6.5902 Y3.476 Z-0.1194
G1 X6.5921 Y3.468 Z-0.1208
G1 X6.5944 Y3.4602 Z-0.1222
G1 X6.5973 Y3.4526 Z-0.1237
G1 X6.6007 Y3.4451 Z-0.1251
G1 X6.6045 Y3.4379 Z-0.1266
G1 X6.6088 Y3.431 Z-0.128
G1 X6.6136 Y3.4244 Z-0.1294
G1 X6.6188 Y3.4181 Z-0.1309
G1 X6.6244 Y3.4121 Z-0.1323
G1 X6.6303 Y3.4065 Z-0.1338
G1 X6.6366 Y3.4013 Z-0.1352
G1 X6.6433 Y3.3966 Z-0.1366
G1 X6.6502 Y3.3923 Z-0.1381
G1 X6.6574 Y3.3884 Z-0.1395
G1 X6.6648 Y3.385 Z-0.141
G1 X6.6725 Y3.3822 Z-0.1424
G1 X6.6803 Y3.3798 Z-0.1438
G1 X6.6883 Y3.3779 Z-0.1453
G1 X6.6963 Y3.3766 Z-0.1467
G1 X6.7044 Y3.3758 Z-0.1482
G1 X6.7126 Y3.3755 Z-0.1496
G1 X6.7208 Y3.3758 Z-0.151
G1 X6.7289 Y3.3766 Z-0.1525
G1 X6.7369 Y3.3779 Z-0.1539
G1 X6.7449 Y3.3798 Z-0.1554
G1 X6.7527 Y3.3822 Z-0.1568
G1 X6.7604 Y3.385 Z-0.1582
G1 X6.7678 Y3.3884 Z-0.1597
G1 X6.775 Y3.3923 Z-0.1611
G1 X6.7819 Y3.3966 Z-0.1626
G1 X6.7886 Y3.4013 Z-0.164
G1 X6.7949 Y3.4065 Z-0.1654
G1 X6.8008 Y3.4121 Z-0.1669
G1 X6.8064 Y3.4181 Z-0.1683
G1 X6.8116 Y3.4244 Z-0.1698
G1 X6.8164 Y3.431 Z-0.1712
G1 X6.8207 Y3.4379 Z-0.1726
G1 X6.8245 Y3.4451 Z-0.1741
G1 X6.8279 Y3.4526 Z-0.1755
G1 X6.8308 Y3.4602 Z-0.177
G1 X6.8331 Y3.468 Z-0.1784
G1 X6.835 Y3.476 Z-0.1798
G1 X6.8363 Y3.4841 Z-0.1813
G1 X6.8371 Y3.4922 Z-0.1827
G1 X6.8374 Y3.5003 Z-0.1842
G1 X6.8371 Y3.5085 Z-0.1856
G1 X6.8363 Y3.5166 Z-0.187
G1 X6.835 Y3.5247 Z-0.1885
G1 X6.8331 Y3.5326 Z-0.1899
G1 X6.8308 Y3.5405 Z-0.1914
G1 X6.8279 Y3.5481 Z-0.1928
G1 X6.8245 Y3.5555 Z-0.1942
G1 X6.8207 Y3.5627 Z-0.1957
G1 X6.8164 Y3.5697 Z-0.1971
G1 X6.8116 Y3.5763 Z-0.1986
G1 X6.8064 Y3.5826 Z-0.2
G1 F9.0 X6.8008 Y3.5886
G1 X6.7949 Y3.5942
G1 X6.7886 Y3.5994
G1 X6.7819 Y3.6041
G1 X6.775 Y3.6084
G1 X6.7678 Y3.6123
G1 X6.7604 Y3.6156
G1 X6.7527 Y3.6185
G1 X6.7449 Y3.6209
G1 X6.7369 Y3.6227
G1 X6.7289 Y3.6241
G1 X6.7208 Y3.6249
G1 X6.7126 Y3.6251
G1 X6.7044 Y3.6249
G1 X6.6963 Y3.6241
G1 X6.6883 Y3.6227
G1 X6.6803 Y3.6209
G1 X6.6725 Y3.6185
G1 X6.6648 Y3.6156
G1 X6.6574 Y3.6123
G1 X6.6502 Y3.6084
G1 X6.6433 Y3.6041
G1 X6.6366 Y3.5994
G1 X6.6303 Y3.5942
G1 X6.6244 Y3.5886
G1 X6.6188 Y3.5826
G1 X6.6136 Y3.5763
G1 X6.6088 Y3.5697
G1 X6.6045 Y3.5627
G1 X6.6007 Y3.5555
G1 X6.5973 Y3.5481
G1 X6.5944 Y3.5405
G1 X6.5921 Y3.5326
G1 X6.5902 Y3.5247
G1 X6.5889 Y3.5166
G1 X6.5881 Y3.5085
G1 X6.5878 Y3.5003
G1 X6.5881 Y3.4922
G1 X6.5889 Y3.4841
G1 X6.5902 Y3.476
G1 X6.5921 Y3.468
G1 X6.5944 Y3.4602
G1 X6.5973 Y3.4526
G1 X6.6007 Y3.4451
G1 X6.6045 Y3.4379
G1 X6.6088 Y3.431
G1 X6.6136 Y3.4244
G1 X6.6188 Y3.4181
G1 X6.6244 Y3.4121
G1 X6.6303 Y3.4065
G1 X6.6366 Y3.4013
G1 X6.6433 Y3.3966
G1 X6.6502 Y3.3923
G1 X6.6574 Y3.3884
G1 X6.6648 Y3.385
G1 X6.6725 Y3.3822
G1 X6.6803 Y3.3798
G1 X6.6883 Y3.3779
G1 X6.6963 Y3.3766
G1 X6.7044 Y3.3758
G1 X6.7126 Y3.3755
G1 X6.7208 Y3.3758
G1 X6.7289 Y3.3766
G1 X6.7369 Y3.3779
G1 X6.7449 Y3.3798
G1 X6.7527 Y3.3822
G1 X6.7604 Y3.385
G1 X6.7678 Y3.3884
G1 X6.775 Y3.3923
G1 X6.7819 Y3.3966
G1 X6.7886 Y3.4013
G1 X6.7949 Y3.4065
G1 X6.8008 Y3.4121
G1 X6.8064 Y3.4181
G1 X6.8116 Y3.4244
G1 X6.8164 Y3.431
G1 X6.8207 Y3.4379
G1 X6.8245 Y3.4451
G1 X6.8279 Y3.4526
G1 X6.8308 Y3.4602
G1 X6.8331 Y3.468
G1 X6.835 Y3.476
G1 X6.8363 Y3.4841
G1 X6.8371 Y3.4922
G1 X6.8374 Y3.5003
G1 X6.8371 Y3.5085
G1 X6.8363 Y3.5166
G1 X6.835 Y3.5247
G1 X6.8331 Y3.5326
G1 X6.8308 Y3.5405
G1 X6.8279 Y3.5481
G1 X6.8245 Y3.5555
G1 X6.8207 Y3.5627
G1 X6.8164 Y3.5697
G1 X6.8116 Y3.5763
G1 X6.8064 Y3.5826
G1 F5.0 X6.6599 Y3.3873
G1 X6.6648 Y3.385 Z-0.201
G1 X6.6725 Y3.3822 Z-0.2024
G1 X6.6803 Y3.3798 Z-0.2038
G1 X6.6883 Y3.3779 Z-0.2053
G1 X6.6963 Y3.3766 Z-0.2067
G1 X6.7044 Y3.3758 Z-0.2082
G1 X6.7126 Y3.3755 Z-0.2096
G1 X6.7208 Y3.3758 Z-0.211
G1 X6.7289 Y3.3766 Z-0.2125
G1 X6.7369 Y3.3779 Z-0.2139
G1 X6.7449 Y3.3798 Z-0.2154
G1 X6.7527 Y3.3822 Z-0.2168
G1 X6.7604 Y3.385 Z-0.2182
G1 X6.7678 Y3.3884 Z-0.2197
G1 X6.775 Y3.3923 Z-0.2211
G1 X6.7819 Y3.3966 Z-0.2226
G1 X6.7886 Y3.4013 Z-0.224
G1 X6.7949 Y3.4065 Z-0.2254
G1 X6.8008 Y3.4121 Z-0.2269
G1 X6.8064 Y3.4181 Z-0.2283
G1 X6.8116 Y3.4244 Z-0.2298
G1 X6.8164 Y3.431 Z-0.2312
G1 X6.8207 Y3.4379 Z-0.2326
G1 X6.8245 Y3.4451 Z-0.2341
G1 X6.8279 Y3.4526 Z-0.2355
G1 X6.8308 Y3.4602 Z-0.237
G1 X6.8331 Y3.468 Z-0.2384
G1 X6.835 Y3.476 Z-0.2398
G1 X6.8363 Y3.4841 Z-0.2413
G1 X6.8371 Y3.4922 Z-0.2427
G1 X6.8374 Y3.5003 Z-0.2442
G1 X6.8371 Y3.5085 Z-0.2456
G1 X6.8363 Y3.5166 Z-0.247
G1 X6.835 Y3.5247 Z-0.2485
G1 X6.8331 Y3.5326 Z-0.2499
G1 X6.8308 Y3.5405 Z-0.2514
G1 X6.8279 Y3.5481 Z-0.2528
G1 X6.8245 Y3.5555 Z-0.2542
G1 X6.8207 Y3.5627 Z-0.2557
G1 X6.8164 Y3.5697 Z-0.2571
G1 X6.8116 Y3.5763 Z-0.2586
G1 X6.8064 Y3.5826 Z-0.26
G1 F9.0 X6.8008 Y3.5886
G1 X6.7949 Y3.5942
G1 X6.7886 Y3.5994
G1 X6.7819 Y3.6041
G1 X6.775 Y3.6084
G1 X6.7678 Y3.6123
G1 X6.7604 Y3.6156
G1 X6.7527 Y3.6185
G1 X6.7449 Y3.6209
G1 X6.7369 Y3.6227
G1 X6.7289 Y3.6241
G1 X6.7208 Y3.6249
G1 X6.7126 Y3.6251
G1 X6.7044 Y3.6249
G1 X6.6963 Y3.6241
G1 X6.6883 Y3.6227
G1 X6.6803 Y3.6209
G1 X6.6725 Y3.6185
G1 X6.6648 Y3.6156
G1 X6.6574 Y3.6123
G1 X6.6502 Y3.6084
G1 X6.6433 Y3.6041
G1 X6.6366 Y3.5994
G1 X6.6303 Y3.5942
G1 X6.6244 Y3.5886
G1 X6.6188 Y3.5826
G1 X6.6136 Y3.5763
G1 X6.6088 Y3.5697
G1 X6.6045 Y3.5627
G1 X6.6007 Y3.5555
G1 X6.5973 Y3.5481
G1 X6.5944 Y3.5405
G1 X6.5921 Y3.5326
G1 X6.5902 Y3.5247
G1 X6.5889 Y3.5166
G1 X6.5881 Y3.5085
G1 X6.5878 Y3.5003
G1 X6.5881 Y3.4922
G1 X6.5889 Y3.4841
G1 X6.5902 Y3.476
G1 X6.5921 Y3.468
G1 X6.5944 Y3.4602
G1 X6.5973 Y3.4526
G1 X6.6007 Y3.4451
G1 X6.6045 Y3.4379
G1 X6.6088 Y3.431
G1 X6.6136 Y3.4244
G1 X6.6188 Y3.4181
G1 X6.6244 Y3.4121
G1 X6.6303 Y3.4065
G1 X6.6366 Y3.4013
G1 X6.6433 Y3.3966
G1 X6.6502 Y3.3923
G1 X6.6574 Y3.3884
G1 X6.6648 Y3.385
G1 X6.6725 Y3.3822
G1 X6.6803 Y3.3798
G1 X6.6883 Y3.3779
G1 X6.6963 Y3.3766
G1 X6.7044 Y3.3758
G1 X6.7126 Y3.3755
G1 X6.7208 Y3.3758
G1 X6.7289 Y3.3766
G1 X6.7369 Y3.3779
G1 X6.7449 Y3.3798
G1 X6.7527 Y3.3822
G1 X6.7604 Y3.385
G1 X6.7678 Y3.3884
G1 X6.775 Y3.3923
G1 X6.7819 Y3.3966
G1 X6.7886 Y3.4013
G1 X6.7949 Y3.4065
G1 X6.8008 Y3.4121
G1 X6.8064 Y3.4181
G1 X6.8116 Y3.4244
G1 X6.8164 Y3.431
G1 X6.8207 Y3.4379
G1 X6.8245 Y3.4451
G1 X6.8279 Y3.4526
G1 X6.8308 Y3.4602
G1 X6.8331 Y3.468
G1 X6.835 Y3.476
G1 X6.8363 Y3.4841
G1 X6.8371 Y3.4922
G1 X6.8374 Y3.5003
G1 X6.8371 Y3.5085
G1 X6.8363 Y3.5166
G1 X6.835 Y3.5247
G1 X6.8331 Y3.5326
G1 X6.8308 Y3.5405
G1 X6.8279 Y3.5481
G1 X6.8245 Y3.5555
G1 X6.8207 Y3.5627
G1 X6.8164 Y3.5697
G1 X6.8116 Y3.5763
G1 X6.8064 Y3.5826
( Pocket8 )
S4000
G0 Z0.05
G0 X8.2675 Y3.3772
G1 F5.0 Z0.0
G1 X8.2711 Y3.3766 Z-0.0006
G1 X8.2792 Y3.3758 Z-0.0021
G1 X8.2874 Y3.3755 Z-0.0035
G1 X8.2956 Y3.3758 Z-0.005
G1 X8.3037 Y3.3766 Z-0.0064
G1 X8.3117 Y3.3779 Z-0.0078
G1 X8.3197 Y3.3798 Z-0.0093
G1 X8.3275 Y3.3822 Z-0.0107
G1 X8.3352 Y3.385 Z-0.0122
G1 X8.3426 Y3.3884 Z-0.0136
G1 X8.3498 Y3.3923 Z-0.015
G1 X8.3567 Y3.3966 Z-0.0165
G1 X8.3634 Y3.4013 Z-0.0179
G1 X8.3697 Y3.4065 Z-0.0194
G1 X8.3756 Y3.4121 Z-0.0208
G1 X8.3812 Y3.4181 Z-0.0222
G1 X8.3864 Y3.4244 Z-0.0237
G1 X8.3912 Y3.431 Z-0.0251
G1 X8.3955 Y3.4379 Z-0.0266
G1 X8.3993 Y3.4451 Z-0.028
G1 X8.4027 Y3.4526 Z-0.0294
G1 X8.4056 Y3.4602 Z-0.0309
G1 X8.4079 Y3.468 Z-0.0323
G1 X8.4098 Y3.476 Z-0.0338
G1 X8.4111 Y3.4841 Z-0.0352
G1 X8.4119 Y3.4922 Z-0.0366
G1 X8.4122 Y3.5003 Z-0.0381
G1 X8.4119 Y3.5085 Z-0.0395
G1 X8.4111 Y3.5166 Z-0.041
G1 X8.4098 Y3.5247 Z-0.0424
G1 X8.4079 Y3.5326 Z-0.0438
G1 X8.4056 Y3.5405 Z-0.0453
G1 X8.4027 Y3.5481 Z-0.0467
G1 X8.3993 Y3.5555 Z-0.0482
G1 X8.3955 Y3.5627 Z-0.0496
G1 X8.3912 Y3.5697 Z-0.051
G1 X8.3864 Y3.5763 Z-0.0525
G1 X8.3812 Y3.5826 Z-0.0539
G1 X8.3756 Y3.5886 Z-0.0554
G1 X8.3697 Y3.5942 Z-0.0568
G1 X8.3634 Y3.5994 Z-0.0582
G1 X8.3567 Y3.6041 Z-0.0597
G1 X8.3498 Y3.6084 Z-0.0611
G1 X8.3426 Y3.6123 Z-0.0626
G1 X8.3352 Y3.6156 Z-0.064
G1 X8.3275 Y3.6185 Z-0.0654
G1 X8.3197 Y3.6209 Z-0.0669
G1 X8.3117 Y3.6227 Z-0.0683
G1 X8.3037 Y3.6241 Z-0.0698
G1 X8.2956 Y3.6249 Z-0.0712
G1 X8.2874 Y3.6251 Z-0.0726
G1 X8.2792 Y3.6249 Z-0.0741
G1 X8.2711 Y3.6241 Z-0.0755
G1 X8.2631 Y3.6227 Z-0.077
G1 X8.2551 Y3.6209 Z-0.0784
G1 X8.2473 Y3.6185 Z-0.0798
G1 X8.2396 Y3.6156 Z-0.0813
G1 X8.2322 Y3.6123 Z-0.0827
G1 X8.225 Y3.6084 Z-0.0842
G1 X8.2181 Y3.6041 Z-0.0856
G1 X8.2114 Y3.5994 Z-0.087
G1 X8.2051 Y3.5942 Z-0.0885
G1 X8.1992 Y3.5886 Z-0.0899
G1 X8.1936 Y3.5826 Z-0.0914
G1 X8.1884 Y3.5763 Z-0.0928
G1 X8.1836 Y3.5697 Z-0.0942
G1 X8.1793 Y3.5627 Z-0.0957
G1 X8.1755 Y3.5555 Z-0.0971
G1 X8.1721 Y3.5481 Z-0.0986
G1 X8.1692 Y3.5405 Z-0.1
G1 F9.0 X8.1669 Y3.5326
G1 X8.165 Y3.5247
G1 X8.1637 Y3.5166
G1 X8.1629 Y3.5085
G1 X8.1626 Y3.5003
G1 X8.1629 Y3.4922
G1 X8.1637 Y3.4841
G1 X8.165 Y3.476
G1 X8.1669 Y3.468
G1 X8.1692 Y3.4602
G1 X8.1721 Y3.4526
G1 X8.1755 Y3.4451
G1 X8.1793 Y3.4379
G1 X8.1836 Y3.431
G1 X8.1884 Y3.4244
G1 X8.1936 Y3.4181
G1 X8.1992 Y3.4121
G1 X8.2051 Y3.4065
G1 X8.2114 Y3.4013
G1 X8.2181 Y3.3966
G1 X8.225 Y3.3923
G1 X8.2322 Y3.3884
G1 X8.2396 Y3.385
G1 X8.2473 Y3.3822
G1 X8.2551 Y3.3798
G1 X8.2631 Y3.3779
G1 X8.2711 Y3.3766
G1 X8.2792 Y3.3758
G1 X8.2874 Y3.3755
G1 X8.2956 Y3.3758
G1 X8.3037 Y3.3766
G1 X8.3117 Y3.3779
G1 X8.3197 Y3.3798
G1 X8.3275 Y3.3822
G1 X8.3352 Y3.385
G1 X8.3426 Y3.3884
G1 X8.3498 Y3.3923
G1 X8.3567 Y3.3966
G1 X8.3634 Y3.4013
G1 X8.3697 Y3.4065
G1 X8.3756 Y3.4121
G1 X8.3812 Y3.4181
G1 X8.3864 Y3.4244
G1 X8.3912 Y3.431
G1 X8.3955 Y3.4379
G1 X8.3993 Y3.4451
G1 X8.4027 Y3.4526
G1 X8.4056 Y3.4602
G1 X8.4079 Y3.468
G1 X8.4098 Y3.476
G1 X8.4111 Y3.4841
G1 X8.4119 Y3.4922
G1 X8.4122 Y3.5003
G1 X8.4119 Y3.5085
G1 X8.4111 Y3.5166
G1 X8.4098 Y3.5247
G1 X8.4079 Y3.5326
G1 X8.4056 Y3.5405
G1 X8.4027 Y3.5481
G1 X8.3993 Y3.5555
G1 X8.3955 Y3.5627
G1 X8.3912 Y3.5697
G1 X8.3864 Y3.5763
G1 X8.3812 Y3.5826
G1 X8.3756 Y3.5886
G1 X8.3697 Y3.5942
G1 X8.3634 Y3.5994
G1 X8.3567 Y3.6041
G1 X8.3498 Y3.6084
G1 X8.3426 Y3.6123
G1 X8.3352 Y3.6156
G1 X8.3275 Y3.6185
G1 X8.3197 Y3.6209
G1 X8.3117 Y3.6227
G1 X8.3037 Y3.6241
G1 X8.2956 Y3.6249
G1 X8.2874 Y3.6251
G1 X8.2792 Y3.6249
G1 X8.2711 Y3.6241
G1 X8.2631 Y3.6227
G1 X8.2551 Y3.6209
G1 X8.2473 Y3.6185
G1 X8.2396 Y3.6156
G1 X8.2322 Y3.6123
G1 X8.225 Y3.6084
G1 X8.2181 Y3.6041
G1 X8.2114 Y3.5994
G1 X8.2051 Y3.5942
G1 X8.1992 Y3.5886
G1 X8.1936 Y3.5826
G1 X8.1884 Y3.5763
G1 X8.1836 Y3.5697
G1 X8.1793 Y3.5627
G1 X8.1755 Y3.5555
G1 X8.1721 Y3.5481
G1 X8.1692 Y3.5405
G1 F5.0 X8.2675 Y3.3772
G1 X8.2711 Y3.3766 Z-0.1006
G1 X8.2792 Y3.3758 Z-0.1021
G1 X8.2874 Y3.3755 Z-0.1035
G1 X8.2956 Y3.3758 Z-0.105
G1 X8.3037 Y3.3766 Z-0.1064
G1 X8.3117 Y3.3779 Z-0.1078
G1 X8.3197 Y3.3798 Z-0.1093
G1 X8.3275 Y3.3822 Z-0.1107
G1 X8.3352 Y3.385 Z-0.1122
G1 X8.3426 Y3.3884 Z-0.1136
G1 X8.3498 Y3.3923 Z-0.115
G1 X8.3567 Y3.3966 Z-0.1165
G1 X8.3634 Y3.4013 Z-0.1179
G1 X8.3697 Y3.4065 Z-0.1194
G1 X8.3756 Y3.4121 Z-0.1208
G1 X8.3812 Y3.4181 Z-0.1222
G1 X8.3864 Y3.4244 Z-0.1237
G1 X8.3912 Y3.431 Z-0.1251
G1 X8.3955 Y3.4379 Z-0.1266
G1 X8.3993 Y3.4451 Z-0.128
G1 X8.4027 Y3.4526 Z-0.1294
G1 X8.4056 Y3.4602 Z-0.1309
G1 X8.4079 Y3.468 Z-0.1323
G1 X8.4098 Y3.476 Z-0.1338
G1 X8.4111 Y3.4841 Z-0.1352
G1 X8.4119 Y3.4922 Z-0.1366
G1 X8.4122 Y3.5003 Z-0.1381
G1 X8.4119 Y3.5085 Z-0.1395
G1 X8.4111 Y3.5166 Z-0.141
G1 X8.4098 Y3.5247 Z-0.1424
G1 X8.4079 Y3.5326 Z-0.1438
G1 X8.4056 Y3.5405 Z-0.1453
G1 X8.4027 Y3.5481 Z-0.1467
G1 X8.3993 Y3.5555 Z-0.1482
G1 X8.3955 Y3.5627 Z-0.1496
G1 X8.3912 Y3.5697 Z-0.151
G1 X8.3864 Y3.5763 Z-0.1525
G1 X8.3812 Y3.5826 Z-0.1539
G1 X8.3756 Y3.5886 Z-0.1554
G1 X8.3697 Y3.5942 Z-0.1568
G1 X8.3634 Y3.5994 Z-0.1582
G1 X8.3567 Y3.6041 Z-0.1597
G1 X8.3498 Y3.6084 Z-0.1611
G1 X8.3426 Y3.6123 Z-0.1626
G1 X8.3352 Y3.6156 Z-0.164
G1 X8.3275 Y3.6185 Z-0.1654
G1 X8.3197 Y3.6209 Z-0.1669
G1 X8.3117 Y3.6227 Z-0.1683
G1 X8.3037 Y3.6241 Z-0.1698
G1 X8.2956 Y3.6249 Z-0.1712
G1 X8.2874 Y3.6251 Z-0.1726
G1 X8.2792 Y3.6249 Z-0.1741
G1 X8.2711 Y3.6241 Z-0.1755
G1 X8.2631 Y3.6227 Z-0.177
G1 X8.2551 Y3.6209 Z-0.1784
G1 X8.2473 Y3.6185 Z-0.1798
G1 X8.2396 Y3.6156 Z-0.1813
G1 X8.2322 Y3.6123 Z-0.1827
G1 X8.225 Y3.6084 Z-0.1842
G1 X8.2181 Y3.6041 Z-0.1856
G1 X8.2114 Y3.5994 Z-0.187
G1 X8.2051 Y3.5942 Z-0.1885
G1 X8.1992 Y3.5886 Z-0.1899
G1 X8.1936 Y3.5826 Z-0.1914
G1 X8.1884 Y3.5763 Z-0.1928
G1 X8.1836 Y3.5697 Z-0.1942
G1 X8.1793 Y3.5627 Z-0.1957
G1 X8.1755 Y3.5555 Z-0.1971
G1 X8.1721 Y3.5481 Z-0.1986
G1 X8.1692 Y3.5405 Z-0.2
G1 F9.0 X8.1669 Y3.5326
G1 X8.165 Y3.5247
G1 X8.1637 Y3.5166
G1 X8.1629 Y3.5085
G1 X8.1626 Y3.5003
G1 X8.1629 Y3.4922
G1 X8.1637 Y3.4841
G1 X8.165 Y3.476
G1 X8.1669 Y3.468
G1 X8.1692 Y3.4602
G1 X8.1721 Y3.4526
G1 X8.1755 Y3.4451
G1 X8.1793 Y3.4379
G1 X8.1836 Y3.431
G1 X8.1884 Y3.4244
G1 X8.1936 Y3.4181
G1 X8.1992 Y3.4121
G1 X8.2051 Y3.4065
G1 X8.2114 Y3.4013
G1 X8.2181 Y3.3966
G1 X8.225 Y3.3923
G1 X8.2322 Y3.3884
G1 X8.2396 Y3.385
G1 X8.2473 Y3.3822
G1 X8.2551 Y3.3798
G1 X8.2631 Y3.3779
G1 X8.2711 Y3.3766
G1 X8.2792 Y3.3758
G1 X8.2874 Y3.3755
G1 X8.2956 Y3.3758
G1 X8.3037 Y3.3766
G1 X8.3117 Y3.3779
G1 X8.3197 Y3.3798
G1 X8.3275 Y3.3822
G1 X8.3352 Y3.385
G1 X8.3426 Y3.3884
G1 X8.3498 Y3.3923
G1 X8.3567 Y3.3966
G1 X8.3634 Y3.4013
G1 X8.3697 Y3.4065
G1 X8.3756 Y3.4121
G1 X8.3812 Y3.4181
G1 X8.3864 Y3.4244
G1 X8.3912 Y3.431
G1 X8.3955 Y3.4379
G1 X8.3993 Y3.4451
G1 X8.4027 Y3.4526
G1 X8.4056 Y3.4602
G1 X8.4079 Y3.468
G1 X8.4098 Y3.476
G1 X8.4111 Y3.4841
G1 X8.4119 Y3.4922
G1 X8.4122 Y3.5003
G1 X8.4119 Y3.5085
G1 X8.4111 Y3.5166
G1 X8.4098 Y3.5247
G1 X8.4079 Y3.5326
G1 X8.4056 Y3.5405
G1 X8.4027 Y3.5481
G1 X8.3993 Y3.5555
G1 X8.3955 Y3.5627
G1 X8.3912 Y3.5697
G1 X8.3864 Y3.5763
G1 X8.3812 Y3.5826
G1 X8.3756 Y3.5886
G1 X8.3697 Y3.5942
G1 X8.3634 Y3.5994
G1 X8.3567 Y3.6041
G1 X8.3498 Y3.6084
G1 X8.3426 Y3.6123
G1 X8.3352 Y3.6156
G1 X8.3275 Y3.6185
G1 X8.3197 Y3.6209
G1 X8.3117 Y3.6227
G1 X8.3037 Y3.6241
G1 X8.2956 Y3.6249
G1 X8.2874 Y3.6251
G1 X8.2792 Y3.6249
G1 X8.2711 Y3.6241
G1 X8.2631 Y3.6227
G1 X8.2551 Y3.6209
G1 X8.2473 Y3.6185
G1 X8.2396 Y3.6156
G1 X8.2322 Y3.6123
G1 X8.225 Y3.6084
G1 X8.2181 Y3.6041
G1 X8.2114 Y3.5994
G1 X8.2051 Y3.5942
G1 X8.1992 Y3.5886
G1 X8.1936 Y3.5826
G1 X8.1884 Y3.5763
G1 X8.1836 Y3.5697
G1 X8.1793 Y3.5627
G1 X8.1755 Y3.5555
G1 X8.1721 Y3.5481
G1 X8.1692 Y3.5405
G1 F5.0 X8.4117 Y3.5112
G1 X8.4111 Y3.5166 Z-0.201
G1 X8.4098 Y3.5247 Z-0.2024
G1 X8.4079 Y3.5326 Z-0.2038
G1 X8.4056 Y3.5405 Z-0.2053
G1 X8.4027 Y3.5481 Z-0.2067
G1 X8.3993 Y3.5555 Z-0.2082
G1 X8.3955 Y3.5627 Z-0.2096
G1 X8.3912 Y3.5697 Z-0.211
G1 X8.3864 Y3.5763 Z-0.2125
G1 X8.3812 Y3.5826 Z-0.2139
G1 X8.3756 Y3.5886 Z-0.2154
G1 X8.3697 Y3.5942 Z-0.2168
G1 X8.3634 Y3.5994 Z-0.2182
G1 X8.3567 Y3.6041 Z-0.2197
G1 X8.3498 Y3.6084 Z-0.2211
G1 X8.3426 Y3.6123 Z-0.2226
G1 X8.3352 Y3.6156 Z-0.224
G1 X8.3275 Y3.6185 Z-0.2254
G1 X8.3197 Y3.6209 Z-0.2269
G1 X8.3117 Y3.6227 Z-0.2283
G1 X8.3037 Y3.6241 Z-0.2298
G1 X8.2956 Y3.6249 Z-0.2312
G1 X8.2874 Y3.6251 Z-0.2326
G1 X8.2792 Y3.6249 Z-0.2341
G1 X8.2711 Y3.6241 Z-0.2355
G1 X8.2631 Y3.6227 Z-0.237
G1 X8.2551 Y3.6209 Z-0.2384
G1 X8.2473 Y3.6185 Z-0.2398
G1 X8.2396 Y3.6156 Z-0.2413
G1 X8.2322 Y3.6123 Z-0.2427
G1 X8.225 Y3.6084 Z-0.2442
G1 X8.2181 Y3.6041 Z-0.2456
G1 X8.2114 Y3.5994 Z-0.247
G1 X8.2051 Y3.5942 Z-0.2485
G1 X8.1992 Y3.5886 Z-0.2499
G1 X8.1936 Y3.5826 Z-0.2514
G1 X8.1884 Y3.5763 Z-0.2528
G1 X8.1836 Y3.5697 Z-0.2542
G1 X8.1793 Y3.5627 Z-0.2557
G1 X8.1755 Y3.5555 Z-0.2571
G1 X8.1721 Y3.5481 Z-0.2586
G1 X8.1692 Y3.5405 Z-0.26
G1 F9.0 X8.1669 Y3.5326
G1 X8.165 Y3.5247
G1 X8.1637 Y3.5166
G1 X8.1629 Y3.5085
G1 X8.1626 Y3.5003
G1 X8.1629 Y3.4922
G1 X8.1637 Y3.4841
G1 X8.165 Y3.476
G1 X8.1669 Y3.468
G1 X8.1692 Y3.4602
G1 X8.1721 Y3.4526
G1 X8.1755 Y3.4451
G1 X8.1793 Y3.4379
G1 X8.1836 Y3.431
G1 X8.1884 Y3.4244
G1 X8.1936 Y3.4181
G1 X8.1992 Y3.4121
G1 X8.2051 Y3.4065
G1 X8.2114 Y3.4013
G1 X8.2181 Y3.3966
G1 X8.225 Y3.3923
G1 X8.2322 Y3.3884
G1 X8.2396 Y3.385
G1 X8.2473 Y3.3822
G1 X8.2551 Y3.3798
G1 X8.2631 Y3.3779
G1 X8.2711 Y3.3766
G1 X8.2792 Y3.3758
G1 X8.2874 Y3.3755
G1 X8.2956 Y3.3758
G1 X8.3037 Y3.3766
G1 X8.3117 Y3.3779
G1 X8.3197 Y3.3798
G1 X8.3275 Y3.3822
G1 X8.3352 Y3.385
G1 X8.3426 Y3.3884
G1 X8.3498 Y3.3923
G1 X8.3567 Y3.3966
G1 X8.3634 Y3.4013
G1 X8.3697 Y3.4065
G1 X8.3756 Y3.4121
G1 X8.3812 Y3.4181
G1 X8.3864 Y3.4244
G1 X8.3912 Y3.431
G1 X8.3955 Y3.4379
G1 X8.3993 Y3.4451
G1 X8.4027 Y3.4526
G1 X8.4056 Y3.4602
G1 X8.4079 Y3.468
G1 X8.4098 Y3.476
G1 X8.4111 Y3.4841
G1 X8.4119 Y3.4922
G1 X8.4122 Y3.5003
G1 X8.4119 Y3.5085
G1 X8.4111 Y3.5166
G1 X8.4098 Y3.5247
G1 X8.4079 Y3.5326
G1 X8.4056 Y3.5405
G1 X8.4027 Y3.5481
G1 X8.3993 Y3.5555
G1 X8.3955 Y3.5627
G1 X8.3912 Y3.5697
G1 X8.3864 Y3.5763
G1 X8.3812 Y3.5826
G1 X8.3756 Y3.5886
G1 X8.3697 Y3.5942
G1 X8.3634 Y3.5994
G1 X8.3567 Y3.6041
G1 X8.3498 Y3.6084
G1 X8.3426 Y3.6123
G1 X8.3352 Y3.6156
G1 X8.3275 Y3.6185
G1 X8.3197 Y3.6209
G1 X8.3117 Y3.6227
G1 X8.3037 Y3.6241
G1 X8.2956 Y3.6249
G1 X8.2874 Y3.6251
G1 X8.2792 Y3.6249
G1 X8.2711 Y3.6241
G1 X8.2631 Y3.6227
G1 X8.2551 Y3.6209
G1 X8.2473 Y3.6185
G1 X8.2396 Y3.6156
G1 X8.2322 Y3.6123
G1 X8.225 Y3.6084
G1 X8.2181 Y3.6041
G1 X8.2114 Y3.5994
G1 X8.2051 Y3.5942
G1 X8.1992 Y3.5886
G1 X8.1936 Y3.5826
G1 X8.1884 Y3.5763
G1 X8.1836 Y3.5697
G1 X8.1793 Y3.5627
G1 X8.1755 Y3.5555
G1 X8.1721 Y3.5481
G1 X8.1692 Y3.5405
( Pocket9 )
S4000
G0 Z0.05
G0 X13.1105 Y3.6138
G1 F5.0 Z0.0
G1 X13.1072 Y3.6123 Z-0.0006
G1 X13.1 Y3.6084 Z-0.0021
G1 X13.0931 Y3.6041 Z-0.0035
G1 X13.0864 Y3.5994 Z-0.005
G1 X13.0801 Y3.5942 Z-0.0064
G1 X13.0742 Y3.5886 Z-0.0078
G1 X13.0686 Y3.5826 Z-0.0093
G1 X13.0634 Y3.5763 Z-0.0107
G1 X13.0586 Y3.5697 Z-0.0122
G1 X13.0543 Y3.5627 Z-0.0136
G1 X13.0505 Y3.5555 Z-0.015
G1 X13.0471 Y3.5481 Z-0.0165
G1 X13.0442 Y3.5405 Z-0.0179
G1 X13.0419 Y3.5326 Z-0.0194
G1 X13.04 Y3.5247 Z-0.0208
G1 X13.0387 Y3.5166 Z-0.0222
G1 X13.0379 Y3.5085 Z-0.0237
G1 X13.0376 Y3.5003 Z-0.0251
G1 X13.0379 Y3.4922 Z-0.0266
G1 X13.0387 Y3.4841 Z-0.028
G1 X13.04 Y3.476 Z-0.0294
G1 X13.0419 Y3.468 Z-0.0309
G1 X13.0442 Y3.4602 Z-0.0323
G1 X13.0471 Y3.4526 Z-0.0338
G1 X13.0505 Y3.4451 Z-0.0352
G1 X13.0543 Y3.4379 Z-0.0366
G1 X13.0586 Y3.431 Z-0.0381
G1 X13.0634 Y3.4244 Z-0.0395
G1 X13.0686 Y3.4181 Z-0.041
G1 X13.0742 Y3.4121 Z-0.0424
G1 X13.0801 Y3.4065 Z-0.0438
G1 X13.0864 Y3.4013 Z-0.0453
G1 X13.0931 Y3.3966 Z-0.0467
G1 X13.1 Y3.3923 Z-0.0482
G1 X13.1072 Y3.3884 Z-0.0496
G1 X13.1146 Y3.385 Z-0.051
G1 X13.1223 Y3.3822 Z-0.0525
G1 X13.1301 Y3.3798 Z-0.0539
G1 X13.1381 Y3.3779 Z-0.0554
G1 X13.1461 Y3.3766 Z-0.0568
G1 X13.1542 Y3.3758 Z-0.0582
G1 X13.1624 Y3.3755 Z-0.0597
G1 X13.1706 Y3.3758 Z-0.0611
G1 X13.1787 Y3.3766 Z-0.0626
G1 X13.1867 Y3.3779 Z-0.064
G1 X13.1947 Y3.3798 Z-0.0654
G1 X13.2025 Y3.3822 Z-0.0669
G1 X13.2102 Y3.385 Z-0.0683
G1 X13.2176 Y3.3884 Z-0.0698
G1 X13.2248 Y3.3923 Z-0.0712
G1 X13.2317 Y3.3966 Z-0.0726
G1 X13.2384 Y3.4013 Z-0.0741
G1 X13.2447 Y3.4065 Z-0.0755
G1 X13.2506 Y3.4121 Z-0.077
G1 X13.2562 Y3.4181 Z-0.0784
G1 X13.2614 Y3.4244 Z-0.0798
G1 X13.2662 Y3.431 Z-0.0813
G1 X13.2705 Y3.4379 Z-0.0827
G1 X13.2743 Y3.4451 Z-0.0842
G1 X13.2777 Y3.4526 Z-0.0856
G1 X13.2806 Y3.4602 Z-0.087
G1 X13.2829 Y3.468 Z-0.0885
G1 X13.2848 Y3.476 Z-0.0899
G1 X13.2861 Y3.4841 Z-0.0914
G1 X13.2869 Y3.4922 Z-0.0928
G1 X13.2872 Y3.5003 Z-0.0942
G1 X13.2869 Y3.5085 Z-0.0957
G1 X13.2861 Y3.5166 Z-0.0971
G1 X13.2848 Y3.5247 Z-0.0986
G1 X13.2829 Y3.5326 Z-0.1
G1 F9.0 X13.2806 Y3.5405
G1 X13.2777 Y3.5481
G1 X13.2743 Y3.5555
G1 X13.2705 Y3.5627
G1 X13.2662 Y3.5697
G1 X13.2614 Y3.5763
G1 X13.2562 Y3.5826
G1 X13.2506 Y3.5886
G1 X13.2447 Y3.5942
G1 X13.2384 Y3.5994
G1 X13.2317 Y3.6041
G1 X13.2248 Y3.6084
G1 X13.2176 Y3.6123
G1 X13.2102 Y3.6156
G1 X13.2025 Y3.6185
G1 X13.1947 Y3.6209
G1 X13.1867 Y3.6227
G1 X13.1787 Y3.6241
G1 X13.1706 Y3.6249
G1 X13.1624 Y3.6251
G1 X13.1542 Y3.6249
G1 X13.1461 Y3.6241
G1 X13.1381 Y3.6227
G1 X13.1301 Y3.6209
G1 X13.1223 Y3.6185
G1 X13.1146 Y3.6156
G1 X13.1072 Y3.6123
G1 X13.1 Y3.6084
G1 X13.0931 Y3.6041
G1 X13.0864 Y3.5994
G1 X13.0801 Y3.5942
G1 X13.0742 Y3.5886
G1 X13.0686 Y3.5826
G1 X13.0634 Y3.5763
G1 X13.0586 Y3.5697
G1 X13.0543 Y3.5627
G1 X13.0505 Y3.5555
G1 X13.0471 Y3.5481
G1 X13.0442 Y3.5405
G1 X13.0419 Y3.5326
G1 X13.04 Y3.5247
G1 X13.0387 Y3.5166
G1 X13.0379 Y3.5085
G1 X13.0376 Y3.5003
G1 X13.0379 Y3.4922
G1 X13.0387 Y3.4841
G1 X13.04 Y3.476
G1 X13.0419 Y3.468
G1 X13.0442 Y3.4602
G1 X13.0471 Y3.4526
G1 X13.0505 Y3.4451
G1 X13.0543 Y3.4379
G1 X13.0586 Y3.431
G1 X13.0634 Y3.4244
G1 X13.0686 Y3.4181
G1 X13.0742 Y3.4121
G1 X13.0801 Y3.4065
G1 X13.0864 Y3.4013
G1 X13.0931 Y3.3966
G1 X13.1 Y3.3923
G1 X13.1072 Y3.3884
G1 X13.1146 Y3.385
G1 X13.1223 Y3.3822
G1 X13.1301 Y3.3798
G1 X13.1381 Y3.3779
G1 X13.1461 Y3.3766
G1 X13.1542 Y3.3758
G1 X13.1624 Y3.3755
G1 X13.1706 Y3.3758
G1 X13.1787 Y3.3766
G1 X13.1867 Y3.3779
G1 X13.1947 Y3.3798
G1 X13.2025 Y3.3822
G1 X13.2102 Y3.385
G1 X13.2176 Y3.3884
G1 X13.2248 Y3.3923
G1 X13.2317 Y3.3966
G1 X13.2384 Y3.4013
G1 X13.2447 Y3.4065
G1 X13.2506 Y3.4121
G1 X13.2562 Y3.4181
G1 X13.2614 Y3.4244
G1 X13.2662 Y3.431
G1 X13.2705 Y3.4379
G1 X13.2743 Y3.4451
G1 X13.2777 Y3.4526
G1 X13.2806 Y3.4602
G1 X13.2829 Y3.468
G1 X13.2848 Y3.476
G1 X13.2861 Y3.4841
G1 X13.2869 Y3.4922
G1 X13.2872 Y3.5003
G1 X13.2869 Y3.5085
G1 X13.2861 Y3.5166
G1 X13.2848 Y3.5247
G1 X13.2829 Y3.5326
G1 F5.0 X13.1105 Y3.6138
G1 X13.1072 Y3.6123 Z-0.1006
G1 X13.1 Y3.6084 Z-0.1021
G1 X13.0931 Y3.6041 Z-0.1035
G1 X13.0864 Y3.5994 Z-0.105
G1 X13.0801 Y3.5942 Z-0.1064
G1 X13.0742 Y3.5886 Z-0.1078
G1 X13.0686 Y3.5826 Z-0.1093
G1 X13.0634 Y3.5763 Z-0.1107
G1 X13.0586 Y3.5697 Z-0.1122
G1 X13.0543 Y3.5627 Z-0.1136
G1 X13.0505 Y3.5555 Z-0.115
G1 X13.0471 Y3.5481 Z-0.1165
G1 X13.0442 Y3.5405 Z-0.1179
G1 X13.0419 Y3.5326 Z-0.1194
G1 X13.04 Y3.5247 Z-0.1208
G1 X13.0387 Y3.5166 Z-0.1222
G1 X13.0379 Y3.5085 Z-0.1237
G1 X13.0376 Y3.5003 Z-0.1251
G1 X13.0379 Y3.4922 Z-0.1266
G1 X13.0387 Y3.4841 Z-0.128
G1 X13.04 Y3.476 Z-0.1294
G1 X13.0419 Y3.468 Z-0.1309
G1 X13.0442 Y3.4602 Z-0.1323
G1 X13.0471 Y3.4526 Z-0.1338
G1 X13.0505 Y3.4451 Z-0.1352
G1 X13.0543 Y3.4379 Z-0.1366
G1 X13.0586 Y3.431 Z-0.1381
G1 X13.0634 Y3.4244 Z-0.1395
G1 X13.0686 Y3.4181 Z-0.141
G1 X13.0742 Y3.4121 Z-0.1424
G1 X13.0801 Y3.4065 Z-0.1438
G1 X13.0864 Y3.4013 Z-0.1453
G1 X13.0931 Y3.3966 Z-0.1467
G1 X13.1 Y3.3923 Z-0.1482
G1 X13.1072 Y3.3884 Z-0.1496
G1 X13.1146 Y3.385 Z-0.151
G1 X13.1223 Y3.3822 Z-0.1525
G1 X13.1301 Y3.3798 Z-0.1539
G1 X13.1381 Y3.3779 Z-0.1554
G1 X13.1461 Y3.3766 Z-0.1568
G1 X13.1542 Y3.3758 Z-0.1582
G1 X13.1624 Y3.3755 Z-0.1597
G1 X13.1706 Y3.3758 Z-0.1611
G1 X13.1787 Y3.3766 Z-0.1626
G1 X13.1867 Y3.3779 Z-0.164
G1 X13.1947 Y3.3798 Z-0.1654
G1 X13.2025 Y3.3822 Z-0.1669
G1 X13.2102 Y3.385 Z-0.1683
G1 X13.2176 Y3.3884 Z-0.1698
G1 X13.2248 Y3.3923 Z-0.1712
G1 X13.2317 Y3.3966 Z-0.1726
G1 X13.2384 Y3.4013 Z-0.1741
G1 X13.2447 Y3.4065 Z-0.1755
G1 X13.2506 Y3.4121 Z-0.177
G1 X13.2562 Y3.4181 Z-0.1784
G1 X13.2614 Y3.4244 Z-0.1798
G1 X13.2662 Y3.431 Z-0.1813
G1 X13.2705 Y3.4379 Z-0.1827
G1 X13.2743 Y3.4451 Z-0.1842
G1 X13.2777 Y3.4526 Z-0.1856
G1 X13.2806 Y3.4602 Z-0.187
G1 X13.2829 Y3.468 Z-0.1885
G1 X13.2848 Y3.476 Z-0.1899
G1 X13.2861 Y3.4841 Z-0.1914
G1 X13.2869 Y3.4922 Z-0.1928
G1 X13.2872 Y3.5003 Z-0.1942
G1 X13.2869 Y3.5085 Z-0.1957
G1 X13.2861 Y3.5166 Z-0.1971
G1 X13.2848 Y3.5247 Z-0.1986
G1 X13.2829 Y3.5326 Z-0.2
G1 F9.0 X13.2806 Y3.5405
G1 X13.2777 Y3.5481
G1 X13.2743 Y3.5555
G1 X13.2705 Y3.5627
G1 X13.2662 Y3.5697
G1 X13.2614 Y3.5763
G1 X13.2562 Y3.5826
G1 X13.2506 Y3.5886
G1 X13.2447 Y3.5942
G1 X13.2384 Y3.5994
G1 X13.2317 Y3.6041
G1 X13.2248 Y3.6084
G1 X13.2176 Y3.6123
G1 X13.2102 Y3.6156
G1 X13.2025 Y3.6185
G1 X13.1947 Y3.6209
G1 X13.1867 Y3.6227
G1 X13.1787 Y3.6241
G1 X13.1706 Y3.6249
G1 X13.1624 Y3.6251
G1 X13.1542 Y3.6249
G1 X13.1461 Y3.6241
G1 X13.1381 Y3.6227
G1 X13.1301 Y3.6209
G1 X13.1223 Y3.6185
G1 X13.1146 Y3.6156
G1 X13.1072 Y3.6123
G1 X13.1 Y3.6084
G1 X13.0931 Y3.6041
G1 X13.0864 Y3.5994
G1 X13.0801 Y3.5942
G1 X13.0742 Y3.5886
G1 X13.0686 Y3.5826
G1 X13.0634 Y3.5763
G1 X13.0586 Y3.5697
G1 X13.0543 Y3.5627
G1 X13.0505 Y3.5555
G1 X13.0471 Y3.5481
G1 X13.0442 Y3.5405
G1 X13.0419 Y3.5326
G1 X13.04 Y3.5247
G1 X13.0387 Y3.5166
G1 X13.0379 Y3.5085
G1 X13.0376 Y3.5003
G1 X13.0379 Y3.4922
G1 X13.0387 Y3.4841
G1 X13.04 Y3.476
G1 X13.0419 Y3.468
G1 X13.0442 Y3.4602
G1 X13.0471 Y3.4526
G1 X13.0505 Y3.4451
G1 X13.0543 Y3.4379
G1 X13.0586 Y3.431
G1 X13.0634 Y3.4244
G1 X13.0686 Y3.4181
G1 X13.0742 Y3.4121
G1 X13.0801 Y3.4065
G1 X13.0864 Y3.4013
G1 X13.0931 Y3.3966
G1 X13.1 Y3.3923
G1 X13.1072 Y3.3884
G1 X13.1146 Y3.385
G1 X13.1223 Y3.3822
G1 X13.1301 Y3.3798
G1 X13.1381 Y3.3779
G1 X13.1461 Y3.3766
G1 X13.1542 Y3.3758
G1 X13.1624 Y3.3755
G1 X13.1706 Y3.3758
G1 X13.1787 Y3.3766
G1 X13.1867 Y3.3779
G1 X13.1947 Y3.3798
G1 X13.2025 Y3.3822
G1 X13.2102 Y3.385
G1 X13.2176 Y3.3884
G1 X13.2248 Y3.3923
G1 X13.2317 Y3.3966
G1 X13.2384 Y3.4013
G1 X13.2447 Y3.4065
G1 X13.2506 Y3.4121
G1 X13.2562 Y3.4181
G1 X13.2614 Y3.4244
G1 X13.2662 Y3.431
G1 X13.2705 Y3.4379
G1 X13.2743 Y3.4451
G1 X13.2777 Y3.4526
G1 X13.2806 Y3.4602
G1 X13.2829 Y3.468
G1 X13.2848 Y3.476
G1 X13.2861 Y3.4841
G1 X13.2869 Y3.4922
G1 X13.2872 Y3.5003
G1 X13.2869 Y3.5085
G1 X13.2861 Y3.5166
G1 X13.2848 Y3.5247
G1 X13.2829 Y3.5326
G1 F5.0 X13.0651 Y3.4223
G1 X13.0686 Y3.4181 Z-0.201
G1 X13.0742 Y3.4121 Z-0.2024
G1 X13.0801 Y3.4065 Z-0.2038
G1 X13.0864 Y3.4013 Z-0.2053
G1 X13.0931 Y3.3966 Z-0.2067
G1 X13.1 Y3.3923 Z-0.2082
G1 X13.1072 Y3.3884 Z-0.2096
G1 X13.1146 Y3.385 Z-0.211
G1 X13.1223 Y3.3822 Z-0.2125
G1 X13.1301 Y3.3798 Z-0.2139
G1 X13.1381 Y3.3779 Z-0.2154
G1 X13.1461 Y3.3766 Z-0.2168
G1 X13.1542 Y3.3758 Z-0.2182
G1 X13.1624 Y3.3755 Z-0.2197
G1 X13.1706 Y3.3758 Z-0.2211
G1 X13.1787 Y3.3766 Z-0.2226
G1 X13.1867 Y3.3779 Z-0.224
G1 X13.1947 Y3.3798 Z-0.2254
G1 X13.2025 Y3.3822 Z-0.2269
G1 X13.2102 Y3.385 Z-0.2283
G1 X13.2176 Y3.3884 Z-0.2298
G1 X13.2248 Y3.3923 Z-0.2312
G1 X13.2317 Y3.3966 Z-0.2326
G1 X13.2384 Y3.4013 Z-0.2341
G1 X13.2447 Y3.4065 Z-0.2355
G1 X13.2506 Y3.4121 Z-0.237
G1 X13.2562 Y3.4181 Z-0.2384
G1 X13.2614 Y3.4244 Z-0.2398
G1 X13.2662 Y3.431 Z-0.2413
G1 X13.2705 Y3.4379 Z-0.2427
G1 X13.2743 Y3.4451 Z-0.2442
G1 X13.2777 Y3.4526 Z-0.2456
G1 X13.2806 Y3.4602 Z-0.247
G1 X13.2829 Y3.468 Z-0.2485
G1 X13.2848 Y3.476 Z-0.2499
G1 X13.2861 Y3.4841 Z-0.2514
G1 X13.2869 Y3.4922 Z-0.2528
G1 X13.2872 Y3.5003 Z-0.2542
G1 X13.2869 Y3.5085 Z-0.2557
G1 X13.2861 Y3.5166 Z-0.2571
G1 X13.2848 Y3.5247 Z-0.2586
G1 X13.2829 Y3.5326 Z-0.26
G1 F9.0 X13.2806 Y3.5405
G1 X13.2777 Y3.5481
G1 X13.2743 Y3.5555
G1 X13.2705 Y3.5627
G1 X13.2662 Y3.5697
G1 X13.2614 Y3.5763
G1 X13.2562 Y3.5826
G1 X13.2506 Y3.5886
G1 X13.2447 Y3.5942
G1 X13.2384 Y3.5994
G1 X13.2317 Y3.6041
G1 X13.2248 Y3.6084
G1 X13.2176 Y3.6123
G1 X13.2102 Y3.6156
G1 X13.2025 Y3.6185
G1 X13.1947 Y3.6209
G1 X13.1867 Y3.6227
G1 X13.1787 Y3.6241
G1 X13.1706 Y3.6249
G1 X13.1624 Y3.6251
G1 X13.1542 Y3.6249
G1 X13.1461 Y3.6241
G1 X13.1381 Y3.6227
G1 X13.1301 Y3.6209
G1 X13.1223 Y3.6185
G1 X13.1146 Y3.6156
G1 X13.1072 Y3.6123
G1 X13.1 Y3.6084
G1 X13.0931 Y3.6041
G1 X13.0864 Y3.5994
G1 X13.0801 Y3.5942
G1 X13.0742 Y3.5886
G1 X13.0686 Y3.5826
G1 X13.0634 Y3.5763
G1 X13.0586 Y3.5697
G1 X13.0543 Y3.5627
G1 X13.0505 Y3.5555
G1 X13.0471 Y3.5481
G1 X13.0442 Y3.5405
G1 X13.0419 Y3.5326
G1 X13.04 Y3.5247
G1 X13.0387 Y3.5166
G1 X13.0379 Y3.5085
G1 X13.0376 Y3.5003
G1 X13.0379 Y3.4922
G1 X13.0387 Y3.4841
G1 X13.04 Y3.476
G1 X13.0419 Y3.468
G1 X13.0442 Y3.4602
G1 X13.0471 Y3.4526
G1 X13.0505 Y3.4451
G1 X13.0543 Y3.4379
G1 X13.0586 Y3.431
G1 X13.0634 Y3.4244
G1 X13.0686 Y3.4181
G1 X13.0742 Y3.4121
G1 X13.0801 Y3.4065
G1 X13.0864 Y3.4013
G1 X13.0931 Y3.3966
G1 X13.1 Y3.3923
G1 X13.1072 Y3.3884
G1 X13.1146 Y3.385
G1 X13.1223 Y3.3822
G1 X13.1301 Y3.3798
G1 X13.1381 Y3.3779
G1 X13.1461 Y3.3766
G1 X13.1542 Y3.3758
G1 X13.1624 Y3.3755
G1 X13.1706 Y3.3758
G1 X13.1787 Y3.3766
G1 X13.1867 Y3.3779
G1 X13.1947 Y3.3798
G1 X13.2025 Y3.3822
G1 X13.2102 Y3.385
G1 X13.2176 Y3.3884
G1 X13.2248 Y3.3923
G1 X13.2317 Y3.3966
G1 X13.2384 Y3.4013
G1 X13.2447 Y3.4065
G1 X13.2506 Y3.4121
G1 X13.2562 Y3.4181
G1 X13.2614 Y3.4244
G1 X13.2662 Y3.431
G1 X13.2705 Y3.4379
G1 X13.2743 Y3.4451
G1 X13.2777 Y3.4526
G1 X13.2806 Y3.4602
