( Made using CamBam - http://www.cambam.co.uk )
( TrackV2.Master.Mold.6.breakdown.short 5/12/2014 9:27:11 AM )
( T20 : 0.125 )
G20 G90 G61 G40
G0 Z1.5
( T20 : 0.125 )
T20 M6
( Profile1 )
G17
M3 S4000
G0 X0.1875 Y0.2731
G0 Z0.0625
G1 F4.0 Z0.0
G1 Y0.5 Z-0.04
G1 F9.0 Y0.0
G2 X0.125 Y-0.0625 I-0.0625 J0.0
G1 X0.0
G2 X-0.0625 Y0.0 I0.0 J0.0625
G1 Y1.0
G2 X0.0 Y1.0625 I0.0625 J0.0
G1 X5.0
G2 X5.0625 Y1.0 I0.0 J-0.0625
G1 Y0.0
G2 X5.0 Y-0.0625 I-0.0625 J0.0
G1 X4.875
G2 X4.8125 Y0.0 I0.0 J0.0625
G1 Y0.5
G0 Z1.5
G0 X4.6213 Y-0.0625
G0 Z0.0625
G1 F4.0 Z0.0
G1 X4.75 Z-0.0227
G3 X4.8125 Y0.0 Z-0.04 I0.0 J0.0625
G2 F9.0 X4.75 Y-0.0625 I-0.0625 J0.0
G1 X3.65
G2 X3.588 Y-0.0082 I0.0 J0.0625
G1 X3.5859 Y0.0079
G1 X3.5828 Y0.0154
G1 X3.578 Y0.0217
G1 X3.5716 Y0.0266
G1 X3.5642 Y0.0297
G1 X3.5563 Y0.0307
G1 X3.5483 Y0.0297
G1 X3.5409 Y0.0266
G1 X3.5345 Y0.0217
G1 X3.5297 Y0.0154
G1 X3.5266 Y0.0079
G1 X3.5245 Y-0.0082
G2 X3.4625 Y-0.0625 I-0.062 J0.0082
G1 X2.5625
G2 X2.5 Y0.0 I0.0 J0.0625
G1 Y0.5
G0 Z1.5
G0 X2.3088 Y-0.0625
G0 Z0.0625
G1 F4.0 Z0.0
G1 X2.4375 Z-0.0227
G3 X2.5 Y0.0 Z-0.04 I0.0 J0.0625
G2 F9.0 X2.4375 Y-0.0625 I-0.0625 J0.0
G1 X1.4375
G2 X1.3755 Y-0.0082 I0.0 J0.0625
G1 X1.3734 Y0.0079
G1 X1.3703 Y0.0154
G1 X1.3655 Y0.0217
G1 X1.3591 Y0.0266
G1 X1.3517 Y0.0297
G1 X1.3438 Y0.0307
G1 X1.3358 Y0.0297
G1 X1.3284 Y0.0266
G1 X1.322 Y0.0217
G1 X1.3172 Y0.0154
G1 X1.3141 Y0.0079
G1 X1.312 Y-0.0082
G2 X1.25 Y-0.0625 I-0.062 J0.0082
G1 X0.25
G2 X0.1875 Y0.0 I0.0 J0.0625
G0 Z1.5
G0 Y0.2731
G0 Z0.0225
G1 F4.0 Z-0.04
G1 Y0.5 Z-0.08
G1 F9.0 Y0.0
G2 X0.125 Y-0.0625 I-0.0625 J0.0
G1 X0.0
G2 X-0.0625 Y0.0 I0.0 J0.0625
G1 Y1.0
G2 X0.0 Y1.0625 I0.0625 J0.0
G1 X5.0
G2 X5.0625 Y1.0 I0.0 J-0.0625
G1 Y0.0
G2 X5.0 Y-0.0625 I-0.0625 J0.0
G1 X4.875
G2 X4.8125 Y0.0 I0.0 J0.0625
G1 Y0.5
G0 Z1.5
G0 X4.6213 Y-0.0625
G0 Z0.0225
G1 F4.0 Z-0.04
G1 X4.75 Z-0.0627
G3 X4.8125 Y0.0 Z-0.08 I0.0 J0.0625
G2 F9.0 X4.75 Y-0.0625 I-0.0625 J0.0
G1 X3.65
G2 X3.588 Y-0.0082 I0.0 J0.0625
G1 X3.5859 Y0.0079
G1 X3.5828 Y0.0154
G1 X3.578 Y0.0217
G1 X3.5716 Y0.0266
G1 X3.5642 Y0.0297
G1 X3.5563 Y0.0307
G1 X3.5483 Y0.0297
G1 X3.5409 Y0.0266
G1 X3.5345 Y0.0217
G1 X3.5297 Y0.0154
G1 X3.5266 Y0.0079
G1 X3.5245 Y-0.0082
G2 X3.4625 Y-0.0625 I-0.062 J0.0082
G1 X2.5625
G2 X2.5 Y0.0 I0.0 J0.0625
G1 Y0.5
G0 Z1.5
G0 X2.3088 Y-0.0625
G0 Z0.0225
G1 F4.0 Z-0.04
G1 X2.4375 Z-0.0627
G3 X2.5 Y0.0 Z-0.08 I0.0 J0.0625
G2 F9.0 X2.4375 Y-0.0625 I-0.0625 J0.0
G1 X1.4375
G2 X1.3755 Y-0.0082 I0.0 J0.0625
G1 X1.3734 Y0.0079
G1 X1.3703 Y0.0154
G1 X1.3655 Y0.0217
G1 X1.3591 Y0.0266
G1 X1.3517 Y0.0297
G1 X1.3438 Y0.0307
G1 X1.3358 Y0.0297
G1 X1.3284 Y0.0266
G1 X1.322 Y0.0217
G1 X1.3172 Y0.0154
G1 X1.3141 Y0.0079
G1 X1.312 Y-0.0082
G2 X1.25 Y-0.0625 I-0.062 J0.0082
G1 X0.25
G2 X0.1875 Y0.0 I0.0 J0.0625
G0 Z1.5
G0 Y0.2731
G0 Z-0.0175
G1 F4.0 Z-0.08
G1 Y0.5 Z-0.12
G1 F9.0 Y0.0
G2 X0.125 Y-0.0625 I-0.0625 J0.0
G1 X0.0
G2 X-0.0625 Y0.0 I0.0 J0.0625
G1 Y1.0
G2 X0.0 Y1.0625 I0.0625 J0.0
G1 X5.0
G2 X5.0625 Y1.0 I0.0 J-0.0625
G1 Y0.0
G2 X5.0 Y-0.0625 I-0.0625 J0.0
G1 X4.875
G2 X4.8125 Y0.0 I0.0 J0.0625
G1 Y0.5
G0 Z1.5
G0 X4.6213 Y-0.0625
G0 Z-0.0175
G1 F4.0 Z-0.08
G1 X4.75 Z-0.1027
G3 X4.8125 Y0.0 Z-0.12 I0.0 J0.0625
G2 F9.0 X4.75 Y-0.0625 I-0.0625 J0.0
G1 X3.65
G2 X3.588 Y-0.0082 I0.0 J0.0625
G1 X3.5859 Y0.0079
G1 X3.5828 Y0.0154
G1 X3.578 Y0.0217
G1 X3.5716 Y0.0266
G1 X3.5642 Y0.0297
G1 X3.5563 Y0.0307
G1 X3.5483 Y0.0297
G1 X3.5409 Y0.0266
G1 X3.5345 Y0.0217
G1 X3.5297 Y0.0154
G1 X3.5266 Y0.0079
G1 X3.5245 Y-0.0082
G2 X3.4625 Y-0.0625 I-0.062 J0.0082
G1 X2.5625
G2 X2.5 Y0.0 I0.0 J0.0625
G1 Y0.5
G0 Z1.5
G0 X2.3088 Y-0.0625
G0 Z-0.0175
G1 F4.0 Z-0.08
G1 X2.4375 Z-0.1027
G3 X2.5 Y0.0 Z-0.12 I0.0 J0.0625
G2 F9.0 X2.4375 Y-0.0625 I-0.0625 J0.0
G1 X1.4375
G2 X1.3755 Y-0.0082 I0.0 J0.0625
G1 X1.3734 Y0.0079
G1 X1.3703 Y0.0154
G1 X1.3655 Y0.0217
G1 X1.3591 Y0.0266
G1 X1.3517 Y0.0297
G1 X1.3438 Y0.0307
G1 X1.3358 Y0.0297
G1 X1.3284 Y0.0266
G1 X1.322 Y0.0217
G1 X1.3172 Y0.0154
G1 X1.3141 Y0.0079
G1 X1.312 Y-0.0082
G2 X1.25 Y-0.0625 I-0.062 J0.0082
G1 X0.25
G2 X0.1875 Y0.0 I0.0 J0.0625
G0 Z1.5
G0 Y0.2731
G0 Z-0.0575
G1 F4.0 Z-0.12
G1 Y0.5 Z-0.16
G1 F9.0 Y0.0
G2 X0.125 Y-0.0625 I-0.0625 J0.0
G1 X0.0
G2 X-0.0625 Y0.0 I0.0 J0.0625
G1 Y1.0
G2 X0.0 Y1.0625 I0.0625 J0.0
G1 X5.0
G2 X5.0625 Y1.0 I0.0 J-0.0625
G1 Y0.0
G2 X5.0 Y-0.0625 I-0.0625 J0.0
G1 X4.875
G2 X4.8125 Y0.0 I0.0 J0.0625
G1 Y0.5
G0 Z1.5
G0 X4.6213 Y-0.0625
G0 Z-0.0575
G1 F4.0 Z-0.12
G1 X4.75 Z-0.1427
G3 X4.8125 Y0.0 Z-0.16 I0.0 J0.0625
G2 F9.0 X4.75 Y-0.0625 I-0.0625 J0.0
G1 X3.65
G2 X3.588 Y-0.0082 I0.0 J0.0625
G1 X3.5859 Y0.0079
G1 X3.5828 Y0.0154
G1 X3.578 Y0.0217
G1 X3.5716 Y0.0266
G1 X3.5642 Y0.0297
G1 X3.5563 Y0.0307
G1 X3.5483 Y0.0297
G1 X3.5409 Y0.0266
G1 X3.5345 Y0.0217
G1 X3.5297 Y0.0154
G1 X3.5266 Y0.0079
G1 X3.5245 Y-0.0082
G2 X3.4625 Y-0.0625 I-0.062 J0.0082
G1 X2.5625
G2 X2.5 Y0.0 I0.0 J0.0625
G1 Y0.5
G0 Z1.5
G0 X2.3088 Y-0.0625
G0 Z-0.0575
G1 F4.0 Z-0.12
G1 X2.4375 Z-0.1427
G3 X2.5 Y0.0 Z-0.16 I0.0 J0.0625
G2 F9.0 X2.4375 Y-0.0625 I-0.0625 J0.0
G1 X1.4375
G2 X1.3755 Y-0.0082 I0.0 J0.0625
G1 X1.3734 Y0.0079
G1 X1.3703 Y0.0154
G1 X1.3655 Y0.0217
G1 X1.3591 Y0.0266
G1 X1.3517 Y0.0297
G1 X1.3438 Y0.0307
G1 X1.3358 Y0.0297
G1 X1.3284 Y0.0266
G1 X1.322 Y0.0217
G1 X1.3172 Y0.0154
G1 X1.3141 Y0.0079
G1 X1.312 Y-0.0082
G2 X1.25 Y-0.0625 I-0.062 J0.0082
G1 X0.25
G2 X0.1875 Y0.0 I0.0 J0.0625
G0 Z1.5
G0 Y0.2731
G0 Z-0.0975
G1 F4.0 Z-0.16
G1 Y0.5 Z-0.2
G1 F9.0 Y0.0
G2 X0.125 Y-0.0625 I-0.0625 J0.0
G1 X0.0
G2 X-0.0625 Y0.0 I0.0 J0.0625
G1 Y1.0
G2 X0.0 Y1.0625 I0.0625 J0.0
G1 X5.0
G2 X5.0625 Y1.0 I0.0 J-0.0625
G1 Y0.0
G2 X5.0 Y-0.0625 I-0.0625 J0.0
G1 X4.875
G2 X4.8125 Y0.0 I0.0 J0.0625
G1 Y0.5
G0 Z1.5
G0 X4.6213 Y-0.0625
G0 Z-0.0975
G1 F4.0 Z-0.16
G1 X4.75 Z-0.1827
G3 X4.8125 Y0.0 Z-0.2 I0.0 J0.0625
G2 F9.0 X4.75 Y-0.0625 I-0.0625 J0.0
G1 X3.65
G2 X3.588 Y-0.0082 I0.0 J0.0625
G1 X3.5859 Y0.0079
G1 X3.5828 Y0.0154
G1 X3.578 Y0.0217
G1 X3.5716 Y0.0266
G1 X3.5642 Y0.0297
G1 X3.5563 Y0.0307
G1 X3.5483 Y0.0297
G1 X3.5409 Y0.0266
G1 X3.5345 Y0.0217
G1 X3.5297 Y0.0154
G1 X3.5266 Y0.0079
G1 X3.5245 Y-0.0082
G2 X3.4625 Y-0.0625 I-0.062 J0.0082
G1 X2.5625
G2 X2.5 Y0.0 I0.0 J0.0625
G1 Y0.5
G0 Z1.5
G0 X2.3088 Y-0.0625
G0 Z-0.0975
G1 F4.0 Z-0.16
G1 X2.4375 Z-0.1827
G3 X2.5 Y0.0 Z-0.2 I0.0 J0.0625
G2 F9.0 X2.4375 Y-0.0625 I-0.0625 J0.0
G1 X1.4375
G2 X1.3755 Y-0.0082 I0.0 J0.0625
G1 X1.3734 Y0.0079
G1 X1.3703 Y0.0154
G1 X1.3655 Y0.0217
G1 X1.3591 Y0.0266
G1 X1.3517 Y0.0297
G1 X1.3438 Y0.0307
G1 X1.3358 Y0.0297
G1 X1.3284 Y0.0266
G1 X1.322 Y0.0217
G1 X1.3172 Y0.0154
G1 X1.3141 Y0.0079
G1 X1.312 Y-0.0082
G2 X1.25 Y-0.0625 I-0.062 J0.0082
G1 X0.25
G2 X0.1875 Y0.0 I0.0 J0.0625
G0 Z1.5
G0 Y0.2731
G0 Z-0.1375
G1 F4.0 Z-0.2
G1 Y0.5 Z-0.24
G1 F9.0 Y0.0
G2 X0.125 Y-0.0625 I-0.0625 J0.0
G1 X0.0
G2 X-0.0625 Y0.0 I0.0 J0.0625
G1 Y1.0
G2 X0.0 Y1.0625 I0.0625 J0.0
G1 X5.0
G2 X5.0625 Y1.0 I0.0 J-0.0625
G1 Y0.0
G2 X5.0 Y-0.0625 I-0.0625 J0.0
G1 X4.875
G2 X4.8125 Y0.0 I0.0 J0.0625
G1 Y0.5
G0 Z1.5
G0 X4.6213 Y-0.0625
G0 Z-0.1375
G1 F4.0 Z-0.2
G1 X4.75 Z-0.2227
G3 X4.8125 Y0.0 Z-0.24 I0.0 J0.0625
G2 F9.0 X4.75 Y-0.0625 I-0.0625 J0.0
G1 X3.65
G2 X3.588 Y-0.0082 I0.0 J0.0625
G1 X3.5859 Y0.0079
G1 X3.5828 Y0.0154
G1 X3.578 Y0.0217
G1 X3.5716 Y0.0266
G1 X3.5642 Y0.0297
G1 X3.5563 Y0.0307
G1 X3.5483 Y0.0297
G1 X3.5409 Y0.0266
G1 X3.5345 Y0.0217
G1 X3.5297 Y0.0154
G1 X3.5266 Y0.0079
G1 X3.5245 Y-0.0082
G2 X3.4625 Y-0.0625 I-0.062 J0.0082
G1 X2.5625
G2 X2.5 Y0.0 I0.0 J0.0625
G1 Y0.5
G0 Z1.5
G0 X2.3088 Y-0.0625
G0 Z-0.1375
G1 F4.0 Z-0.2
G1 X2.4375 Z-0.2227
G3 X2.5 Y0.0 Z-0.24 I0.0 J0.0625
G2 F9.0 X2.4375 Y-0.0625 I-0.0625 J0.0
G1 X1.4375
G2 X1.3755 Y-0.0082 I0.0 J0.0625
G1 X1.3734 Y0.0079
G1 X1.3703 Y0.0154
G1 X1.3655 Y0.0217
G1 X1.3591 Y0.0266
G1 X1.3517 Y0.0297
G1 X1.3438 Y0.0307
G1 X1.3358 Y0.0297
G1 X1.3284 Y0.0266
G1 X1.322 Y0.0217
G1 X1.3172 Y0.0154
G1 X1.3141 Y0.0079
G1 X1.312 Y-0.0082
G2 X1.25 Y-0.0625 I-0.062 J0.0082
G1 X0.25
G2 X0.1875 Y0.0 I0.0 J0.0625
G0 Z1.5
G0 Y0.3866
G0 Z-0.1775
G1 F4.0 Z-0.24
G1 Y0.5 Z-0.26
G1 F9.0 Y0.0
G2 X0.125 Y-0.0625 I-0.0625 J0.0
G1 X0.0
G2 X-0.0625 Y0.0 I0.0 J0.0625
G1 Y1.0
G2 X0.0 Y1.0625 I0.0625 J0.0
G1 X5.0
G2 X5.0625 Y1.0 I0.0 J-0.0625
G1 Y0.0
G2 X5.0 Y-0.0625 I-0.0625 J0.0
G1 X4.875
G2 X4.8125 Y0.0 I0.0 J0.0625
G1 Y0.5
G0 Z1.5
G0 X4.7347 Y-0.0625
G0 Z-0.1775
G1 F4.0 Z-0.24
G1 X4.75 Z-0.2427
G3 X4.8125 Y0.0 Z-0.26 I0.0 J0.0625
G2 F9.0 X4.75 Y-0.0625 I-0.0625 J0.0
G1 X3.65
G2 X3.588 Y-0.0082 I0.0 J0.0625
G1 X3.5859 Y0.0079
G1 X3.5828 Y0.0154
G1 X3.578 Y0.0217
G1 X3.5716 Y0.0266
G1 X3.5642 Y0.0297
G1 X3.5563 Y0.0307
G1 X3.5483 Y0.0297
G1 X3.5409 Y0.0266
G1 X3.5345 Y0.0217
G1 X3.5297 Y0.0154
G1 X3.5266 Y0.0079
G1 X3.5245 Y-0.0082
G2 X3.4625 Y-0.0625 I-0.062 J0.0082
G1 X2.5625
G2 X2.5 Y0.0 I0.0 J0.0625
G1 Y0.5
G0 Z1.5
G0 X2.4222 Y-0.0625
G0 Z-0.1775
G1 F4.0 Z-0.24
G1 X2.4375 Z-0.2427
G3 X2.5 Y0.0 Z-0.26 I0.0 J0.0625
G2 F9.0 X2.4375 Y-0.0625 I-0.0625 J0.0
G1 X1.4375
G2 X1.3755 Y-0.0082 I0.0 J0.0625
G1 X1.3734 Y0.0079
G1 X1.3703 Y0.0154
G1 X1.3655 Y0.0217
G1 X1.3591 Y0.0266
G1 X1.3517 Y0.0297
G1 X1.3438 Y0.0307
G1 X1.3358 Y0.0297
G1 X1.3284 Y0.0266
G1 X1.322 Y0.0217
G1 X1.3172 Y0.0154
G1 X1.3141 Y0.0079
G1 X1.312 Y-0.0082
G2 X1.25 Y-0.0625 I-0.062 J0.0082
G1 X0.25
G2 X0.1875 Y0.0 I0.0 J0.0625
G0 Z1.5
M5
M30
